{
 "type": "map",
 "version": "1.10",
 "tiledversion": "1.12.1",
 "orientation": "orthogonal",
 "renderorder": "right-down",
 "width": 11,
 "height": 17,
 "tilewidth": 16,
 "tileheight": 16,
 "infinite": false,
 "compressionlevel": -1,
 "nextlayerid": 200,
 "nextobjectid": 200,
 "tilesets": [
  {
   "firstgid": 1,
   "name": "Room_Builder_16x16",
   "tilewidth": 16,
   "tileheight": 16,
   "tilecount": 8588,
   "columns": 76,
   "image": "../assets/interiors/Room_Builder_16x16.png",
   "imagewidth": 1216,
   "imageheight": 1808,
   "margin": 0,
   "spacing": 0
  },
  {
   "firstgid": 8589,
   "name": "Generic_Home_1_Layer_1",
   "tilewidth": 16,
   "tileheight": 16,
   "tilecount": 182,
   "columns": 14,
   "image": "../assets/interiors/Generic_Home_1_Layer_1.png",
   "imagewidth": 224,
   "imageheight": 208,
   "margin": 0,
   "spacing": 0
  },
  {
   "firstgid": 11187,
   "name": "Interiors_16x16",
   "tilewidth": 16,
   "tileheight": 16,
   "tilecount": 14608,
   "columns": 16,
   "image": "../assets/interiors/Interiors_16x16.png",
   "imagewidth": 256,
   "imageheight": 14608,
   "margin": 0,
   "spacing": 0
  }
 ],
 "layers": [
  {
   "type": "tilelayer",
   "id": 1,
   "name": "Layout",
   "width": 11,
   "height": 17,
   "x": 0,
   "y": 0,
   "opacity": 1.0,
   "visible": true,
   "data": [
    0,
    0,
    0,
    0,
    0,
    0,
    0,
    0,
    0,
    0,
    0,
    0,
    8589,
    8590,
    8591,
    8592,
    8592,
    8592,
    8592,
    8600,
    8601,
    0,
    0,
    8603,
    8604,
    8605,
    8606,
    8606,
    8606,
    8606,
    8614,
    8615,
    0,
    0,
    0,
    0,
    4311,
    8620,
    8623,
    8623,
    8623,
    8628,
    8629,
    0,
    0,
    8617,
    8618,
    8619,
    8634,
    8637,
    8638,
    8639,
    8642,
    8699,
    0,
    0,
    8631,
    8632,
    8633,
    8648,
    8651,
    8652,
    8653,
    8656,
    8699,
    0,
    0,
    8645,
    8646,
    8647,
    8662,
    8665,
    8666,
    8667,
    8670,
    8699,
    0,
    0,
    8673,
    8674,
    8675,
    8676,
    8679,
    8680,
    8681,
    8684,
    8699,
    0,
    0,
    8687,
    8688,
    8689,
    8690,
    8693,
    8694,
    8695,
    8698,
    8699,
    0,
    0,
    8701,
    8702,
    8689,
    8690,
    8693,
    8694,
    8695,
    8698,
    8699,
    0,
    0,
    8715,
    8716,
    8689,
    8690,
    8693,
    8694,
    8695,
    8698,
    8699,
    0,
    0,
    8729,
    8730,
    8689,
    8690,
    8693,
    8694,
    8695,
    8698,
    8699,
    0,
    0,
    8743,
    8744,
    8689,
    8690,
    8693,
    8694,
    8695,
    8698,
    8699,
    0,
    0,
    8757,
    8758,
    8703,
    8704,
    8707,
    8708,
    8709,
    8712,
    8713,
    0,
    0,
    0,
    0,
    8717,
    8718,
    8721,
    8722,
    8723,
    8726,
    8727,
    0,
    0,
    0,
    0,
    8731,
    8732,
    8735,
    8736,
    8737,
    8740,
    8741,
    0,
    0,
    0,
    0,
    0,
    0,
    0,
    0,
    0,
    0,
    0,
    0
   ]
  },
  {
   "type": "tilelayer",
   "id": 2,
   "name": "Floor_Items",
   "width": 11,
   "height": 17,
   "x": 0,
   "y": 0,
   "opacity": 1.0,
   "visible": true,
   "data": [
    0,
    0,
    0,
    0,
    0,
    0,
    0,
    0,
    0,
    0,
    0,
    0,
    0,
    0,
    0,
    0,
    0,
    0,
    0,
    0,
    0,
    0,
    0,
    0,
    0,
    0,
    0,
    0,
    0,
    0,
    0,
    0,
    0,
    0,
    0,
    0,
    0,
    0,
    0,
    0,
    0,
    0,
    0,
    0,
    0,
    0,
    0,
    0,
    0,
    0,
    0,
    0,
    0,
    0,
    0,
    0,
    0,
    0,
    0,
    25767,
    0,
    0,
    25767,
    0,
    0,
    0,
    0,
    0,
    2147505328,
    0,
    25783,
    25767,
    25767,
    0,
    0,
    0,
    0,
    0,
    0,
    0,
    0,
    0,
    0,
    25783,
    25767,
    0,
    0,
    0,
    0,
    0,
    0,
    0,
    0,
    1610634158,
    0,
    21679,
    0,
    0,
    0,
    0,
    0,
    0,
    0,
    0,
    0,
    0,
    19784,
    19758,
    0,
    0,
    0,
    0,
    0,
    0,
    0,
    0,
    0,
    19800,
    19774,
    0,
    0,
    0,
    0,
    0,
    0,
    0,
    0,
    0,
    0,
    0,
    0,
    0,
    0,
    0,
    0,
    0,
    0,
    0,
    0,
    2684375965,
    0,
    0,
    0,
    0,
    0,
    0,
    0,
    0,
    0,
    0,
    0,
    0,
    0,
    0,
    0,
    0,
    0,
    0,
    18261,
    0,
    0,
    0,
    0,
    0,
    0,
    0,
    0,
    0,
    0,
    18277,
    0,
    0,
    0,
    23321,
    0,
    0,
    0,
    0,
    0,
    0,
    0,
    0,
    0,
    0,
    0,
    0,
    0
   ]
  },
  {
   "type": "tilelayer",
   "id": 7,
   "name": "Floor_Furniture",
   "width": 11,
   "height": 17,
   "x": 0,
   "y": 0,
   "opacity": 1.0,
   "visible": true,
   "data": [
    0,
    0,
    0,
    0,
    0,
    0,
    0,
    0,
    0,
    0,
    0,
    0,
    0,
    0,
    0,
    0,
    0,
    0,
    0,
    22421,
    0,
    0,
    0,
    0,
    0,
    0,
    0,
    0,
    0,
    0,
    22437,
    0,
    0,
    0,
    0,
    0,
    0,
    0,
    0,
    0,
    0,
    22339,
    0,
    0,
    0,
    0,
    0,
    0,
    0,
    0,
    0,
    0,
    0,
    0,
    0,
    0,
    0,
    0,
    0,
    0,
    0,
    0,
    2147497949,
    2147497948,
    0,
    0,
    0,
    0,
    0,
    0,
    0,
    0,
    0,
    2147497965,
    2147497964,
    0,
    0,
    0,
    0,
    0,
    0,
    14296,
    14297,
    0,
    2147497965,
    2147497964,
    0,
    0,
    0,
    0,
    0,
    0,
    14344,
    14345,
    0,
    2147497981,
    2147497980,
    0,
    0,
    0,
    0,
    0,
    0,
    14344,
    14345,
    0,
    14302,
    14303,
    0,
    0,
    0,
    0,
    0,
    0,
    14328,
    14329,
    0,
    14318,
    14319,
    0,
    0,
    0,
    0,
    0,
    0,
    0,
    0,
    0,
    14350,
    14351,
    0,
    0,
    0,
    0,
    0,
    0,
    0,
    0,
    0,
    14334,
    14335,
    0,
    0,
    0,
    0,
    0,
    0,
    0,
    0,
    0,
    0,
    0,
    0,
    0,
    0,
    0,
    0,
    0,
    0,
    0,
    0,
    0,
    0,
    0,
    0,
    0,
    0,
    0,
    0,
    16637,
    16638,
    0,
    16721,
    0,
    0,
    0,
    0,
    0,
    0,
    0,
    0,
    0,
    0,
    0,
    0,
    0,
    0
   ]
  },
  {
   "type": "tilelayer",
   "id": 5,
   "name": "Floor_Furniture_Decor",
   "width": 11,
   "height": 17,
   "x": 0,
   "y": 0,
   "opacity": 1.0,
   "visible": true,
   "data": [
    0,
    0,
    0,
    0,
    0,
    0,
    0,
    0,
    0,
    0,
    0,
    0,
    0,
    0,
    0,
    11199,
    11200,
    11201,
    11202,
    0,
    0,
    0,
    0,
    0,
    0,
    0,
    11215,
    11216,
    11217,
    11218,
    0,
    0,
    0,
    0,
    0,
    0,
    0,
    11231,
    11232,
    11233,
    11234,
    24880,
    0,
    0,
    0,
    0,
    0,
    0,
    0,
    0,
    0,
    14168,
    14169,
    0,
    0,
    0,
    0,
    0,
    0,
    0,
    0,
    0,
    14184,
    14185,
    0,
    0,
    0,
    0,
    0,
    0,
    0,
    0,
    0,
    2684368815,
    2684368799,
    0,
    0,
    0,
    0,
    0,
    0,
    0,
    0,
    0,
    1610632549,
    1610632565,
    0,
    0,
    0,
    0,
    0,
    0,
    2684368848,
    2684368832,
    0,
    0,
    0,
    0,
    0,
    0,
    0,
    0,
    0,
    2684368849,
    2684368833,
    0,
    0,
    0,
    0,
    0,
    0,
    0,
    0,
    0,
    0,
    16791,
    0,
    0,
    0,
    0,
    0,
    0,
    0,
    0,
    0,
    14023,
    14111,
    0,
    2684368847,
    2684368831,
    0,
    0,
    0,
    0,
    0,
    0,
    14022,
    14127,
    0,
    0,
    0,
    0,
    0,
    0,
    0,
    0,
    0,
    0,
    0,
    0,
    0,
    0,
    0,
    0,
    0,
    0,
    0,
    0,
    0,
    0,
    0,
    0,
    0,
    0,
    0,
    0,
    0,
    0,
    0,
    0,
    0,
    0,
    0,
    0,
    0,
    0,
    0,
    0,
    0,
    0,
    0,
    0,
    0,
    0,
    0,
    0,
    0
   ]
  },
  {
   "type": "tilelayer",
   "id": 8,
   "name": "Wall_Furniture",
   "width": 11,
   "height": 17,
   "x": 0,
   "y": 0,
   "opacity": 1.0,
   "visible": true,
   "data": [
    0,
    0,
    0,
    0,
    0,
    0,
    0,
    0,
    0,
    0,
    0,
    0,
    0,
    0,
    0,
    21710,
    0,
    21726,
    0,
    0,
    0,
    0,
    0,
    0,
    0,
    0,
    16755,
    0,
    16756,
    16757,
    0,
    0,
    0,
    0,
    0,
    0,
    0,
    16771,
    0,
    16772,
    16773,
    0,
    0,
    0,
    0,
    0,
    0,
    0,
    0,
    0,
    0,
    0,
    0,
    0,
    0,
    0,
    0,
    0,
    0,
    0,
    0,
    0,
    0,
    1610628566,
    1610628582,
    0,
    0,
    0,
    0,
    0,
    0,
    0,
    0,
    0,
    1610628565,
    1610628581,
    0,
    0,
    0,
    0,
    2684370404,
    2684370388,
    0,
    0,
    0,
    1610628565,
    1610628581,
    0,
    0,
    0,
    0,
    2684370405,
    2684370389,
    0,
    0,
    0,
    1610628564,
    1610628580,
    0,
    0,
    0,
    0,
    2684370405,
    2684370389,
    0,
    0,
    0,
    1610628566,
    1610628582,
    0,
    0,
    0,
    0,
    2684370406,
    2684370390,
    0,
    0,
    0,
    1610628565,
    1610628581,
    0,
    0,
    0,
    0,
    0,
    25754,
    0,
    0,
    0,
    1610628565,
    1610628581,
    0,
    0,
    0,
    0,
    0,
    16864,
    16864,
    0,
    0,
    1610628564,
    1610628580,
    0,
    0,
    0,
    0,
    0,
    0,
    0,
    0,
    0,
    0,
    0,
    0,
    0,
    0,
    0,
    0,
    0,
    0,
    0,
    0,
    0,
    0,
    0,
    0,
    0,
    0,
    0,
    0,
    0,
    0,
    0,
    0,
    0,
    0,
    0,
    0,
    0,
    0,
    0,
    0,
    0,
    0,
    0,
    0,
    0
   ]
  },
  {
   "type": "tilelayer",
   "id": 23,
   "name": "Walls",
   "width": 11,
   "height": 17,
   "x": 0,
   "y": 0,
   "opacity": 1.0,
   "visible": true,
   "data": [
    0,
    0,
    0,
    0,
    0,
    0,
    0,
    0,
    0,
    0,
    0,
    0,
    0,
    0,
    0,
    0,
    0,
    0,
    0,
    0,
    0,
    0,
    0,
    0,
    0,
    0,
    0,
    0,
    0,
    0,
    0,
    0,
    0,
    0,
    0,
    0,
    0,
    0,
    0,
    0,
    0,
    0,
    0,
    0,
    0,
    0,
    0,
    0,
    0,
    0,
    0,
    0,
    0,
    0,
    0,
    0,
    0,
    0,
    0,
    0,
    0,
    0,
    0,
    0,
    0,
    0,
    0,
    0,
    0,
    0,
    0,
    0,
    0,
    0,
    0,
    0,
    0,
    0,
    0,
    0,
    0,
    0,
    0,
    0,
    0,
    0,
    0,
    0,
    0,
    0,
    0,
    0,
    0,
    0,
    0,
    0,
    0,
    0,
    0,
    0,
    0,
    0,
    0,
    0,
    0,
    0,
    0,
    0,
    0,
    0,
    0,
    0,
    0,
    0,
    0,
    0,
    0,
    0,
    0,
    0,
    0,
    0,
    0,
    0,
    0,
    0,
    0,
    0,
    0,
    0,
    0,
    0,
    0,
    0,
    0,
    0,
    0,
    0,
    0,
    0,
    0,
    0,
    0,
    0,
    0,
    0,
    0,
    4312,
    4385,
    0,
    4157,
    4313,
    0,
    0,
    0,
    0,
    0,
    0,
    0,
    0,
    0,
    0,
    0,
    0,
    0,
    0,
    0,
    0,
    0,
    0,
    0,
    0,
    0,
    0,
    0,
    0,
    0,
    0,
    0,
    0,
    0,
    0,
    0,
    0,
    0,
    0,
    0
   ]
  },
  {
   "type": "tilelayer",
   "id": 9,
   "name": "Wall_Furniture_Decor",
   "width": 11,
   "height": 17,
   "x": 0,
   "y": 0,
   "opacity": 1.0,
   "visible": true,
   "data": [
    0,
    0,
    0,
    0,
    0,
    0,
    0,
    0,
    0,
    0,
    0,
    0,
    0,
    0,
    0,
    0,
    0,
    0,
    0,
    0,
    0,
    0,
    0,
    0,
    0,
    0,
    0,
    0,
    0,
    0,
    0,
    0,
    0,
    0,
    0,
    0,
    0,
    0,
    0,
    0,
    0,
    0,
    0,
    0,
    0,
    0,
    0,
    0,
    0,
    0,
    0,
    0,
    0,
    0,
    0,
    0,
    0,
    0,
    0,
    0,
    0,
    0,
    0,
    0,
    20421,
    0,
    0,
    0,
    0,
    0,
    0,
    0,
    0,
    0,
    0,
    20437,
    0,
    0,
    0,
    0,
    0,
    16668,
    0,
    0,
    0,
    0,
    16676,
    0,
    0,
    0,
    0,
    0,
    2147500367,
    0,
    0,
    0,
    0,
    20534,
    0,
    0,
    0,
    0,
    0,
    2147500383,
    0,
    0,
    0,
    0,
    16726,
    0,
    0,
    0,
    0,
    0,
    2147499254,
    0,
    0,
    0,
    0,
    16742,
    0,
    0,
    0,
    0,
    0,
    16784,
    0,
    0,
    0,
    0,
    20921,
    0,
    0,
    0,
    0,
    0,
    16800,
    0,
    0,
    0,
    0,
    20937,
    0,
    0,
    0,
    0,
    0,
    8712,
    0,
    0,
    0,
    0,
    0,
    0,
    0,
    0,
    0,
    0,
    0,
    0,
    0,
    0,
    0,
    0,
    0,
    0,
    0,
    0,
    0,
    0,
    0,
    0,
    0,
    0,
    0,
    0,
    0,
    0,
    0,
    0,
    0,
    0,
    0,
    0,
    0,
    0,
    0
   ],
   "offsetx": -7
  },
  {
   "type": "tilelayer",
   "id": 12,
   "name": "LoveLetter",
   "width": 11,
   "height": 17,
   "x": 0,
   "y": 0,
   "opacity": 1.0,
   "visible": false,
   "data": [
    0,
    0,
    0,
    0,
    0,
    0,
    0,
    0,
    0,
    0,
    0,
    0,
    0,
    0,
    0,
    0,
    0,
    0,
    0,
    0,
    0,
    0,
    0,
    0,
    0,
    0,
    0,
    0,
    0,
    0,
    0,
    0,
    0,
    0,
    0,
    0,
    0,
    0,
    0,
    0,
    0,
    0,
    0,
    0,
    0,
    0,
    0,
    0,
    0,
    0,
    0,
    0,
    0,
    0,
    0,
    0,
    0,
    0,
    0,
    0,
    0,
    0,
    0,
    0,
    0,
    0,
    0,
    0,
    0,
    0,
    0,
    0,
    0,
    0,
    0,
    0,
    0,
    0,
    0,
    0,
    0,
    0,
    0,
    0,
    0,
    0,
    0,
    0,
    0,
    0,
    0,
    0,
    0,
    0,
    0,
    0,
    0,
    0,
    0,
    0,
    0,
    0,
    0,
    0,
    25711,
    0,
    0,
    0,
    0,
    0,
    0,
    0,
    0,
    0,
    0,
    0,
    0,
    0,
    0,
    0,
    0,
    0,
    0,
    0,
    0,
    0,
    0,
    0,
    0,
    0,
    0,
    0,
    0,
    0,
    0,
    0,
    0,
    0,
    0,
    0,
    0,
    0,
    0,
    0,
    0,
    0,
    0,
    0,
    0,
    0,
    0,
    0,
    0,
    0,
    0,
    0,
    0,
    0,
    0,
    0,
    0,
    0,
    0,
    0,
    0,
    0,
    0,
    0,
    0,
    0,
    0,
    0,
    0,
    0,
    0,
    0,
    0,
    0,
    0,
    0,
    0,
    0,
    0,
    0,
    0,
    0,
    0
   ]
  },
  {
   "type": "tilelayer",
   "id": 13,
   "name": "Letter",
   "width": 11,
   "height": 17,
   "x": 0,
   "y": 0,
   "opacity": 1.0,
   "visible": false,
   "data": [
    0,
    0,
    0,
    0,
    0,
    0,
    0,
    0,
    0,
    0,
    0,
    0,
    0,
    0,
    0,
    0,
    0,
    0,
    0,
    0,
    0,
    0,
    0,
    0,
    0,
    0,
    0,
    0,
    0,
    0,
    0,
    0,
    0,
    0,
    0,
    0,
    0,
    0,
    0,
    0,
    0,
    0,
    0,
    0,
    0,
    0,
    0,
    0,
    0,
    0,
    0,
    0,
    25710,
    0,
    0,
    0,
    0,
    0,
    0,
    0,
    0,
    0,
    0,
    0,
    0,
    0,
    0,
    0,
    0,
    0,
    0,
    0,
    0,
    0,
    0,
    0,
    0,
    0,
    0,
    0,
    0,
    0,
    0,
    0,
    0,
    0,
    0,
    0,
    0,
    0,
    0,
    0,
    0,
    0,
    0,
    0,
    0,
    0,
    0,
    0,
    0,
    0,
    0,
    0,
    0,
    0,
    0,
    0,
    0,
    0,
    0,
    0,
    0,
    0,
    0,
    0,
    0,
    0,
    0,
    0,
    0,
    0,
    0,
    0,
    0,
    0,
    0,
    0,
    0,
    0,
    0,
    0,
    0,
    0,
    0,
    0,
    0,
    0,
    0,
    0,
    0,
    0,
    0,
    0,
    0,
    0,
    0,
    0,
    0,
    0,
    0,
    0,
    0,
    0,
    0,
    0,
    0,
    0,
    0,
    0,
    0,
    0,
    0,
    0,
    0,
    0,
    0,
    0,
    0,
    0,
    0,
    0,
    0,
    0,
    0,
    0,
    0,
    0,
    0,
    0,
    0,
    0,
    0,
    0,
    0,
    0,
    0
   ]
  },
  {
   "type": "objectgroup",
   "id": 100,
   "name": "Collisions",
   "x": 0,
   "y": 0,
   "opacity": 1.0,
   "visible": true,
   "draworder": "topdown",
   "objects": [
    {
     "id": 1,
     "x": 16.0,
     "y": 112.0,
     "width": 48.0,
     "height": 144.0,
     "name": "",
     "rotation": 0,
     "type": "",
     "visible": true
    },
    {
     "id": 2,
     "x": 144.0,
     "y": 16.0,
     "width": 32.0,
     "height": 240.0,
     "name": "",
     "rotation": 0,
     "type": "",
     "visible": true
    },
    {
     "id": 3,
     "x": 16.0,
     "y": 256.0,
     "width": 160.0,
     "height": 16.0,
     "name": "",
     "rotation": 0,
     "type": "",
     "visible": true
    },
    {
     "id": 4,
     "x": 16.0,
     "y": 16.0,
     "width": 48.0,
     "height": 80.0,
     "name": "",
     "rotation": 0,
     "type": "",
     "visible": true
    },
    {
     "id": 5,
     "x": 48.0,
     "y": 16.0,
     "width": 112.0,
     "height": 32.0,
     "name": "",
     "rotation": 0,
     "type": "",
     "visible": true
    },
    {
     "id": 8,
     "x": 48.0,
     "y": 224.0,
     "width": 48.0,
     "height": 16.0,
     "name": "",
     "rotation": 0,
     "type": "",
     "visible": true
    },
    {
     "id": 9,
     "x": 112.0,
     "y": 224.0,
     "width": 48.0,
     "height": 16.0,
     "name": "",
     "rotation": 0,
     "type": "",
     "visible": true
    },
    {
     "id": 10,
     "x": 64.0,
     "y": 40.0,
     "width": 64.0,
     "height": 20.0,
     "name": "",
     "rotation": 0,
     "type": "",
     "visible": true
    },
    {
     "id": 11,
     "x": 128.0,
     "y": 68.0,
     "width": 12.0,
     "height": 16.0,
     "name": "",
     "rotation": 0,
     "type": "",
     "visible": true
    },
    {
     "id": 13,
     "x": 120.0,
     "y": 96.0,
     "width": 32.0,
     "height": 48.0,
     "name": "",
     "rotation": 0,
     "type": "",
     "visible": true
    },
    {
     "id": 14,
     "x": 120.0,
     "y": 160.0,
     "width": 28.0,
     "height": 48.0,
     "name": "",
     "rotation": 0,
     "type": "",
     "visible": true
    },
    {
     "id": 15,
     "x": 60.0,
     "y": 128.0,
     "width": 28.0,
     "height": 48.0,
     "name": "",
     "rotation": 0,
     "type": "",
     "visible": true
    },
    {
     "id": 16,
     "x": 64.0,
     "y": 180.0,
     "width": 16.0,
     "height": 28.0,
     "name": "",
     "rotation": 0,
     "type": "",
     "visible": true
    }
   ]
  },
  {
   "type": "objectgroup",
   "id": 101,
   "name": "Can_Sit",
   "x": 0,
   "y": 0,
   "opacity": 1.0,
   "visible": true,
   "draworder": "topdown",
   "objects": [
    {
     "id": 17,
     "x": 116.0,
     "y": 76.0,
     "width": 8.0,
     "height": 4.0,
     "name": "Sit_Facing_Right",
     "rotation": 0,
     "type": "",
     "visible": true
    },
    {
     "id": 19,
     "x": 80.0,
     "y": 188.0,
     "width": 8.0,
     "height": 4.0,
     "name": "Sit_Facing_Left",
     "rotation": 0,
     "type": "",
     "visible": true
    }
   ]
  },
  {
   "type": "objectgroup",
   "id": 102,
   "name": "Can_Lay",
   "x": 0,
   "y": 0,
   "opacity": 1.0,
   "visible": true,
   "draworder": "topdown",
   "objects": [
    {
     "id": 20,
     "x": 68.0,
     "y": 136.0,
     "width": 12.0,
     "height": 28.0,
     "name": "Lay_Facing_Down",
     "rotation": 0,
     "type": "",
     "visible": true
    }
   ]
  },
  {
   "type": "objectgroup",
   "id": 103,
   "name": "Entrance_Exit",
   "x": 0,
   "y": 0,
   "opacity": 1.0,
   "visible": true,
   "draworder": "topdown",
   "objects": [
    {
     "id": 21,
     "x": 16.0,
     "y": 96.0,
     "width": 16.0,
     "height": 16.0,
     "name": "Entrance/Exit",
     "rotation": 0,
     "type": "",
     "visible": true
    }
   ]
  }
 ]
}