{
 "type": "map",
 "version": "1.10",
 "tiledversion": "1.12.1",
 "orientation": "orthogonal",
 "renderorder": "right-down",
 "width": 152,
 "height": 152,
 "tilewidth": 16,
 "tileheight": 16,
 "infinite": false,
 "nextlayerid": 5,
 "nextobjectid": 1,
 "tilesets": [
  {
   "firstgid": 1,
   "name": "terrains",
   "tilewidth": 16,
   "tileheight": 16,
   "tilecount": 2368,
   "columns": 32,
   "image": "../assets/exteriors/Modern_Exteriors_16x16/ME_Theme_Sorter_16x16/1_Terrains_and_Fences_16x16.png",
   "imagewidth": 512,
   "imageheight": 1184,
   "margin": 0,
   "spacing": 0
  },
  {
   "firstgid": 2369,
   "name": "city_terrains",
   "tilewidth": 16,
   "tileheight": 16,
   "tilecount": 6077,
   "columns": 59,
   "image": "../assets/exteriors/Modern_Exteriors_16x16/ME_Theme_Sorter_16x16/2_City_Terrains_16x16.png",
   "imagewidth": 944,
   "imageheight": 1648,
   "margin": 0,
   "spacing": 0
  },
  {
   "firstgid": 8446,
   "name": "generic_buildings",
   "tilewidth": 16,
   "tileheight": 16,
   "tilecount": 6400,
   "columns": 32,
   "image": "../assets/exteriors/Modern_Exteriors_16x16/ME_Theme_Sorter_16x16/4_Generic_Buildings_16x16.png",
   "imagewidth": 512,
   "imageheight": 3200,
   "margin": 0,
   "spacing": 0
  },
  {
   "firstgid": 14846,
   "name": "city_props",
   "tilewidth": 16,
   "tileheight": 16,
   "tilecount": 7168,
   "columns": 32,
   "image": "../assets/exteriors/Modern_Exteriors_16x16/ME_Theme_Sorter_16x16/3_City_Props_16x16.png",
   "imagewidth": 512,
   "imageheight": 3584,
   "margin": 0,
   "spacing": 0
  },
  {
   "firstgid": 22014,
   "name": "shopping",
   "tilewidth": 16,
   "tileheight": 16,
   "tilecount": 2176,
   "columns": 32,
   "image": "../assets/exteriors/Modern_Exteriors_16x16/ME_Theme_Sorter_16x16/9_Shopping_Center_and_Markets_16x16.png",
   "imagewidth": 512,
   "imageheight": 1088,
   "margin": 0,
   "spacing": 0
  },
  {
   "firstgid": 24190,
   "name": "modular_buildings",
   "tilewidth": 16,
   "tileheight": 16,
   "tilecount": 8288,
   "columns": 32,
   "image": "../assets/exteriors/Modern_Exteriors_16x16/ME_Theme_Sorter_16x16/5_Floor_Modular_Buildings_16x16.png",
   "imagewidth": 512,
   "imageheight": 4144,
   "margin": 0,
   "spacing": 0
  },
  {
   "firstgid": 32478,
   "name": "worksite",
   "tilewidth": 16,
   "tileheight": 16,
   "tilecount": 640,
   "columns": 32,
   "image": "../assets/exteriors/Modern_Exteriors_16x16/ME_Theme_Sorter_16x16/8_Worksite_16x16.png",
   "imagewidth": 512,
   "imageheight": 320,
   "margin": 0,
   "spacing": 0
  },
  {
   "firstgid": 33118,
   "name": "school",
   "tilewidth": 16,
   "tileheight": 16,
   "tilecount": 3712,
   "columns": 32,
   "image": "../assets/exteriors/Modern_Exteriors_16x16/ME_Theme_Sorter_16x16/13_School_16x16.png",
   "imagewidth": 512,
   "imageheight": 1856,
   "margin": 0,
   "spacing": 0
  },
  {
   "firstgid": 36830,
   "name": "office",
   "tilewidth": 16,
   "tileheight": 16,
   "tilecount": 3040,
   "columns": 32,
   "image": "../assets/exteriors/Modern_Exteriors_16x16/ME_Theme_Sorter_16x16/16_Office_16x16.png",
   "imagewidth": 512,
   "imageheight": 1520,
   "margin": 0,
   "spacing": 0
  },
  {
   "firstgid": 39870,
   "name": "subway",
   "tilewidth": 16,
   "tileheight": 16,
   "tilecount": 5920,
   "columns": 32,
   "image": "../assets/exteriors/Modern_Exteriors_16x16/ME_Theme_Sorter_16x16/20_Subway_and_Train_Station_16x16.png",
   "imagewidth": 512,
   "imageheight": 2960,
   "margin": 0,
   "spacing": 0
  }
 ],
 "layers": [
  {
   "id": 1,
   "name": "ground",
   "type": "tilelayer",
   "x": 0,
   "y": 0,
   "width": 152,
   "height": 152,
   "opacity": 1,
   "visible": true,
   "data": [
    2667,
    2667,
    2667,
    2667,
    2667,
    2667,
    2667,
    2667,
    2667,
    2667,
    2667,
    2667,
    2667,
    2667,
    2667,
    2667,
    2667,
    2667,
    2667,
    2667,
    2667,
    2667,
    2667,
    2667,
    2667,
    2667,
    2667,
    2667,
    2667,
    2667,
    2667,
    2667,
    2667,
    2667,
    2667,
    2667,
    2667,
    2667,
    2667,
    2667,
    2667,
    2667,
    2667,
    2667,
    2667,
    2667,
    2667,
    2667,
    2667,
    2667,
    2667,
    2667,
    2667,
    2667,
    2667,
    2667,
    2667,
    2667,
    2667,
    2667,
    2667,
    2667,
    2667,
    2667,
    2667,
    2667,
    2667,
    2667,
    2667,
    2667,
    2667,
    2667,
    2667,
    2667,
    2667,
    2667,
    2667,
    2667,
    2667,
    2667,
    2667,
    2667,
    2667,
    2667,
    2667,
    2667,
    2667,
    2667,
    2667,
    2667,
    2667,
    2667,
    2667,
    2667,
    2667,
    2667,
    2667,
    2667,
    2667,
    2667,
    2667,
    2667,
    2667,
    2667,
    2667,
    2667,
    2667,
    2667,
    2667,
    2667,
    2667,
    2667,
    2667,
    2667,
    2667,
    2667,
    2667,
    2667,
    2667,
    2667,
    2667,
    2667,
    2667,
    2667,
    2667,
    2667,
    2667,
    2667,
    2667,
    2667,
    2667,
    2667,
    2667,
    2667,
    2667,
    2667,
    2667,
    2667,
    2667,
    2667,
    2667,
    2667,
    2667,
    2667,
    2667,
    2667,
    2667,
    2667,
    2667,
    2667,
    2667,
    2667,
    2667,
    2667,
    2667,
    2667,
    2667,
    2667,
    2667,
    2667,
    2667,
    2667,
    2667,
    2667,
    2667,
    2667,
    2667,
    2667,
    2667,
    2667,
    2667,
    2667,
    2667,
    2667,
    2667,
    2667,
    2667,
    2667,
    2667,
    2667,
    2667,
    2667,
    2667,
    2667,
    2667,
    2667,
    2667,
    2667,
    2667,
    2667,
    2667,
    2667,
    2667,
    2667,
    2667,
    2667,
    2667,
    2667,
    2667,
    2667,
    2667,
    2667,
    2667,
    2667,
    2667,
    2667,
    2667,
    2667,
    2667,
    2667,
    2667,
    2667,
    2667,
    2667,
    2667,
    2667,
    2667,
    2667,
    2667,
    2667,
    2667,
    2667,
    2667,
    2667,
    2667,
    2667,
    2667,
    2667,
    2667,
    2667,
    2667,
    2667,
    2667,
    2667,
    2667,
    2667,
    2667,
    2667,
    2667,
    2667,
    2667,
    2667,
    2667,
    2667,
    2667,
    2667,
    2667,
    2667,
    2667,
    2667,
    2667,
    2667,
    2667,
    2667,
    2667,
    2667,
    2667,
    2667,
    2667,
    2667,
    2667,
    2667,
    2667,
    2667,
    2667,
    2667,
    2667,
    2667,
    2667,
    2667,
    2667,
    2667,
    2667,
    2667,
    2667,
    2667,
    2667,
    2667,
    2667,
    2667,
    2667,
    2667,
    2667,
    2667,
    2667,
    2667,
    2667,
    2667,
    2667,
    2667,
    2667,
    2667,
    2667,
    2667,
    2667,
    2667,
    2667,
    2667,
    2667,
    2667,
    2667,
    2667,
    2667,
    2667,
    2667,
    2667,
    2667,
    2667,
    2667,
    2667,
    2667,
    2667,
    2667,
    2667,
    2667,
    2667,
    2667,
    2667,
    2667,
    2667,
    2667,
    2667,
    2667,
    2667,
    2667,
    2667,
    2667,
    2667,
    2667,
    2667,
    2667,
    2667,
    2667,
    2667,
    2667,
    2667,
    2667,
    2667,
    2667,
    2667,
    2667,
    2667,
    2667,
    2667,
    2667,
    2667,
    2667,
    2667,
    2667,
    2667,
    2667,
    2667,
    2667,
    2667,
    2667,
    2667,
    2667,
    2667,
    2667,
    2667,
    2667,
    2667,
    2667,
    2667,
    2667,
    2667,
    2667,
    2667,
    2667,
    2667,
    2667,
    2667,
    2667,
    2667,
    2667,
    2667,
    2667,
    2667,
    2667,
    2667,
    2667,
    2667,
    2667,
    2667,
    2667,
    2667,
    2667,
    2667,
    2667,
    2667,
    2667,
    2667,
    2667,
    2667,
    2667,
    2667,
    2667,
    2667,
    2667,
    2667,
    2667,
    2667,
    2667,
    2667,
    2667,
    2667,
    2667,
    2667,
    2667,
    2667,
    2667,
    2667,
    2667,
    2667,
    2667,
    2667,
    2667,
    2667,
    2667,
    2667,
    2667,
    2667,
    2667,
    2667,
    2667,
    2667,
    2667,
    2667,
    2667,
    2667,
    2667,
    2667,
    2667,
    2667,
    2667,
    2667,
    2667,
    2667,
    2667,
    2667,
    2667,
    2667,
    2667,
    2667,
    2667,
    2667,
    2667,
    2667,
    2667,
    2667,
    2667,
    2667,
    2667,
    2667,
    2667,
    2667,
    2667,
    2667,
    2667,
    2667,
    2667,
    2667,
    2667,
    2667,
    2667,
    2667,
    2667,
    2667,
    2667,
    2667,
    2667,
    2667,
    2667,
    2667,
    2667,
    2667,
    2667,
    2667,
    2667,
    2667,
    2667,
    2667,
    2667,
    2667,
    2667,
    2667,
    2667,
    2667,
    2667,
    2667,
    2667,
    2667,
    2667,
    2667,
    2667,
    2667,
    2667,
    2667,
    2667,
    2667,
    2667,
    2667,
    2667,
    2667,
    2667,
    2667,
    2667,
    2667,
    2667,
    2667,
    2667,
    2667,
    2667,
    2667,
    2667,
    2667,
    2667,
    2667,
    2667,
    2667,
    2667,
    2667,
    2667,
    2667,
    2667,
    2667,
    2667,
    2667,
    2667,
    2667,
    2667,
    2667,
    2667,
    2667,
    2667,
    2667,
    2667,
    2667,
    2667,
    2667,
    2667,
    2667,
    2667,
    2667,
    2667,
    2667,
    2667,
    2667,
    2667,
    2667,
    2667,
    2667,
    2667,
    2667,
    2667,
    2667,
    2667,
    2667,
    2667,
    2667,
    2667,
    2667,
    2667,
    2667,
    2667,
    2667,
    2667,
    2667,
    2667,
    2667,
    2667,
    2667,
    2667,
    2667,
    2667,
    2667,
    2667,
    2667,
    2667,
    2667,
    2667,
    2667,
    2667,
    2667,
    2667,
    2667,
    2667,
    2667,
    2667,
    2667,
    2667,
    2667,
    2667,
    2667,
    2667,
    2667,
    2667,
    2667,
    2667,
    2667,
    2667,
    2667,
    2667,
    2667,
    2667,
    2667,
    2667,
    2667,
    2667,
    2667,
    2667,
    2667,
    2667,
    2667,
    2667,
    2667,
    2667,
    2667,
    2667,
    2667,
    2667,
    2667,
    2667,
    2667,
    2667,
    2667,
    2667,
    2667,
    2667,
    2667,
    2667,
    2667,
    2667,
    2667,
    2667,
    2667,
    2667,
    2667,
    2667,
    2667,
    2667,
    2667,
    2667,
    2667,
    2667,
    2667,
    2667,
    2667,
    2667,
    2667,
    2667,
    2667,
    2667,
    2667,
    2667,
    2667,
    2667,
    2667,
    2667,
    2667,
    2667,
    2667,
    2667,
    2667,
    2667,
    2667,
    2667,
    2667,
    2667,
    2667,
    2667,
    2667,
    2667,
    2667,
    2667,
    2667,
    2667,
    2667,
    2667,
    2667,
    2667,
    2667,
    2667,
    2667,
    2667,
    2667,
    2667,
    2667,
    2667,
    2667,
    2667,
    2667,
    2667,
    2667,
    2667,
    2667,
    2667,
    2667,
    2667,
    2667,
    2667,
    2667,
    2667,
    2667,
    2667,
    2667,
    2667,
    2667,
    2667,
    2667,
    2667,
    2667,
    2667,
    2667,
    2667,
    2667,
    2667,
    2667,
    2667,
    2667,
    2667,
    2667,
    2667,
    2667,
    2667,
    2667,
    2667,
    2667,
    2667,
    2667,
    2667,
    2667,
    2667,
    2667,
    2667,
    2667,
    2667,
    2667,
    2667,
    2667,
    2667,
    2667,
    2667,
    2667,
    2667,
    2667,
    2667,
    2667,
    2667,
    2667,
    2667,
    2667,
    2667,
    2667,
    2667,
    2667,
    2667,
    2667,
    2667,
    2667,
    2667,
    2667,
    2667,
    2667,
    2667,
    2667,
    2667,
    2667,
    2667,
    2667,
    2667,
    2667,
    2667,
    2667,
    2667,
    2667,
    2667,
    2667,
    2667,
    2667,
    2667,
    2667,
    2667,
    2667,
    2667,
    2667,
    2667,
    2667,
    2667,
    2667,
    2667,
    2667,
    2667,
    2667,
    2667,
    2667,
    2667,
    2667,
    2667,
    2667,
    2667,
    2667,
    2667,
    2667,
    2667,
    2667,
    2667,
    2667,
    2667,
    2667,
    2667,
    2667,
    2667,
    2667,
    2667,
    2667,
    2667,
    2667,
    2667,
    2667,
    2667,
    2667,
    2667,
    2667,
    2667,
    2667,
    2667,
    2667,
    2667,
    2667,
    2667,
    2667,
    2667,
    2667,
    2667,
    2667,
    2667,
    2667,
    2667,
    2667,
    2667,
    2667,
    2667,
    2667,
    2667,
    2667,
    2667,
    2667,
    2667,
    2667,
    2667,
    2667,
    2667,
    2667,
    2667,
    2667,
    2667,
    2667,
    2667,
    2667,
    2667,
    2667,
    2667,
    2667,
    2667,
    2667,
    2667,
    2667,
    2667,
    2667,
    2667,
    2667,
    2667,
    2667,
    2667,
    2667,
    2667,
    2667,
    2667,
    2667,
    2667,
    2667,
    2667,
    2667,
    2667,
    2667,
    2667,
    2667,
    2667,
    2667,
    2667,
    2667,
    2667,
    2667,
    2667,
    2667,
    2667,
    2667,
    2667,
    2667,
    2667,
    2667,
    2667,
    2667,
    2667,
    2667,
    2667,
    2667,
    2667,
    2667,
    2667,
    2667,
    2667,
    2667,
    2667,
    2667,
    2667,
    2667,
    2667,
    2667,
    2667,
    2667,
    2667,
    2667,
    2667,
    2667,
    2667,
    2667,
    2667,
    2667,
    2667,
    2667,
    2667,
    2667,
    2667,
    2667,
    2667,
    2667,
    2667,
    2667,
    2667,
    2667,
    2667,
    2667,
    2667,
    2667,
    2667,
    2667,
    2667,
    2667,
    2667,
    2667,
    2667,
    2667,
    2667,
    2667,
    2667,
    2667,
    2667,
    2667,
    2667,
    2667,
    2667,
    2667,
    2667,
    2667,
    2667,
    2667,
    2667,
    2667,
    2667,
    2667,
    2667,
    2667,
    2667,
    2667,
    2667,
    2667,
    2667,
    2667,
    2667,
    2667,
    2667,
    2667,
    2667,
    2667,
    2667,
    2667,
    2667,
    2667,
    2667,
    2667,
    2667,
    2667,
    2667,
    2667,
    2667,
    2667,
    2667,
    2667,
    2667,
    2667,
    2667,
    2667,
    2667,
    2667,
    2667,
    2667,
    2667,
    2667,
    2667,
    2667,
    2667,
    2667,
    2667,
    2667,
    2667,
    2667,
    2667,
    2667,
    2667,
    2667,
    2667,
    2667,
    2667,
    2667,
    2667,
    2667,
    2667,
    2667,
    2667,
    2667,
    2667,
    2667,
    2667,
    2667,
    2667,
    2667,
    2667,
    2667,
    2667,
    2667,
    2667,
    2667,
    2667,
    2667,
    2667,
    2667,
    2667,
    2667,
    2667,
    2667,
    2667,
    2667,
    2667,
    2667,
    2667,
    2667,
    2667,
    2667,
    2667,
    2667,
    2667,
    2667,
    2667,
    2667,
    2667,
    2667,
    2667,
    2667,
    2667,
    2667,
    2667,
    2667,
    2667,
    2667,
    2667,
    2667,
    2667,
    2667,
    2667,
    2667,
    2667,
    2667,
    2667,
    2667,
    2667,
    2667,
    2667,
    2667,
    2667,
    2667,
    2667,
    2667,
    2667,
    2667,
    2667,
    2667,
    2667,
    2667,
    2667,
    2667,
    2667,
    2667,
    2667,
    2667,
    2667,
    2667,
    2667,
    2667,
    2667,
    2667,
    2667,
    2667,
    2667,
    2667,
    2667,
    2667,
    2667,
    2667,
    2667,
    2667,
    2667,
    2667,
    2667,
    2667,
    2667,
    2667,
    2667,
    2667,
    2667,
    2667,
    2667,
    2667,
    2667,
    2667,
    2667,
    2667,
    2667,
    2667,
    2667,
    2667,
    2667,
    2667,
    2667,
    2667,
    2667,
    2667,
    2667,
    2667,
    2667,
    2667,
    2667,
    2667,
    2667,
    2667,
    2667,
    2667,
    2667,
    2667,
    2667,
    2667,
    2667,
    2667,
    2667,
    2667,
    2667,
    2667,
    2667,
    2667,
    2667,
    2667,
    2667,
    2667,
    2667,
    2667,
    2667,
    2667,
    2667,
    2667,
    2667,
    2667,
    2667,
    2667,
    2667,
    2667,
    2667,
    2667,
    2667,
    2667,
    2667,
    2667,
    2667,
    2667,
    2667,
    2667,
    2667,
    2667,
    2667,
    2667,
    2667,
    2667,
    2667,
    2667,
    2667,
    2667,
    2667,
    2667,
    2667,
    2667,
    2667,
    2667,
    2667,
    2667,
    2667,
    2667,
    2667,
    2667,
    2667,
    2667,
    2667,
    2667,
    2667,
    2667,
    2667,
    2667,
    2667,
    2667,
    2667,
    2667,
    2667,
    2667,
    2667,
    2667,
    2667,
    2667,
    2667,
    2667,
    2667,
    2667,
    2667,
    2667,
    2667,
    2667,
    2667,
    2667,
    2667,
    2667,
    2667,
    2667,
    2667,
    2667,
    2667,
    2667,
    2667,
    2667,
    2667,
    2667,
    2667,
    2667,
    2667,
    2667,
    2667,
    2667,
    2667,
    2667,
    2667,
    2667,
    2667,
    2667,
    2667,
    2667,
    2667,
    2667,
    2667,
    2667,
    2667,
    2667,
    2667,
    2667,
    2667,
    2667,
    2667,
    2667,
    2667,
    2667,
    2667,
    2667,
    2667,
    2667,
    2667,
    2667,
    2667,
    2667,
    2667,
    2667,
    2667,
    2667,
    2667,
    2667,
    2667,
    2667,
    2667,
    2667,
    2667,
    2667,
    2667,
    2667,
    2667,
    2667,
    2667,
    2667,
    2667,
    2667,
    2667,
    2667,
    2667,
    2667,
    2667,
    2667,
    2667,
    2667,
    2667,
    2667,
    2667,
    2667,
    2667,
    2667,
    2667,
    2667,
    2667,
    2667,
    2667,
    2667,
    2667,
    2667,
    2667,
    2667,
    2667,
    2667,
    2667,
    2667,
    2667,
    2667,
    2667,
    2667,
    2667,
    2667,
    2667,
    2667,
    2667,
    2667,
    2667,
    2667,
    2667,
    2667,
    2667,
    2667,
    2667,
    2667,
    2667,
    2667,
    2667,
    2667,
    2667,
    2667,
    2667,
    2667,
    2667,
    2667,
    2667,
    2667,
    2667,
    2667,
    2667,
    2667,
    2667,
    2667,
    2667,
    2667,
    2667,
    2667,
    2667,
    2667,
    2667,
    2667,
    2667,
    2667,
    2667,
    2667,
    2667,
    2667,
    2667,
    2667,
    2667,
    2667,
    2667,
    2667,
    2667,
    2667,
    2667,
    2667,
    2667,
    2667,
    2667,
    2667,
    2667,
    2667,
    2667,
    2667,
    2667,
    2667,
    2667,
    2667,
    2667,
    2667,
    2667,
    2667,
    2667,
    2667,
    2667,
    2667,
    2667,
    2667,
    2667,
    2667,
    2667,
    2667,
    2667,
    2667,
    2667,
    2667,
    2667,
    2667,
    2667,
    2667,
    2667,
    2667,
    2667,
    2667,
    2667,
    2667,
    2667,
    2667,
    2667,
    2667,
    2667,
    2667,
    2667,
    2667,
    2667,
    2667,
    2667,
    2667,
    2667,
    2667,
    2667,
    2667,
    2667,
    2667,
    2667,
    2667,
    2667,
    2667,
    2667,
    2667,
    2667,
    2667,
    2667,
    2667,
    2667,
    2667,
    2667,
    2667,
    2667,
    2667,
    2667,
    2667,
    2667,
    2667,
    2667,
    2667,
    2667,
    2667,
    2667,
    2667,
    2667,
    2667,
    2667,
    2667,
    2667,
    2667,
    2667,
    2667,
    2667,
    2667,
    2667,
    2667,
    2667,
    2667,
    2667,
    2667,
    2667,
    2667,
    2667,
    2667,
    2667,
    2667,
    2667,
    2667,
    2667,
    2667,
    2667,
    2667,
    2667,
    2667,
    2667,
    2667,
    2667,
    2667,
    2667,
    2667,
    2667,
    2667,
    2667,
    2667,
    2667,
    2667,
    2667,
    2667,
    2667,
    2667,
    2667,
    2667,
    2667,
    2667,
    2667,
    2667,
    2667,
    2667,
    2667,
    2667,
    2667,
    2667,
    2667,
    2667,
    2667,
    2667,
    2667,
    2667,
    2667,
    2667,
    2667,
    2667,
    2667,
    2667,
    2667,
    2667,
    2667,
    2667,
    2667,
    2667,
    2667,
    2667,
    2667,
    2667,
    2667,
    2667,
    2667,
    2667,
    2667,
    2667,
    2667,
    2667,
    2667,
    2667,
    2667,
    2667,
    2667,
    2667,
    2667,
    2667,
    2667,
    2667,
    2667,
    2667,
    2667,
    2667,
    2667,
    2667,
    2667,
    2667,
    2667,
    2667,
    2667,
    2667,
    2667,
    2667,
    2667,
    2667,
    2667,
    2667,
    2667,
    2667,
    2667,
    2667,
    2667,
    2667,
    2667,
    2667,
    2667,
    2667,
    2667,
    2667,
    2667,
    2667,
    2667,
    2667,
    2667,
    2667,
    2667,
    2667,
    2667,
    2667,
    2667,
    2667,
    2667,
    2667,
    2667,
    2667,
    2667,
    2667,
    2667,
    2667,
    2667,
    2667,
    2667,
    2667,
    2667,
    2667,
    2667,
    2667,
    2667,
    2667,
    2667,
    2667,
    2667,
    2667,
    2667,
    2667,
    2667,
    2667,
    2667,
    2667,
    2667,
    2667,
    2667,
    2667,
    2667,
    2667,
    2667,
    2667,
    2667,
    2667,
    2667,
    2667,
    2667,
    2667,
    2667,
    2667,
    2667,
    2667,
    2667,
    2667,
    2667,
    2667,
    2667,
    2667,
    2667,
    2667,
    2667,
    2667,
    2667,
    2667,
    2667,
    2667,
    2667,
    2667,
    2667,
    2667,
    2667,
    2667,
    2667,
    2667,
    2667,
    2667,
    2667,
    2667,
    2667,
    2667,
    2667,
    2667,
    2667,
    2667,
    2667,
    2667,
    2667,
    2667,
    2667,
    2667,
    2667,
    2667,
    2667,
    2667,
    2667,
    2667,
    2667,
    2667,
    2667,
    2667,
    2667,
    2667,
    2667,
    2667,
    2667,
    2667,
    2667,
    2667,
    2667,
    2667,
    2667,
    2667,
    2667,
    2667,
    2667,
    2667,
    2667,
    2667,
    2667,
    2667,
    2667,
    2667,
    2667,
    2667,
    2667,
    2667,
    2667,
    2667,
    2667,
    2667,
    2667,
    2667,
    2667,
    2667,
    2667,
    2667,
    2667,
    2667,
    2667,
    2667,
    2667,
    2667,
    2667,
    2667,
    2667,
    2667,
    2667,
    2667,
    2667,
    2667,
    2667,
    2667,
    2667,
    2667,
    2667,
    2667,
    2667,
    2667,
    2667,
    2667,
    2667,
    2667,
    2667,
    2667,
    2667,
    2667,
    2667,
    2667,
    2667,
    2667,
    2667,
    2667,
    2667,
    2667,
    2667,
    2667,
    2667,
    2667,
    2667,
    2667,
    2667,
    2667,
    2667,
    2667,
    2667,
    2667,
    2667,
    2667,
    2667,
    2667,
    2667,
    2667,
    2667,
    2667,
    2667,
    2667,
    2667,
    2667,
    2667,
    2667,
    2667,
    2667,
    2667,
    2667,
    2667,
    2667,
    2667,
    2667,
    2667,
    2667,
    2667,
    2667,
    2667,
    2667,
    2667,
    2667,
    2667,
    2667,
    2667,
    2667,
    2667,
    2667,
    2667,
    2667,
    2667,
    2667,
    2667,
    2667,
    2667,
    2667,
    2667,
    2667,
    2667,
    2667,
    2667,
    2667,
    2667,
    2667,
    2667,
    2667,
    2667,
    2667,
    2667,
    2667,
    2667,
    2667,
    2667,
    2667,
    2667,
    2667,
    2667,
    2667,
    2667,
    2667,
    2667,
    2667,
    2667,
    2667,
    2667,
    2667,
    2667,
    2667,
    2667,
    2667,
    2667,
    2667,
    2667,
    2667,
    2667,
    2667,
    2667,
    2667,
    2667,
    2667,
    2667,
    2667,
    2667,
    2667,
    2667,
    2667,
    2667,
    2667,
    2667,
    2667,
    2667,
    2667,
    2667,
    2667,
    2667,
    2667,
    2667,
    2667,
    2667,
    2667,
    2667,
    2667,
    2667,
    2667,
    2667,
    2667,
    2667,
    2667,
    2667,
    2667,
    2667,
    2667,
    2667,
    2667,
    2667,
    2667,
    2667,
    2667,
    2667,
    2667,
    2667,
    2667,
    2667,
    2667,
    2667,
    2667,
    2667,
    2667,
    2667,
    2667,
    2667,
    2667,
    2667,
    2667,
    2667,
    2667,
    2667,
    2667,
    2667,
    2667,
    2667,
    2667,
    2667,
    2667,
    2667,
    2667,
    2667,
    2667,
    2667,
    2667,
    2667,
    2667,
    2667,
    2667,
    2667,
    2667,
    2667,
    2667,
    2667,
    2667,
    2667,
    2667,
    2667,
    2667,
    2667,
    2667,
    2667,
    2667,
    2667,
    2667,
    2667,
    2667,
    2667,
    2667,
    2667,
    2667,
    2667,
    2667,
    2667,
    2667,
    2667,
    2667,
    2667,
    2667,
    2667,
    2667,
    2667,
    2667,
    2667,
    2667,
    2667,
    2667,
    2667,
    2667,
    2667,
    2667,
    2667,
    2667,
    2667,
    2667,
    2667,
    2667,
    2667,
    2667,
    2667,
    2667,
    2667,
    2667,
    2667,
    2667,
    2667,
    2667,
    2667,
    2667,
    2667,
    2667,
    2667,
    2667,
    2667,
    2667,
    2667,
    2667,
    2667,
    2667,
    2667,
    2667,
    2667,
    2667,
    2667,
    2667,
    2667,
    2667,
    2667,
    2667,
    2667,
    2667,
    2667,
    2667,
    2667,
    2667,
    2667,
    2667,
    2667,
    2667,
    2667,
    2667,
    2667,
    2667,
    2667,
    2667,
    2667,
    2667,
    2667,
    2667,
    2667,
    2667,
    2667,
    2667,
    2667,
    2667,
    2667,
    2667,
    2667,
    2667,
    2667,
    2667,
    2667,
    2667,
    2667,
    2667,
    2667,
    2667,
    2667,
    2667,
    2667,
    2667,
    2667,
    2667,
    2667,
    2667,
    2667,
    2667,
    2667,
    2667,
    2667,
    2667,
    2667,
    2667,
    2667,
    2667,
    2667,
    2667,
    2667,
    2667,
    2667,
    2667,
    2667,
    2667,
    2667,
    2667,
    2667,
    2667,
    2667,
    2667,
    2667,
    2667,
    2667,
    2667,
    2667,
    2667,
    2667,
    2667,
    2667,
    2667,
    2667,
    2667,
    2667,
    2667,
    2667,
    2667,
    2667,
    2667,
    2667,
    2667,
    2667,
    2667,
    2667,
    2667,
    2667,
    2667,
    2667,
    2667,
    2667,
    2667,
    2667,
    2667,
    2667,
    2667,
    2667,
    2667,
    2667,
    2667,
    2667,
    2667,
    2667,
    2667,
    2667,
    2667,
    2667,
    2667,
    2667,
    2667,
    2667,
    2667,
    2667,
    2667,
    2667,
    2667,
    2667,
    2667,
    2667,
    2667,
    2667,
    2667,
    2667,
    2667,
    2667,
    2667,
    2667,
    2667,
    2667,
    2667,
    2667,
    2667,
    2667,
    2667,
    2667,
    2667,
    2667,
    2667,
    2667,
    2667,
    2667,
    2667,
    2667,
    2667,
    2667,
    2667,
    2667,
    2667,
    2667,
    2667,
    2667,
    2667,
    2667,
    2667,
    2667,
    2667,
    2667,
    2667,
    2667,
    2667,
    2667,
    2667,
    2667,
    2667,
    2667,
    2667,
    2667,
    2667,
    2667,
    2667,
    2667,
    2667,
    2667,
    2667,
    2667,
    2667,
    2667,
    2667,
    2667,
    2667,
    2667,
    2667,
    2667,
    2667,
    2667,
    2667,
    2667,
    2667,
    2667,
    2667,
    2667,
    2667,
    2667,
    2667,
    2667,
    2667,
    2667,
    2667,
    2667,
    2667,
    2667,
    2667,
    2667,
    2667,
    2667,
    2667,
    2667,
    2667,
    2667,
    2667,
    2667,
    2667,
    2667,
    2667,
    2667,
    2667,
    2667,
    2667,
    2667,
    2667,
    2667,
    2667,
    2667,
    2667,
    2667,
    2667,
    2667,
    2667,
    2667,
    2667,
    2667,
    2667,
    2667,
    2667,
    2667,
    2667,
    2667,
    2667,
    2667,
    2667,
    2667,
    2667,
    2667,
    2667,
    2667,
    2667,
    2667,
    2667,
    2667,
    2667,
    2667,
    2667,
    2667,
    2667,
    2667,
    2667,
    2667,
    2667,
    2667,
    2667,
    2667,
    2667,
    2667,
    2667,
    2667,
    2667,
    2667,
    2667,
    2667,
    2667,
    2667,
    2667,
    2667,
    2667,
    2667,
    2667,
    2667,
    2667,
    2667,
    2667,
    2667,
    2667,
    2667,
    2667,
    2667,
    2667,
    2667,
    2667,
    2667,
    2667,
    2667,
    2667,
    2667,
    2667,
    2667,
    2667,
    2667,
    2667,
    2667,
    2667,
    2667,
    2667,
    2667,
    2667,
    2667,
    2667,
    2667,
    2667,
    2667,
    2667,
    2667,
    2667,
    2667,
    2667,
    2667,
    2667,
    2667,
    2667,
    2667,
    2667,
    2667,
    2667,
    2667,
    2667,
    2667,
    2667,
    2667,
    2667,
    2667,
    2667,
    2667,
    2667,
    2667,
    2667,
    2667,
    2667,
    2667,
    2667,
    2667,
    2667,
    2667,
    2667,
    2667,
    2667,
    2667,
    2667,
    2667,
    2667,
    2667,
    2667,
    2667,
    2667,
    2667,
    2667,
    2667,
    2667,
    2667,
    2667,
    2667,
    2667,
    2667,
    2667,
    2667,
    2667,
    2667,
    2667,
    2667,
    2667,
    2667,
    2667,
    2667,
    2667,
    2667,
    2667,
    2667,
    2667,
    2667,
    2667,
    2667,
    2667,
    2667,
    2667,
    2667,
    2667,
    2667,
    2667,
    2667,
    2667,
    2667,
    2667,
    2667,
    2667,
    2667,
    2667,
    2667,
    2667,
    2667,
    2667,
    2667,
    2667,
    2667,
    2667,
    2667,
    2667,
    2667,
    2667,
    2667,
    2667,
    2667,
    2667,
    2667,
    2667,
    2667,
    2667,
    2667,
    2667,
    2667,
    2667,
    2667,
    2667,
    2667,
    2667,
    2667,
    2667,
    2667,
    2667,
    2667,
    2667,
    2667,
    2667,
    2667,
    2667,
    2667,
    2667,
    2667,
    2667,
    2667,
    2667,
    2667,
    2667,
    2667,
    2667,
    2667,
    2667,
    2667,
    2667,
    2667,
    2667,
    2667,
    2667,
    2667,
    2667,
    2667,
    2667,
    2667,
    2667,
    2667,
    2667,
    2667,
    2667,
    2667,
    2667,
    2605,
    2606,
    2607,
    2608,
    2609,
    2667,
    2667,
    2667,
    2667,
    2667,
    2667,
    2667,
    2667,
    2667,
    2667,
    2667,
    2667,
    2667,
    2667,
    2667,
    2667,
    2667,
    2667,
    2667,
    2667,
    2667,
    2667,
    2667,
    2667,
    2667,
    2667,
    2667,
    2667,
    2667,
    2667,
    2667,
    2667,
    2667,
    2667,
    2667,
    2667,
    2667,
    2667,
    2667,
    2667,
    2667,
    2667,
    2667,
    2667,
    2667,
    2667,
    2667,
    2667,
    2667,
    2667,
    2667,
    2667,
    2667,
    2667,
    2667,
    2667,
    2667,
    2667,
    2667,
    2667,
    2667,
    2667,
    2667,
    2667,
    2667,
    2667,
    2667,
    2667,
    2667,
    2667,
    2667,
    2667,
    2667,
    2667,
    2667,
    2667,
    2667,
    2667,
    2667,
    2667,
    2667,
    2667,
    2667,
    2667,
    2667,
    2667,
    2667,
    2667,
    2667,
    2667,
    2667,
    2667,
    2667,
    2667,
    2667,
    2667,
    2667,
    2667,
    2667,
    2667,
    2667,
    2667,
    2667,
    2667,
    2667,
    2667,
    2667,
    2667,
    2667,
    2667,
    2667,
    2667,
    2667,
    2667,
    2667,
    2667,
    2667,
    2667,
    2667,
    2667,
    2667,
    2667,
    2667,
    2667,
    2667,
    2667,
    2667,
    2667,
    2667,
    2667,
    2667,
    2667,
    2667,
    2667,
    2667,
    2667,
    2667,
    2667,
    2667,
    2667,
    2667,
    2667,
    2667,
    2667,
    2667,
    2667,
    2667,
    2605,
    2606,
    2607,
    2608,
    2609,
    2667,
    2667,
    2667,
    2667,
    2667,
    2667,
    2667,
    2667,
    2667,
    2667,
    2667,
    2667,
    2667,
    2667,
    2667,
    2667,
    2667,
    2667,
    2667,
    2667,
    2667,
    2667,
    2667,
    2667,
    2667,
    2667,
    2667,
    2667,
    2667,
    2667,
    2667,
    2667,
    2667,
    2667,
    2667,
    2667,
    2667,
    2667,
    2667,
    2667,
    2667,
    2667,
    2667,
    2667,
    2667,
    2667,
    2667,
    2667,
    2667,
    2667,
    2667,
    2667,
    2667,
    2667,
    2667,
    2667,
    2667,
    2667,
    2667,
    2667,
    2667,
    2667,
    2667,
    2667,
    2667,
    2667,
    2667,
    2667,
    2667,
    2667,
    2667,
    2667,
    2667,
    2667,
    2667,
    2667,
    2667,
    2667,
    2667,
    2667,
    2667,
    2667,
    2667,
    2667,
    2667,
    2667,
    2667,
    2667,
    2667,
    2667,
    2667,
    2667,
    2667,
    2667,
    2667,
    2667,
    2667,
    2667,
    2667,
    2667,
    2667,
    2667,
    2667,
    2667,
    2667,
    2667,
    2667,
    2667,
    2667,
    2667,
    2667,
    2667,
    2667,
    2667,
    2667,
    2667,
    2667,
    2667,
    2667,
    2667,
    2667,
    2667,
    2667,
    2667,
    2667,
    2667,
    2667,
    2667,
    2667,
    2667,
    2667,
    2667,
    2667,
    2667,
    2667,
    2667,
    2667,
    2667,
    2667,
    2667,
    2667,
    2667,
    2667,
    2667,
    2667,
    2667,
    2667,
    2605,
    2606,
    2607,
    2608,
    2609,
    2667,
    2667,
    2667,
    2667,
    2667,
    2667,
    2667,
    2667,
    2667,
    2667,
    2667,
    2667,
    2667,
    2667,
    2667,
    2667,
    2667,
    2667,
    2667,
    2667,
    2667,
    2667,
    2667,
    2667,
    2667,
    2667,
    2667,
    2667,
    2667,
    2667,
    2667,
    2667,
    2667,
    2667,
    2667,
    2667,
    2667,
    2667,
    2667,
    2667,
    2667,
    2667,
    2667,
    2667,
    2667,
    2667,
    2667,
    2667,
    2667,
    2667,
    2667,
    2667,
    2667,
    2667,
    2667,
    2667,
    2667,
    2667,
    2667,
    2667,
    2667,
    2667,
    2667,
    2667,
    2667,
    2667,
    2667,
    2667,
    2667,
    2667,
    2667,
    2667,
    2667,
    2667,
    2667,
    2667,
    2667,
    2667,
    2667,
    2667,
    2667,
    2667,
    2667,
    2667,
    2667,
    2667,
    2667,
    2667,
    2667,
    2667,
    2667,
    2667,
    2667,
    2667,
    2667,
    2667,
    2667,
    2667,
    2667,
    2667,
    2667,
    2667,
    2667,
    2667,
    2667,
    2667,
    2667,
    2667,
    2667,
    2667,
    2667,
    2667,
    2667,
    2667,
    2667,
    2667,
    2667,
    2667,
    2667,
    2667,
    2667,
    2667,
    2667,
    2667,
    2667,
    2667,
    2667,
    2667,
    2667,
    2667,
    2667,
    2667,
    2667,
    2667,
    2667,
    2667,
    2667,
    2667,
    2667,
    2667,
    2667,
    2667,
    2667,
    2667,
    2667,
    2667,
    2605,
    2606,
    2607,
    2608,
    2609,
    2668,
    2667,
    2667,
    2667,
    2667,
    2667,
    2667,
    2667,
    2667,
    2667,
    2667,
    2667,
    2667,
    2667,
    2667,
    2667,
    2667,
    2667,
    2667,
    2667,
    2667,
    2667,
    2667,
    2667,
    2667,
    2667,
    2667,
    2667,
    2667,
    2667,
    2667,
    2667,
    2667,
    2667,
    2667,
    2667,
    2667,
    2667,
    2667,
    2667,
    2667,
    2667,
    2667,
    2667,
    2667,
    2667,
    2667,
    2667,
    2667,
    2667,
    2667,
    2667,
    2667,
    2667,
    2667,
    2667,
    2667,
    2667,
    2667,
    2667,
    2667,
    2667,
    2667,
    2667,
    2667,
    2667,
    2667,
    2667,
    2667,
    2667,
    2667,
    2667,
    2667,
    2667,
    2667,
    2667,
    2667,
    2667,
    2667,
    2667,
    2667,
    2667,
    2667,
    2667,
    2667,
    2667,
    2667,
    2667,
    2667,
    2667,
    2667,
    2667,
    2667,
    2667,
    2667,
    2667,
    2667,
    2667,
    2667,
    2667,
    2667,
    2667,
    2667,
    2667,
    2667,
    2667,
    2667,
    2667,
    2667,
    2667,
    2667,
    2667,
    2667,
    2667,
    2667,
    2667,
    2667,
    2667,
    2667,
    2667,
    2667,
    2667,
    2667,
    2667,
    2667,
    2667,
    2667,
    2667,
    2667,
    2667,
    2667,
    2667,
    2667,
    2667,
    2667,
    2667,
    2667,
    2667,
    2667,
    2667,
    2667,
    2667,
    2667,
    2667,
    2667,
    2667,
    2605,
    2606,
    2607,
    2608,
    2609,
    2668,
    2727,
    2667,
    2667,
    2667,
    2667,
    2667,
    2667,
    2667,
    2667,
    2667,
    2667,
    2667,
    2667,
    2667,
    2667,
    2667,
    2667,
    2667,
    2667,
    2667,
    2667,
    2667,
    2667,
    2667,
    2667,
    2667,
    2667,
    2667,
    2667,
    2667,
    2667,
    2667,
    2667,
    2667,
    2667,
    2667,
    2667,
    2667,
    2667,
    2667,
    2667,
    2667,
    2667,
    2667,
    2667,
    2667,
    2667,
    2667,
    2667,
    2667,
    2667,
    2667,
    2667,
    2667,
    2667,
    2667,
    2667,
    2667,
    2667,
    2667,
    2667,
    2667,
    2667,
    2667,
    2667,
    2667,
    2667,
    2667,
    2667,
    2667,
    2667,
    2667,
    2667,
    2667,
    2667,
    2667,
    2667,
    2667,
    2667,
    2667,
    2667,
    2667,
    2667,
    2667,
    2667,
    2667,
    2667,
    2667,
    2667,
    2667,
    2667,
    2667,
    2667,
    2667,
    2667,
    2667,
    2667,
    2667,
    2667,
    2667,
    2667,
    2667,
    2667,
    2667,
    2667,
    2667,
    2667,
    2667,
    2667,
    2667,
    2667,
    2667,
    2667,
    2667,
    2667,
    2667,
    2667,
    2667,
    2667,
    2667,
    2667,
    2667,
    2667,
    2667,
    2667,
    2667,
    2667,
    2667,
    2667,
    2667,
    2667,
    2667,
    2667,
    2667,
    2667,
    2667,
    2667,
    2667,
    2667,
    2667,
    2667,
    2667,
    2667,
    2667,
    2667,
    2667,
    2605,
    2606,
    2607,
    2608,
    2609,
    2727,
    2786,
    2667,
    2667,
    2667,
    2667,
    2667,
    2667,
    2667,
    2667,
    2667,
    2667,
    2667,
    2667,
    2667,
    2667,
    2667,
    2667,
    2667,
    2667,
    2667,
    2667,
    2667,
    2667,
    2667,
    2667,
    2667,
    2667,
    2667,
    2667,
    2667,
    2667,
    2667,
    2667,
    2667,
    2667,
    2667,
    2667,
    2667,
    2667,
    2667,
    2667,
    2667,
    2667,
    2667,
    2667,
    2667,
    2667,
    2667,
    2667,
    2667,
    2667,
    2667,
    2667,
    2667,
    2667,
    2667,
    2667,
    2667,
    2667,
    2667,
    2667,
    2667,
    2667,
    2667,
    2667,
    2667,
    2667,
    2667,
    2667,
    2667,
    2667,
    2667,
    2667,
    2667,
    2667,
    2667,
    2667,
    2667,
    2667,
    2667,
    2667,
    2667,
    2667,
    2667,
    2667,
    2667,
    2667,
    2667,
    2667,
    2667,
    2667,
    2667,
    2667,
    2667,
    2667,
    2667,
    2667,
    2667,
    2667,
    2667,
    2667,
    2667,
    2667,
    2667,
    2667,
    2667,
    2667,
    2667,
    2667,
    2667,
    2667,
    2667,
    2667,
    2667,
    2667,
    2667,
    2667,
    2667,
    2667,
    2667,
    2667,
    2667,
    2667,
    2667,
    2667,
    2667,
    2667,
    2667,
    2667,
    2667,
    2667,
    2667,
    2667,
    2667,
    2667,
    2667,
    2667,
    2667,
    2667,
    2667,
    2667,
    2667,
    2667,
    2667,
    2667,
    2667,
    2605,
    2606,
    2607,
    2608,
    2609,
    2786,
    2786,
    2667,
    2667,
    2667,
    2667,
    2667,
    2667,
    2667,
    2667,
    2667,
    2667,
    2667,
    2667,
    2667,
    2667,
    2667,
    2667,
    2667,
    2667,
    2667,
    2667,
    2667,
    2667,
    2667,
    2667,
    2667,
    2667,
    2667,
    2667,
    2667,
    2667,
    2667,
    2667,
    2667,
    2667,
    2667,
    2667,
    2667,
    2667,
    2667,
    2667,
    2667,
    2667,
    2667,
    2667,
    2667,
    2667,
    2667,
    2667,
    2667,
    2667,
    2667,
    2667,
    2667,
    2667,
    2667,
    2667,
    2667,
    2667,
    2667,
    2667,
    2667,
    2667,
    2667,
    2667,
    2667,
    2667,
    2667,
    2667,
    2667,
    2667,
    2667,
    2667,
    2667,
    2667,
    2667,
    2667,
    2667,
    2667,
    2667,
    2667,
    2667,
    2667,
    2667,
    2667,
    2667,
    2667,
    2667,
    2667,
    2667,
    2667,
    2667,
    2667,
    2667,
    2667,
    2667,
    2667,
    2667,
    2667,
    2667,
    2667,
    2667,
    2667,
    2667,
    2667,
    2667,
    2667,
    2667,
    2667,
    2667,
    2667,
    2667,
    2667,
    2667,
    2667,
    2667,
    2667,
    2667,
    2667,
    2667,
    2667,
    2667,
    2667,
    2667,
    2667,
    2667,
    2667,
    2667,
    2667,
    2667,
    2667,
    2667,
    2667,
    2667,
    2667,
    2667,
    2667,
    2667,
    2667,
    2667,
    2667,
    2667,
    2667,
    2667,
    2667,
    2605,
    2606,
    2607,
    2608,
    2609,
    2668,
    2786,
    2667,
    2667,
    2667,
    2667,
    2667,
    2667,
    2667,
    2667,
    2667,
    2667,
    2667,
    2667,
    2667,
    2667,
    2667,
    2667,
    2667,
    2667,
    2667,
    2667,
    2667,
    2667,
    2667,
    2667,
    2667,
    2667,
    2667,
    2667,
    2667,
    2667,
    2667,
    2667,
    2667,
    2667,
    2667,
    2667,
    2667,
    2667,
    2667,
    2667,
    2667,
    2667,
    2667,
    2667,
    2667,
    2667,
    2667,
    2667,
    2667,
    2667,
    2667,
    2667,
    2667,
    2667,
    2667,
    2667,
    2667,
    2667,
    2667,
    2667,
    2667,
    2667,
    2667,
    2667,
    2667,
    2667,
    2667,
    2667,
    2667,
    2667,
    2667,
    2667,
    2667,
    2667,
    2667,
    2667,
    2667,
    2667,
    2667,
    2667,
    2667,
    2667,
    2667,
    2667,
    2667,
    2667,
    2667,
    2667,
    2667,
    2667,
    2667,
    2667,
    2667,
    2667,
    2667,
    2667,
    2667,
    2667,
    2667,
    2667,
    2667,
    2667,
    2667,
    2667,
    2667,
    2667,
    2667,
    2667,
    2667,
    2667,
    2667,
    2667,
    2667,
    2667,
    2667,
    2667,
    2667,
    2667,
    2667,
    2667,
    2667,
    2667,
    2667,
    2667,
    2667,
    2667,
    2667,
    2667,
    2667,
    2667,
    2667,
    2667,
    2667,
    2667,
    2667,
    2667,
    2667,
    2667,
    2667,
    2667,
    2667,
    2667,
    2667,
    2667,
    2667,
    2605,
    2606,
    2607,
    2608,
    2609,
    2727,
    2786,
    2667,
    2667,
    2667,
    2667,
    2667,
    2667,
    2667,
    2667,
    2667,
    2667,
    2667,
    2667,
    2667,
    2667,
    2667,
    2667,
    2667,
    2667,
    2667,
    2667,
    2667,
    2667,
    2667,
    2667,
    2667,
    2667,
    2667,
    2667,
    2667,
    2667,
    2667,
    2667,
    2667,
    2667,
    2667,
    2667,
    2667,
    2667,
    2667,
    2667,
    2667,
    2667,
    2667,
    2667,
    2667,
    2667,
    2667,
    2667,
    2667,
    2667,
    2667,
    2667,
    2667,
    2667,
    2667,
    2667,
    2667,
    2667,
    2667,
    2667,
    2667,
    2667,
    2667,
    2667,
    2667,
    2667,
    2667,
    2667,
    2667,
    2667,
    2667,
    2667,
    2667,
    2667,
    2667,
    2667,
    2667,
    2667,
    2667,
    2667,
    2667,
    2667,
    2667,
    2667,
    2667,
    2667,
    2667,
    2667,
    2667,
    2667,
    2667,
    2667,
    2667,
    2667,
    2667,
    2667,
    2667,
    2667,
    2667,
    2667,
    2667,
    2667,
    2667,
    2667,
    2667,
    2667,
    2667,
    2667,
    2667,
    2667,
    2667,
    2667,
    2667,
    2667,
    2667,
    2667,
    2667,
    2667,
    2667,
    2667,
    2667,
    2667,
    2667,
    2667,
    2667,
    2667,
    2667,
    2667,
    2667,
    2667,
    2667,
    2667,
    2667,
    2667,
    2667,
    2667,
    2667,
    2667,
    2667,
    2667,
    2667,
    2667,
    2667,
    2667,
    2667,
    2605,
    2606,
    2607,
    2608,
    2609,
    2786,
    2786,
    2667,
    2667,
    2667,
    2667,
    2667,
    2667,
    2667,
    2667,
    2667,
    2667,
    2667,
    2667,
    2667,
    2667,
    2667,
    2667,
    2667,
    2667,
    2667,
    2667,
    2667,
    2667,
    2667,
    2667,
    2667,
    2667,
    2667,
    2667,
    2667,
    2667,
    2667,
    2667,
    2667,
    2667,
    2667,
    2667,
    2667,
    2667,
    2667,
    2667,
    2667,
    2667,
    2667,
    2667,
    2667,
    2667,
    2667,
    2667,
    2667,
    2667,
    2667,
    2667,
    2667,
    2667,
    2667,
    2667,
    2667,
    2667,
    2667,
    2667,
    2667,
    2667,
    2667,
    2667,
    2667,
    2667,
    2667,
    2667,
    2667,
    2667,
    2667,
    2667,
    2667,
    2667,
    2667,
    2667,
    2667,
    2667,
    2667,
    2667,
    2667,
    2667,
    2667,
    2667,
    2667,
    2667,
    2667,
    2667,
    2667,
    2667,
    2667,
    2667,
    2667,
    2667,
    2667,
    2667,
    2667,
    2667,
    2667,
    2667,
    2667,
    2667,
    2667,
    2667,
    2667,
    2667,
    2667,
    2667,
    2667,
    2667,
    2667,
    2667,
    2667,
    2667,
    2667,
    2667,
    2667,
    2667,
    2667,
    2667,
    2667,
    2667,
    2667,
    2667,
    2667,
    2667,
    2667,
    2667,
    2667,
    2667,
    2667,
    2667,
    2667,
    2667,
    2667,
    2667,
    2667,
    2667,
    2667,
    2667,
    2667,
    2667,
    2667,
    2667,
    2605,
    2606,
    2607,
    2608,
    2609,
    2668,
    2786,
    2667,
    2667,
    2667,
    2667,
    2667,
    2667,
    2667,
    2667,
    2667,
    2667,
    2667,
    2667,
    2667,
    2667,
    2667,
    2667,
    2667,
    2667,
    2667,
    2667,
    2667,
    2667,
    2667,
    2667,
    2667,
    2667,
    2667,
    2667,
    2667,
    2667,
    2667,
    2667,
    2667,
    2667,
    2667,
    2667,
    2667,
    2667,
    2667,
    2667,
    2667,
    2667,
    2667,
    2667,
    2667,
    2667,
    2667,
    2667,
    2667,
    2667,
    2667,
    2667,
    2667,
    2667,
    2667,
    2667,
    2667,
    2667,
    2667,
    2667,
    2667,
    2667,
    2667,
    2667,
    2667,
    2667,
    2667,
    2667,
    2667,
    2667,
    2667,
    2667,
    2667,
    2667,
    2667,
    2667,
    2667,
    2667,
    2667,
    2667,
    2667,
    2667,
    2667,
    2667,
    2667,
    2667,
    2667,
    2667,
    2667,
    2667,
    2667,
    2667,
    2667,
    2667,
    2667,
    2667,
    2667,
    2667,
    2667,
    2667,
    2667,
    2667,
    2667,
    2667,
    2667,
    2667,
    2667,
    2667,
    2667,
    2667,
    2667,
    2667,
    2667,
    2667,
    2667,
    2667,
    2667,
    2667,
    2667,
    2667,
    2667,
    2667,
    2667,
    2667,
    2667,
    2667,
    2667,
    2667,
    2667,
    2667,
    2667,
    2667,
    2667,
    2667,
    2667,
    2667,
    2667,
    2667,
    2667,
    2667,
    2667,
    2667,
    2667,
    2667,
    2667,
    2605,
    2606,
    2607,
    2608,
    2609,
    2727,
    2786,
    2667,
    2667,
    2667,
    2667,
    2667,
    2667,
    2667,
    2667,
    2667,
    2667,
    2667,
    2667,
    2667,
    2667,
    2667,
    2667,
    2667,
    2667,
    2667,
    2667,
    2667,
    2667,
    2667,
    2667,
    2667,
    2667,
    2667,
    2667,
    2667,
    2667,
    2667,
    2667,
    2667,
    2667,
    2667,
    2667,
    2667,
    2667,
    2667,
    2667,
    2667,
    2667,
    2667,
    2667,
    2667,
    2667,
    2667,
    2667,
    2667,
    2667,
    2667,
    2667,
    2667,
    2667,
    2667,
    2667,
    2667,
    2667,
    2667,
    2667,
    2667,
    2667,
    2667,
    2667,
    2667,
    2667,
    2667,
    2667,
    2667,
    2667,
    2667,
    2667,
    2667,
    2667,
    2667,
    2667,
    2667,
    2667,
    2667,
    2667,
    2667,
    2667,
    2667,
    2667,
    2667,
    2667,
    2667,
    2667,
    2667,
    2667,
    2667,
    2667,
    2667,
    2667,
    2667,
    2667,
    2667,
    2667,
    2667,
    2667,
    2667,
    2667,
    2667,
    2667,
    2667,
    2667,
    2667,
    2667,
    2667,
    2667,
    2667,
    2667,
    2667,
    2667,
    2667,
    2667,
    2667,
    2667,
    2667,
    2667,
    2667,
    2605,
    2605,
    2606,
    2607,
    2608,
    2609,
    2667,
    2667,
    2667,
    2667,
    2667,
    2667,
    2667,
    2667,
    2667,
    2667,
    2667,
    2667,
    2667,
    2667,
    2667,
    2667,
    2667,
    2667,
    2605,
    2606,
    2607,
    2608,
    2609,
    2786,
    2786,
    2667,
    2667,
    2667,
    2667,
    2667,
    2667,
    2667,
    2667,
    2667,
    2667,
    2667,
    2667,
    2667,
    2667,
    2667,
    2667,
    2667,
    2667,
    2667,
    2667,
    2667,
    2667,
    2667,
    2667,
    2667,
    2667,
    2667,
    2667,
    2667,
    2667,
    2667,
    2667,
    2667,
    2667,
    2667,
    2667,
    2667,
    2667,
    2667,
    2667,
    2667,
    2667,
    2667,
    2667,
    2667,
    2667,
    2667,
    2667,
    2667,
    2667,
    2667,
    2667,
    2667,
    2667,
    2667,
    2667,
    2667,
    2667,
    2667,
    2667,
    2667,
    2667,
    2667,
    2667,
    2667,
    2667,
    2667,
    2667,
    2667,
    2667,
    2667,
    2667,
    2667,
    2667,
    2667,
    2667,
    2667,
    2667,
    2667,
    2667,
    2667,
    2667,
    2667,
    2667,
    2667,
    2667,
    2667,
    2667,
    2667,
    2667,
    2667,
    2667,
    2667,
    2667,
    2667,
    2667,
    2667,
    2667,
    2667,
    2667,
    2667,
    2667,
    2667,
    2667,
    2667,
    2667,
    2667,
    2667,
    2667,
    2667,
    2667,
    2667,
    2667,
    2667,
    2667,
    2667,
    2667,
    2667,
    2667,
    2667,
    2667,
    2664,
    2664,
    2605,
    2605,
    2606,
    2607,
    2608,
    2609,
    2667,
    2667,
    2667,
    2667,
    2667,
    2667,
    2667,
    2667,
    2667,
    2667,
    2667,
    2667,
    2667,
    2667,
    2667,
    2667,
    2605,
    2606,
    2607,
    2608,
    2609,
    2786,
    2667,
    2667,
    2667,
    2667,
    2667,
    2667,
    2667,
    2667,
    2667,
    2667,
    2667,
    2667,
    2667,
    2667,
    2667,
    2667,
    2667,
    2667,
    2667,
    2667,
    2667,
    2667,
    2667,
    2667,
    2667,
    2667,
    2667,
    2667,
    2667,
    2667,
    2667,
    2667,
    2667,
    2667,
    2667,
    2667,
    2667,
    2667,
    2667,
    2667,
    2667,
    2667,
    2667,
    2667,
    2667,
    2667,
    2667,
    2667,
    2667,
    2667,
    2667,
    2667,
    2667,
    2667,
    2667,
    2667,
    2667,
    2667,
    2667,
    2667,
    2667,
    2667,
    2667,
    2667,
    2667,
    2667,
    2667,
    2667,
    2667,
    2667,
    2667,
    2667,
    2667,
    2667,
    2667,
    2667,
    2667,
    2667,
    2667,
    2667,
    2667,
    2667,
    2667,
    2667,
    2667,
    2667,
    2667,
    2667,
    2667,
    2667,
    2667,
    2667,
    2667,
    2667,
    2667,
    2667,
    2667,
    2667,
    2667,
    2667,
    2667,
    2667,
    2667,
    2667,
    2667,
    2667,
    2667,
    2667,
    2667,
    2667,
    2667,
    2667,
    2667,
    2667,
    2667,
    2667,
    2667,
    2667,
    2667,
    2667,
    2667,
    2667,
    2723,
    2723,
    2664,
    2664,
    2605,
    2605,
    2606,
    2607,
    2608,
    2609,
    2667,
    2667,
    2667,
    2667,
    2667,
    2667,
    2667,
    2667,
    2667,
    2667,
    2667,
    2667,
    2667,
    2605,
    2606,
    2607,
    2608,
    2609,
    2668,
    2786,
    2667,
    2667,
    2667,
    2667,
    2667,
    2667,
    2667,
    2667,
    2667,
    2667,
    2667,
    2667,
    2667,
    2667,
    2667,
    2667,
    2667,
    2667,
    2667,
    2667,
    2667,
    2667,
    2667,
    2667,
    2667,
    2667,
    2667,
    2667,
    2667,
    2667,
    2667,
    2667,
    2667,
    2667,
    2667,
    2667,
    2667,
    2667,
    2667,
    2667,
    2667,
    2667,
    2667,
    2667,
    2667,
    2667,
    2667,
    2667,
    2667,
    2667,
    2667,
    2667,
    2667,
    2667,
    2667,
    2667,
    2667,
    2667,
    2667,
    2667,
    2667,
    2667,
    2667,
    2667,
    2667,
    2667,
    2667,
    2667,
    2667,
    2667,
    2667,
    2667,
    2667,
    2667,
    2667,
    2667,
    2667,
    2667,
    2667,
    2667,
    2667,
    2667,
    2667,
    2667,
    2667,
    2667,
    2667,
    2667,
    2667,
    2667,
    2667,
    2667,
    2667,
    2667,
    2667,
    2667,
    2667,
    2667,
    2667,
    2667,
    2667,
    2667,
    2667,
    2667,
    2667,
    2667,
    2667,
    2667,
    2667,
    2667,
    2667,
    2667,
    2667,
    2667,
    2667,
    2667,
    2667,
    2667,
    2667,
    2667,
    2667,
    2667,
    2782,
    2782,
    2723,
    2723,
    2664,
    2664,
    2605,
    2606,
    2607,
    2608,
    2609,
    2667,
    2667,
    2667,
    2667,
    2667,
    2667,
    2667,
    2667,
    2667,
    2667,
    2667,
    2667,
    2605,
    2606,
    2607,
    2608,
    2609,
    2727,
    2786,
    2667,
    2667,
    2667,
    2667,
    2667,
    2667,
    2667,
    2667,
    2667,
    2667,
    2667,
    2667,
    2667,
    2667,
    2667,
    2667,
    2667,
    2667,
    2667,
    2667,
    2667,
    2667,
    2667,
    2667,
    2667,
    2667,
    2667,
    2667,
    2667,
    2667,
    2667,
    2667,
    2667,
    2667,
    2667,
    2667,
    2667,
    2667,
    2667,
    2667,
    2667,
    2667,
    2667,
    2667,
    2667,
    2667,
    2667,
    2667,
    2667,
    2667,
    2667,
    2667,
    2667,
    2667,
    2667,
    2667,
    2667,
    2667,
    2667,
    2667,
    2667,
    2667,
    2667,
    2667,
    2667,
    2667,
    2667,
    2667,
    2667,
    2667,
    2667,
    2667,
    2667,
    2667,
    2667,
    2667,
    2667,
    2667,
    2667,
    2667,
    2667,
    2667,
    2667,
    2667,
    2667,
    2667,
    2667,
    2667,
    2667,
    2667,
    2667,
    2667,
    2667,
    2667,
    2667,
    2667,
    2667,
    2667,
    2667,
    2667,
    2667,
    2667,
    2667,
    2667,
    2667,
    2667,
    2667,
    2667,
    2667,
    2667,
    2667,
    2667,
    2667,
    2667,
    2667,
    2667,
    2667,
    2667,
    2667,
    2667,
    2667,
    2667,
    2667,
    2782,
    2782,
    2782,
    2723,
    2723,
    2605,
    2606,
    2607,
    2608,
    2609,
    2667,
    2667,
    2667,
    2667,
    2667,
    2667,
    2667,
    2667,
    2667,
    2667,
    2667,
    2667,
    2605,
    2606,
    2607,
    2608,
    2609,
    2786,
    2667,
    2667,
    2667,
    2667,
    2667,
    2667,
    2667,
    2667,
    2667,
    2667,
    2667,
    2667,
    2667,
    2667,
    2667,
    2667,
    2667,
    2667,
    2667,
    2667,
    2667,
    2667,
    2667,
    2667,
    2667,
    2667,
    2667,
    2667,
    2667,
    2667,
    2667,
    2667,
    2667,
    2667,
    2667,
    2667,
    2667,
    2667,
    2667,
    2667,
    2667,
    2667,
    2667,
    2667,
    2667,
    2667,
    2667,
    2667,
    2667,
    2667,
    2667,
    2667,
    2667,
    2667,
    2667,
    2667,
    2667,
    2667,
    2667,
    2667,
    2667,
    2667,
    2667,
    2667,
    2667,
    2667,
    2667,
    2667,
    2667,
    2667,
    2667,
    2667,
    2667,
    2667,
    2667,
    2667,
    2667,
    2667,
    2667,
    2667,
    2667,
    2667,
    2667,
    2667,
    2667,
    2667,
    2667,
    2667,
    2667,
    2667,
    2667,
    2667,
    2667,
    2667,
    2667,
    2667,
    2667,
    2667,
    2667,
    2667,
    2667,
    2667,
    2667,
    2667,
    2667,
    2667,
    2667,
    2667,
    2667,
    2667,
    2667,
    2667,
    2667,
    2667,
    2667,
    2667,
    2667,
    2667,
    2667,
    2667,
    2667,
    2667,
    2667,
    2667,
    2782,
    2783,
    2784,
    2782,
    2782,
    2664,
    2605,
    2606,
    2607,
    2608,
    2609,
    2667,
    2667,
    2667,
    2667,
    2667,
    2667,
    2667,
    2667,
    2667,
    2667,
    2667,
    2605,
    2606,
    2607,
    2608,
    2609,
    2786,
    2667,
    2667,
    2667,
    2667,
    2667,
    2667,
    2667,
    2667,
    2667,
    2667,
    2667,
    2667,
    2667,
    2667,
    2667,
    2667,
    2667,
    2667,
    2667,
    2667,
    2667,
    2667,
    2667,
    2667,
    2667,
    2667,
    2667,
    2667,
    2667,
    2667,
    2667,
    2667,
    2667,
    2667,
    2667,
    2667,
    2667,
    2667,
    2667,
    2667,
    2667,
    2667,
    2667,
    2667,
    2667,
    2667,
    2667,
    2667,
    2667,
    2667,
    2667,
    2667,
    2667,
    2667,
    2667,
    2667,
    2667,
    2667,
    2667,
    2667,
    2667,
    2667,
    2667,
    2667,
    2667,
    2667,
    2667,
    2667,
    2667,
    2667,
    2667,
    2667,
    2667,
    2667,
    2667,
    2667,
    2667,
    2667,
    2667,
    2667,
    2667,
    2667,
    2667,
    2667,
    2667,
    2667,
    2667,
    2667,
    2667,
    2667,
    2667,
    2667,
    2667,
    2667,
    2667,
    2667,
    2667,
    2667,
    2667,
    2667,
    2667,
    2667,
    2667,
    2667,
    2667,
    2667,
    2667,
    2667,
    2667,
    2667,
    2667,
    2667,
    2667,
    2667,
    2667,
    2667,
    2667,
    2667,
    2667,
    2667,
    2667,
    2667,
    2667,
    2605,
    2782,
    2783,
    2784,
    2785,
    2786,
    2723,
    2664,
    2605,
    2606,
    2607,
    2608,
    2609,
    2667,
    2667,
    2667,
    2667,
    2667,
    2667,
    2667,
    2667,
    2667,
    2605,
    2606,
    2607,
    2608,
    2609,
    2668,
    2786,
    2667,
    2667,
    2667,
    2667,
    2667,
    2667,
    2667,
    2667,
    2667,
    2667,
    2667,
    2667,
    2667,
    2667,
    2667,
    2667,
    2667,
    2667,
    2667,
    2667,
    2667,
    2667,
    2667,
    2667,
    2667,
    2667,
    2667,
    2667,
    2667,
    2667,
    2667,
    2667,
    2667,
    2667,
    2667,
    2667,
    2667,
    2667,
    2667,
    2667,
    2667,
    2667,
    2667,
    2667,
    2667,
    2667,
    2667,
    2667,
    2667,
    2667,
    2667,
    2667,
    2667,
    2667,
    2667,
    2667,
    2667,
    2667,
    2667,
    2667,
    2667,
    2667,
    2667,
    2667,
    2667,
    2667,
    2667,
    2667,
    2667,
    2667,
    2667,
    2667,
    2667,
    2667,
    2667,
    2667,
    2667,
    2667,
    2667,
    2667,
    2667,
    2667,
    2667,
    2667,
    2667,
    2667,
    2667,
    2667,
    2667,
    2667,
    2667,
    2667,
    2667,
    2667,
    2667,
    2667,
    2667,
    2667,
    2667,
    2667,
    2667,
    2667,
    2667,
    2667,
    2667,
    2667,
    2667,
    2667,
    2667,
    2667,
    2605,
    2606,
    2607,
    2608,
    2609,
    2667,
    2667,
    2667,
    2667,
    2667,
    2667,
    2667,
    2667,
    2664,
    2782,
    2783,
    2784,
    2785,
    2786,
    2782,
    2723,
    2664,
    2605,
    2606,
    2607,
    2608,
    2609,
    2667,
    2667,
    2667,
    2667,
    2667,
    2667,
    2667,
    2667,
    2605,
    2606,
    2607,
    2608,
    2609,
    2727,
    2786,
    2667,
    2667,
    2667,
    2667,
    2667,
    2667,
    2667,
    2667,
    2667,
    2667,
    2667,
    2667,
    2667,
    2667,
    2667,
    2667,
    2667,
    2667,
    2667,
    2667,
    2667,
    2667,
    2667,
    2667,
    2667,
    2667,
    2667,
    2667,
    2667,
    2667,
    2667,
    2667,
    2667,
    2667,
    2667,
    2667,
    2667,
    2667,
    2667,
    2667,
    2667,
    2667,
    2667,
    2667,
    2667,
    2667,
    2667,
    2667,
    2667,
    2667,
    2667,
    2667,
    2667,
    2667,
    2667,
    2667,
    2667,
    2667,
    2667,
    2667,
    2667,
    2667,
    2667,
    2667,
    2667,
    2667,
    2667,
    2667,
    2667,
    2667,
    2667,
    2667,
    2667,
    2667,
    2667,
    2667,
    2667,
    2667,
    2667,
    2667,
    2667,
    2667,
    2667,
    2667,
    2667,
    2667,
    2667,
    2667,
    2667,
    2667,
    2667,
    2667,
    2667,
    2667,
    2667,
    2667,
    2667,
    2667,
    2667,
    2667,
    2667,
    2667,
    2667,
    2667,
    2667,
    2667,
    2667,
    2667,
    2667,
    2667,
    2605,
    2606,
    2607,
    2608,
    2609,
    2667,
    2667,
    2667,
    2667,
    2667,
    2667,
    2667,
    2667,
    2723,
    2782,
    2783,
    2784,
    2785,
    2786,
    2607,
    2782,
    2723,
    2605,
    2606,
    2607,
    2608,
    2609,
    2667,
    2667,
    2667,
    2667,
    2667,
    2667,
    2667,
    2667,
    2605,
    2606,
    2607,
    2608,
    2609,
    2786,
    2667,
    2667,
    2667,
    2667,
    2667,
    2667,
    2667,
    2667,
    2667,
    2667,
    2667,
    2667,
    2667,
    2667,
    2667,
    2667,
    2667,
    2667,
    2667,
    2667,
    2667,
    2667,
    2667,
    2667,
    2667,
    2667,
    2667,
    2667,
    2667,
    2667,
    2667,
    2667,
    2667,
    2667,
    2667,
    2667,
    2667,
    2667,
    2667,
    2667,
    2667,
    2667,
    2667,
    2667,
    2667,
    2667,
    2667,
    2667,
    2667,
    2667,
    2667,
    2667,
    2667,
    2667,
    2667,
    2667,
    2667,
    2667,
    2667,
    2667,
    2667,
    2667,
    2667,
    2667,
    2667,
    2667,
    2667,
    2667,
    2667,
    2667,
    2667,
    2667,
    2667,
    2667,
    2667,
    2667,
    2667,
    2667,
    2667,
    2667,
    2667,
    2667,
    2667,
    2667,
    2667,
    2667,
    2667,
    2667,
    2667,
    2667,
    2667,
    2667,
    2667,
    2667,
    2667,
    2667,
    2667,
    2667,
    2667,
    2667,
    2667,
    2667,
    2667,
    2667,
    2667,
    2667,
    2667,
    2667,
    2667,
    2667,
    2667,
    2605,
    2606,
    2607,
    2608,
    2609,
    2667,
    2667,
    2667,
    2667,
    2667,
    2667,
    2667,
    2667,
    2782,
    2782,
    2783,
    2784,
    2785,
    2786,
    2608,
    2609,
    2605,
    2605,
    2605,
    2605,
    2605,
    2605,
    2605,
    2605,
    2606,
    2607,
    2608,
    2609,
    2667,
    2667,
    2605,
    2606,
    2607,
    2608,
    2609,
    2786,
    2667,
    2667,
    2667,
    2667,
    2667,
    2667,
    2667,
    2667,
    2667,
    2667,
    2667,
    2667,
    2667,
    2667,
    2667,
    2667,
    2667,
    2667,
    2667,
    2667,
    2667,
    2667,
    2667,
    2667,
    2667,
    2667,
    2667,
    2667,
    2667,
    2667,
    2667,
    2667,
    2667,
    2667,
    2667,
    2667,
    2667,
    2667,
    2667,
    2667,
    2667,
    2667,
    2667,
    2667,
    2667,
    2667,
    2667,
    2667,
    2667,
    2667,
    2667,
    2667,
    2667,
    2667,
    2667,
    2667,
    2667,
    2667,
    2667,
    2667,
    2667,
    2667,
    2667,
    2667,
    2667,
    2667,
    2667,
    2667,
    2667,
    2667,
    2667,
    2667,
    2667,
    2667,
    2667,
    2667,
    2667,
    2667,
    2667,
    2667,
    2667,
    2667,
    2667,
    2667,
    2667,
    2667,
    2667,
    2667,
    2667,
    2667,
    2667,
    2667,
    2667,
    2667,
    2667,
    2667,
    2667,
    2667,
    2667,
    2667,
    2667,
    2667,
    2667,
    2667,
    2667,
    2667,
    2667,
    2667,
    2667,
    2667,
    2667,
    2605,
    2606,
    2607,
    2608,
    2609,
    2667,
    2667,
    2667,
    2667,
    2667,
    2605,
    2605,
    2605,
    2605,
    2605,
    2605,
    2605,
    2605,
    2605,
    2605,
    2605,
    2664,
    2664,
    2664,
    2664,
    2664,
    2664,
    2664,
    2664,
    2605,
    2605,
    2605,
    2605,
    2605,
    2605,
    2605,
    2605,
    2605,
    2605,
    2605,
    2606,
    2607,
    2608,
    2609,
    2667,
    2667,
    2667,
    2667,
    2667,
    2667,
    2667,
    2667,
    2667,
    2667,
    2667,
    2667,
    2667,
    2667,
    2667,
    2667,
    2667,
    2667,
    2667,
    2667,
    2667,
    2667,
    2667,
    2667,
    2667,
    2667,
    2667,
    2667,
    2667,
    2667,
    2667,
    2667,
    2667,
    2667,
    2667,
    2667,
    2667,
    2667,
    2667,
    2667,
    2667,
    2667,
    2667,
    2667,
    2667,
    2667,
    2667,
    2667,
    2667,
    2667,
    2667,
    2667,
    2667,
    2667,
    2667,
    2667,
    2667,
    2667,
    2667,
    2667,
    2667,
    2667,
    2667,
    2667,
    2667,
    2667,
    2667,
    2667,
    2667,
    2667,
    2667,
    2667,
    2667,
    2667,
    2667,
    2667,
    2667,
    2667,
    2667,
    2667,
    2667,
    2667,
    2667,
    2667,
    2667,
    2667,
    2667,
    2667,
    2667,
    2667,
    2667,
    2667,
    2667,
    2667,
    2667,
    2667,
    2667,
    2667,
    2667,
    2667,
    2667,
    2667,
    2667,
    2667,
    2667,
    2667,
    2667,
    2605,
    2605,
    2606,
    2607,
    2608,
    2605,
    2605,
    2605,
    2605,
    2605,
    2605,
    2664,
    2664,
    2664,
    2664,
    2664,
    2664,
    2664,
    2664,
    2664,
    2664,
    2664,
    2723,
    2723,
    2723,
    2723,
    2723,
    2723,
    2723,
    2723,
    2664,
    2664,
    2664,
    2664,
    2664,
    2664,
    2664,
    2664,
    2664,
    2664,
    2664,
    2605,
    2605,
    2606,
    2607,
    2605,
    2606,
    2607,
    2608,
    2609,
    2609,
    2609,
    2667,
    2667,
    2667,
    2667,
    2667,
    2667,
    2667,
    2667,
    2667,
    2667,
    2667,
    2667,
    2667,
    2667,
    2667,
    2667,
    2667,
    2667,
    2667,
    2667,
    2667,
    2667,
    2667,
    2667,
    2667,
    2667,
    2667,
    2667,
    2667,
    2667,
    2667,
    2667,
    2667,
    2667,
    2667,
    2667,
    2667,
    2667,
    2667,
    2667,
    2667,
    2667,
    2667,
    2667,
    2667,
    2667,
    2667,
    2667,
    2667,
    2667,
    2667,
    2667,
    2667,
    2667,
    2667,
    2667,
    2667,
    2667,
    2667,
    2667,
    2667,
    2667,
    2667,
    2667,
    2667,
    2667,
    2667,
    2667,
    2667,
    2667,
    2667,
    2667,
    2667,
    2667,
    2667,
    2667,
    2667,
    2667,
    2667,
    2667,
    2667,
    2667,
    2667,
    2667,
    2667,
    2667,
    2667,
    2667,
    2605,
    2605,
    2605,
    2606,
    2607,
    2608,
    2609,
    2667,
    2667,
    2667,
    2667,
    2667,
    2664,
    2605,
    2605,
    2605,
    2605,
    2664,
    2664,
    2664,
    2664,
    2664,
    2664,
    2723,
    2723,
    2723,
    2723,
    2723,
    2723,
    2723,
    2723,
    2723,
    2723,
    2723,
    2782,
    2782,
    2782,
    2782,
    2782,
    2782,
    2782,
    2782,
    2723,
    2723,
    2723,
    2723,
    2723,
    2723,
    2723,
    2723,
    2723,
    2723,
    2723,
    2664,
    2605,
    2605,
    2605,
    2605,
    2605,
    2605,
    2605,
    2605,
    2605,
    2605,
    2606,
    2607,
    2608,
    2609,
    2609,
    2609,
    2609,
    2667,
    2667,
    2667,
    2667,
    2667,
    2667,
    2667,
    2667,
    2667,
    2667,
    2667,
    2667,
    2667,
    2667,
    2667,
    2667,
    2667,
    2667,
    2667,
    2667,
    2667,
    2667,
    2667,
    2667,
    2667,
    2667,
    2667,
    2667,
    2667,
    2667,
    2667,
    2667,
    2667,
    2667,
    2667,
    2667,
    2667,
    2667,
    2667,
    2667,
    2667,
    2667,
    2667,
    2667,
    2667,
    2667,
    2667,
    2667,
    2667,
    2667,
    2667,
    2667,
    2667,
    2667,
    2667,
    2667,
    2667,
    2667,
    2667,
    2667,
    2667,
    2667,
    2667,
    2667,
    2667,
    2667,
    2667,
    2667,
    2667,
    2667,
    2667,
    2667,
    2667,
    2667,
    2667,
    2667,
    2667,
    2605,
    2605,
    2605,
    2605,
    2605,
    2605,
    2605,
    2605,
    2605,
    2605,
    2605,
    2605,
    2605,
    2605,
    2605,
    2605,
    2605,
    2664,
    2664,
    2664,
    2664,
    2723,
    2723,
    2723,
    2723,
    2723,
    2723,
    2782,
    2782,
    2782,
    2782,
    2782,
    2782,
    2782,
    2782,
    2782,
    2782,
    2782,
    2783,
    2784,
    2785,
    2786,
    2609,
    2609,
    2609,
    2609,
    2782,
    2782,
    2782,
    2782,
    2782,
    2605,
    2605,
    2605,
    2605,
    2605,
    2605,
    2605,
    2605,
    2605,
    2664,
    2664,
    2664,
    2664,
    2664,
    2605,
    2605,
    2605,
    2605,
    2605,
    2605,
    2605,
    2605,
    2605,
    2605,
    2667,
    2667,
    2667,
    2667,
    2667,
    2667,
    2667,
    2667,
    2667,
    2667,
    2667,
    2667,
    2667,
    2667,
    2667,
    2667,
    2667,
    2667,
    2667,
    2667,
    2667,
    2667,
    2667,
    2667,
    2667,
    2667,
    2667,
    2667,
    2667,
    2667,
    2667,
    2667,
    2667,
    2667,
    2667,
    2667,
    2667,
    2667,
    2667,
    2667,
    2667,
    2667,
    2667,
    2667,
    2667,
    2667,
    2667,
    2667,
    2667,
    2667,
    2667,
    2667,
    2667,
    2667,
    2667,
    2667,
    2667,
    2667,
    2667,
    2667,
    2667,
    2667,
    2667,
    2667,
    2667,
    2667,
    2667,
    2667,
    2667,
    2667,
    2667,
    2667,
    2667,
    2667,
    2667,
    2667,
    2667,
    2664,
    2664,
    2664,
    2664,
    2664,
    2664,
    2664,
    2664,
    2664,
    2664,
    2664,
    2664,
    2664,
    2664,
    2664,
    2664,
    2664,
    2723,
    2723,
    2723,
    2723,
    2782,
    2782,
    2782,
    2782,
    2782,
    2782,
    2783,
    2784,
    2785,
    2786,
    2727,
    2727,
    2727,
    2668,
    2668,
    2668,
    2668,
    2668,
    2668,
    2668,
    2668,
    2668,
    2668,
    2668,
    2668,
    2668,
    2609,
    2609,
    2609,
    2605,
    2664,
    2664,
    2664,
    2664,
    2664,
    2664,
    2664,
    2664,
    2664,
    2723,
    2605,
    2605,
    2605,
    2605,
    2664,
    2664,
    2664,
    2664,
    2664,
    2664,
    2664,
    2605,
    2606,
    2607,
    2667,
    2667,
    2667,
    2667,
    2667,
    2667,
    2667,
    2667,
    2667,
    2667,
    2667,
    2667,
    2667,
    2667,
    2667,
    2667,
    2667,
    2667,
    2667,
    2667,
    2667,
    2667,
    2667,
    2667,
    2667,
    2667,
    2667,
    2667,
    2667,
    2667,
    2667,
    2667,
    2667,
    2667,
    2667,
    2667,
    2667,
    2667,
    2667,
    2667,
    2667,
    2667,
    2667,
    2667,
    2667,
    2667,
    2667,
    2667,
    2667,
    2667,
    2667,
    2667,
    2667,
    2667,
    2667,
    2667,
    2667,
    2667,
    2667,
    2667,
    2667,
    2667,
    2667,
    2667,
    2667,
    2667,
    2667,
    2667,
    2667,
    2667,
    2667,
    2667,
    2667,
    2667,
    2667,
    2667,
    2605,
    2723,
    2723,
    2723,
    2723,
    2723,
    2723,
    2723,
    2723,
    2723,
    2723,
    2723,
    2723,
    2723,
    2723,
    2723,
    2723,
    2723,
    2782,
    2782,
    2782,
    2782,
    2783,
    2784,
    2785,
    2786,
    2786,
    2786,
    2786,
    2786,
    2786,
    2786,
    2786,
    2786,
    2786,
    2727,
    2727,
    2727,
    2727,
    2727,
    2727,
    2727,
    2727,
    2727,
    2727,
    2727,
    2727,
    2727,
    2668,
    2668,
    2668,
    2664,
    2723,
    2723,
    2723,
    2723,
    2723,
    2723,
    2723,
    2723,
    2723,
    2782,
    2664,
    2664,
    2664,
    2664,
    2723,
    2723,
    2723,
    2723,
    2723,
    2605,
    2606,
    2607,
    2608,
    2609,
    2667,
    2667,
    2667,
    2667,
    2667,
    2667,
    2667,
    2667,
    2667,
    2667,
    2667,
    2667,
    2667,
    2667,
    2667,
    2667,
    2667,
    2667,
    2667,
    2667,
    2667,
    2667,
    2667,
    2667,
    2667,
    2667,
    2667,
    2667,
    2667,
    2667,
    2667,
    2667,
    2667,
    2667,
    2667,
    2667,
    2667,
    2667,
    2667,
    2667,
    2667,
    2667,
    2667,
    2667,
    2667,
    2667,
    2667,
    2667,
    2667,
    2667,
    2667,
    2667,
    2667,
    2667,
    2667,
    2667,
    2667,
    2667,
    2667,
    2667,
    2667,
    2667,
    2667,
    2667,
    2667,
    2667,
    2667,
    2667,
    2667,
    2667,
    2667,
    2667,
    2667,
    2667,
    2667,
    2667,
    2664,
    2782,
    2782,
    2782,
    2782,
    2782,
    2782,
    2782,
    2782,
    2782,
    2782,
    2782,
    2782,
    2782,
    2782,
    2782,
    2782,
    2782,
    2782,
    2782,
    2782,
    2782,
    2782,
    2782,
    2782,
    2782,
    2782,
    2782,
    2723,
    2723,
    2723,
    2782,
    2783,
    2784,
    2785,
    2786,
    2786,
    2786,
    2786,
    2786,
    2786,
    2786,
    2786,
    2786,
    2786,
    2786,
    2786,
    2786,
    2727,
    2727,
    2727,
    2723,
    2782,
    2782,
    2782,
    2782,
    2782,
    2782,
    2782,
    2782,
    2782,
    2782,
    2723,
    2723,
    2723,
    2723,
    2782,
    2605,
    2606,
    2607,
    2608,
    2609,
    2609,
    2609,
    2609,
    2668,
    2667,
    2667,
    2667,
    2667,
    2667,
    2667,
    2667,
    2667,
    2667,
    2667,
    2667,
    2667,
    2667,
    2667,
    2667,
    2667,
    2667,
    2667,
    2667,
    2667,
    2667,
    2667,
    2667,
    2667,
    2667,
    2667,
    2667,
    2667,
    2667,
    2667,
    2667,
    2667,
    2667,
    2667,
    2667,
    2667,
    2667,
    2667,
    2667,
    2667,
    2667,
    2667,
    2667,
    2667,
    2667,
    2667,
    2667,
    2667,
    2667,
    2667,
    2667,
    2667,
    2667,
    2667,
    2667,
    2667,
    2667,
    2667,
    2667,
    2667,
    2667,
    2667,
    2667,
    2667,
    2667,
    2667,
    2667,
    2667,
    2667,
    2667,
    2667,
    2667,
    2667,
    2605,
    2606,
    2607,
    2608,
    2609,
    2782,
    2783,
    2784,
    2785,
    2786,
    2786,
    2786,
    2727,
    2727,
    2786,
    2786,
    2668,
    2668,
    2668,
    2668,
    2727,
    2668,
    2727,
    2727,
    2786,
    2786,
    2782,
    2782,
    2783,
    2784,
    2785,
    2782,
    2782,
    2782,
    2782,
    2782,
    2723,
    2723,
    2723,
    2723,
    2723,
    2664,
    2664,
    2664,
    2664,
    2664,
    2723,
    2782,
    2783,
    2784,
    2785,
    2786,
    2786,
    2786,
    2782,
    2782,
    2783,
    2784,
    2785,
    2786,
    2786,
    2786,
    2786,
    2786,
    2786,
    2782,
    2782,
    2782,
    2605,
    2606,
    2607,
    2608,
    2609,
    2609,
    2668,
    2668,
    2668,
    2668,
    2727,
    2727,
    2786,
    2786,
    2786,
    2786,
    2727,
    2727,
    2727,
    2727,
    2727,
    2727,
    2786,
    2786,
    2727,
    2668,
    2668,
    2668,
    2668,
    2668,
    2667,
    2667,
    0,
    0,
    0,
    0,
    0,
    0,
    0,
    0,
    0,
    0,
    0,
    2667,
    2667,
    2667,
    2667,
    2667,
    2667,
    2667,
    2667,
    2667,
    2667,
    2667,
    2667,
    2667,
    2667,
    2667,
    2667,
    2667,
    2667,
    2667,
    2667,
    2667,
    2667,
    2667,
    2667,
    2667,
    2667,
    2667,
    2667,
    2667,
    2667,
    2667,
    2667,
    2667,
    2667,
    2667,
    2667,
    2667,
    2667,
    2667,
    2667,
    2667,
    2605,
    2606,
    2607,
    2608,
    2609,
    2782,
    2782,
    2782,
    2783,
    2784,
    2785,
    2786,
    2786,
    2786,
    2727,
    2727,
    2727,
    2727,
    2727,
    2727,
    2786,
    2727,
    2786,
    2786,
    2605,
    2605,
    2605,
    2605,
    2606,
    2607,
    2608,
    2609,
    2609,
    2609,
    2609,
    2782,
    2782,
    2782,
    2782,
    2782,
    2782,
    2723,
    2723,
    2723,
    2723,
    2723,
    2782,
    2782,
    2782,
    2782,
    2782,
    2782,
    2782,
    2782,
    2783,
    2784,
    2785,
    2786,
    2786,
    2786,
    2786,
    2727,
    2727,
    2727,
    2605,
    2782,
    2605,
    2606,
    2607,
    2608,
    2609,
    2609,
    2668,
    2668,
    2727,
    2727,
    2727,
    2727,
    2786,
    2786,
    2786,
    2786,
    2786,
    2786,
    2786,
    2786,
    2786,
    2786,
    2786,
    2786,
    2784,
    2785,
    2786,
    2727,
    2727,
    2727,
    2727,
    2727,
    2667,
    2667,
    0,
    0,
    0,
    0,
    0,
    0,
    0,
    0,
    0,
    0,
    0,
    2667,
    2667,
    2667,
    2667,
    2667,
    2667,
    2667,
    2667,
    2667,
    2667,
    2667,
    2667,
    2667,
    2667,
    2667,
    2667,
    2667,
    2667,
    2667,
    2667,
    2667,
    2667,
    2667,
    2667,
    2667,
    2667,
    2667,
    2667,
    2667,
    2667,
    2667,
    2667,
    2667,
    2667,
    2667,
    2667,
    2667,
    2667,
    2667,
    2667,
    2667,
    2605,
    2606,
    2607,
    2608,
    2609,
    2607,
    2608,
    2609,
    2609,
    2783,
    2784,
    2785,
    2786,
    2786,
    2786,
    2786,
    2786,
    2786,
    2786,
    2786,
    2786,
    2786,
    2609,
    2664,
    2664,
    2664,
    2605,
    2606,
    2607,
    2608,
    2609,
    2609,
    2668,
    2668,
    2668,
    2782,
    2783,
    2784,
    2785,
    2786,
    2668,
    2782,
    2782,
    2782,
    2782,
    2782,
    2783,
    2784,
    2785,
    2786,
    2606,
    2782,
    2782,
    2723,
    2723,
    2782,
    2782,
    2782,
    2783,
    2784,
    2785,
    2786,
    2786,
    2786,
    2609,
    2605,
    2606,
    2607,
    2608,
    2609,
    2668,
    2668,
    2727,
    2727,
    2786,
    2786,
    2786,
    2786,
    2782,
    2783,
    2784,
    2785,
    2786,
    2782,
    2782,
    2782,
    2783,
    2784,
    2785,
    2786,
    2783,
    2784,
    2785,
    2786,
    2786,
    2786,
    2786,
    2786,
    2667,
    2667,
    0,
    0,
    0,
    0,
    0,
    0,
    0,
    0,
    0,
    0,
    0,
    2667,
    2667,
    2667,
    2667,
    2667,
    2667,
    2667,
    2667,
    2667,
    2667,
    2667,
    2667,
    2667,
    2667,
    2667,
    2667,
    2667,
    2667,
    2667,
    2667,
    2667,
    2667,
    2667,
    2667,
    2667,
    2667,
    2667,
    2667,
    2667,
    2667,
    2667,
    2667,
    2667,
    2667,
    2667,
    2667,
    2667,
    2667,
    2667,
    2667,
    2667,
    2605,
    2606,
    2607,
    2608,
    2609,
    2608,
    2609,
    2609,
    2668,
    2786,
    2786,
    2786,
    2786,
    2786,
    2786,
    2786,
    2786,
    2786,
    2608,
    2609,
    2609,
    2668,
    2609,
    2609,
    2609,
    2605,
    2606,
    2607,
    2608,
    2609,
    2668,
    2668,
    2727,
    2727,
    2605,
    2782,
    2783,
    2784,
    2785,
    2786,
    2727,
    2786,
    2668,
    2668,
    2609,
    2609,
    2609,
    2609,
    2723,
    2605,
    2606,
    2782,
    2783,
    2782,
    2782,
    2783,
    2784,
    2785,
    2605,
    2606,
    2607,
    2608,
    2609,
    2609,
    2605,
    2606,
    2607,
    2608,
    2609,
    2668,
    2727,
    2727,
    2786,
    2786,
    2782,
    2782,
    2782,
    2783,
    2784,
    2785,
    2786,
    2609,
    2609,
    2605,
    2606,
    2607,
    2608,
    2609,
    2605,
    2606,
    2607,
    2608,
    2609,
    2782,
    2783,
    2784,
    2785,
    2786,
    2667,
    2667,
    0,
    0,
    0,
    0,
    0,
    0,
    0,
    0,
    0,
    0,
    0,
    2667,
    2667,
    2667,
    2667,
    2667,
    2667,
    2667,
    2667,
    2667,
    2667,
    2667,
    2667,
    2667,
    2667,
    2667,
    2667,
    2667,
    2667,
    2667,
    2667,
    2667,
    2667,
    2667,
    2667,
    2667,
    2667,
    2667,
    2667,
    2667,
    2667,
    2667,
    2667,
    2667,
    2667,
    2667,
    2667,
    2667,
    2667,
    2667,
    2667,
    2667,
    2605,
    2606,
    2607,
    2608,
    2609,
    2609,
    2609,
    2668,
    2727,
    2783,
    2784,
    2785,
    2786,
    2786,
    2668,
    2609,
    2609,
    2609,
    2609,
    2609,
    2668,
    2727,
    2668,
    2668,
    2668,
    2608,
    2609,
    2609,
    2609,
    2668,
    2727,
    2727,
    2609,
    2609,
    2606,
    2782,
    2783,
    2784,
    2785,
    2786,
    2786,
    2727,
    2727,
    2727,
    2668,
    2668,
    2668,
    2668,
    2782,
    2605,
    2606,
    2607,
    2782,
    2783,
    2784,
    2605,
    2606,
    2605,
    2605,
    2605,
    2605,
    2605,
    2605,
    2605,
    2606,
    2607,
    2608,
    2609,
    2668,
    2727,
    2786,
    2786,
    2782,
    2782,
    2783,
    2784,
    2785,
    2786,
    2609,
    2668,
    2668,
    2668,
    2668,
    2605,
    2606,
    2607,
    2608,
    2609,
    2605,
    2606,
    2607,
    2608,
    2609,
    2782,
    2783,
    2784,
    2785,
    2786,
    2667,
    2667,
    0,
    0,
    0,
    0,
    0,
    0,
    0,
    0,
    0,
    0,
    0,
    2667,
    2667,
    2667,
    2667,
    2667,
    2667,
    2667,
    2667,
    2667,
    2667,
    2667,
    2667,
    2667,
    2667,
    2667,
    2667,
    2667,
    2667,
    2667,
    2667,
    2667,
    2667,
    2667,
    2667,
    2667,
    2667,
    2667,
    2667,
    2667,
    2667,
    2667,
    2667,
    2667,
    2667,
    2667,
    2667,
    2667,
    2667,
    2667,
    2667,
    2667,
    2605,
    2606,
    2607,
    2608,
    2609,
    2609,
    2668,
    2727,
    2786,
    2782,
    2783,
    2784,
    2785,
    2786,
    2727,
    2668,
    2668,
    2668,
    2668,
    2668,
    2727,
    2786,
    2727,
    2727,
    2727,
    2609,
    2668,
    2668,
    2668,
    2727,
    2786,
    2786,
    2668,
    2668,
    2609,
    2609,
    2783,
    2784,
    2785,
    2786,
    2786,
    2786,
    2786,
    2786,
    2727,
    2727,
    2727,
    2727,
    2668,
    2664,
    2605,
    2606,
    2782,
    2783,
    2784,
    2605,
    2605,
    2664,
    2664,
    2664,
    2664,
    2605,
    2606,
    2607,
    2608,
    2609,
    2609,
    2668,
    2727,
    2786,
    2782,
    2782,
    2783,
    2784,
    2785,
    2786,
    2668,
    2668,
    2668,
    2727,
    2727,
    2727,
    2727,
    2609,
    2607,
    2608,
    2609,
    2605,
    2606,
    2607,
    2608,
    2609,
    2668,
    2782,
    2783,
    2784,
    2785,
    2786,
    2667,
    2667,
    0,
    0,
    0,
    0,
    0,
    0,
    0,
    0,
    0,
    0,
    0,
    2667,
    2667,
    2667,
    2667,
    2667,
    2667,
    2667,
    2667,
    2667,
    2667,
    2667,
    2667,
    2667,
    2667,
    2667,
    2667,
    2667,
    2667,
    2667,
    2667,
    2667,
    2667,
    2667,
    2667,
    2667,
    2667,
    2667,
    2667,
    2667,
    2667,
    2667,
    2667,
    2667,
    2667,
    2667,
    2667,
    2667,
    2667,
    2667,
    2667,
    2667,
    2605,
    2606,
    2607,
    2608,
    2609,
    2668,
    2727,
    2786,
    2786,
    2782,
    2783,
    2784,
    2785,
    2786,
    2786,
    2727,
    2727,
    2727,
    2727,
    2727,
    2786,
    2786,
    2786,
    2786,
    2786,
    2668,
    2727,
    2727,
    2727,
    2786,
    2785,
    2786,
    2727,
    2727,
    2668,
    2668,
    2609,
    2609,
    2785,
    2786,
    2609,
    2783,
    2784,
    2785,
    2786,
    2786,
    2786,
    2786,
    2727,
    2723,
    2605,
    2606,
    2782,
    2783,
    2784,
    2664,
    2664,
    2723,
    2723,
    2605,
    2606,
    2607,
    2608,
    2609,
    2609,
    2668,
    2668,
    2727,
    2786,
    2782,
    2783,
    2784,
    2785,
    2786,
    2727,
    2727,
    2727,
    2727,
    2727,
    2786,
    2786,
    2786,
    2786,
    2668,
    2607,
    2608,
    2609,
    2605,
    2606,
    2607,
    2608,
    2609,
    2727,
    2782,
    2783,
    2784,
    2785,
    2786,
    2667,
    2667,
    0,
    0,
    0,
    0,
    0,
    0,
    0,
    0,
    0,
    0,
    0,
    2667,
    2667,
    2667,
    2667,
    2667,
    2667,
    2667,
    2667,
    2667,
    2667,
    2667,
    2667,
    2667,
    2667,
    2667,
    2667,
    2667,
    2667,
    2667,
    2667,
    2667,
    2667,
    2667,
    2667,
    2667,
    2667,
    2667,
    2667,
    2667,
    2667,
    2667,
    2667,
    2667,
    2667,
    2667,
    2667,
    2667,
    2667,
    2667,
    2667,
    2667,
    2605,
    2606,
    2607,
    2608,
    2609,
    2727,
    2786,
    2785,
    2786,
    2607,
    2782,
    2783,
    2784,
    2785,
    2786,
    2786,
    2786,
    2786,
    2786,
    2786,
    2786,
    2609,
    2668,
    2668,
    2727,
    2727,
    2786,
    2786,
    2786,
    2783,
    2784,
    2785,
    2786,
    2786,
    2727,
    2727,
    2668,
    2668,
    2609,
    2609,
    2668,
    2605,
    2606,
    2607,
    2782,
    2783,
    2784,
    2785,
    2786,
    2782,
    2605,
    2606,
    2607,
    2782,
    2783,
    2723,
    2723,
    2605,
    2606,
    2607,
    2608,
    2609,
    2609,
    2668,
    2668,
    2727,
    2727,
    2786,
    2783,
    2784,
    2785,
    2786,
    2727,
    2727,
    2786,
    2786,
    2786,
    2786,
    2786,
    2783,
    2784,
    2785,
    2786,
    2727,
    2607,
    2605,
    2606,
    2605,
    2606,
    2607,
    2608,
    2609,
    2786,
    2782,
    2783,
    2784,
    2785,
    2786,
    2667,
    2667,
    0,
    0,
    0,
    0,
    0,
    0,
    0,
    0,
    0,
    0,
    0,
    2667,
    2667,
    2667,
    2667,
    2667,
    2667,
    2667,
    2667,
    2667,
    2667,
    2667,
    2667,
    2667,
    2667,
    2667,
    2667,
    2667,
    2667,
    2667,
    2667,
    2667,
    2667,
    2667,
    2667,
    2667,
    2667,
    2667,
    2667,
    2667,
    2667,
    2667,
    2667,
    2667,
    2667,
    2667,
    2667,
    2667,
    2667,
    2667,
    2667,
    2667,
    2605,
    2606,
    2607,
    2608,
    2609,
    2786,
    2784,
    2785,
    2786,
    2606,
    2607,
    2608,
    2609,
    2605,
    2664,
    2782,
    2783,
    2784,
    2785,
    2786,
    2668,
    2668,
    2727,
    2727,
    2786,
    2786,
    2606,
    2607,
    2608,
    2609,
    2782,
    2783,
    2784,
    2785,
    2786,
    2786,
    2727,
    2727,
    2668,
    2668,
    2609,
    2609,
    2609,
    2607,
    2608,
    2609,
    0,
    0,
    0,
    0,
    2605,
    2606,
    2607,
    2782,
    2605,
    2606,
    2605,
    2606,
    2607,
    2608,
    2609,
    2668,
    2668,
    2727,
    2727,
    2786,
    2786,
    2783,
    2784,
    2785,
    2786,
    2786,
    2786,
    2786,
    2783,
    2782,
    2783,
    2784,
    2785,
    2782,
    2783,
    2784,
    2785,
    2786,
    2609,
    2605,
    2606,
    2605,
    2606,
    2607,
    2608,
    2609,
    2608,
    2782,
    2783,
    2784,
    2785,
    2786,
    2667,
    2667,
    0,
    0,
    0,
    0,
    0,
    0,
    0,
    0,
    0,
    0,
    0,
    2667,
    2667,
    2667,
    2667,
    2667,
    2667,
    2667,
    2667,
    2667,
    2667,
    2667,
    2667,
    2667,
    2667,
    2667,
    2667,
    2667,
    2667,
    2667,
    2667,
    2667,
    2667,
    2667,
    2667,
    2667,
    2667,
    2667,
    2667,
    2667,
    2667,
    2667,
    2667,
    2667,
    2667,
    2667,
    2667,
    2667,
    2667,
    2667,
    2667,
    2667,
    2605,
    2606,
    2607,
    2608,
    2609,
    2783,
    2784,
    2785,
    2786,
    2605,
    2606,
    2607,
    2608,
    2664,
    2723,
    2782,
    2783,
    2784,
    2785,
    2786,
    2727,
    2727,
    2786,
    2786,
    2609,
    2605,
    2606,
    2607,
    2608,
    2609,
    2606,
    2607,
    2782,
    2783,
    2784,
    2785,
    2786,
    2786,
    2727,
    2727,
    2668,
    2668,
    2668,
    2609,
    2609,
    2609,
    2609,
    2609,
    2606,
    2607,
    2608,
    2609,
    2609,
    2609,
    2605,
    2606,
    2607,
    2608,
    2609,
    2609,
    2668,
    2727,
    2727,
    2786,
    2786,
    2727,
    2782,
    2783,
    2784,
    2785,
    2786,
    2723,
    2782,
    2783,
    2784,
    2782,
    2783,
    2784,
    2785,
    2782,
    2783,
    2784,
    2785,
    2786,
    2668,
    2605,
    2606,
    2605,
    2606,
    2607,
    2608,
    2609,
    2609,
    2782,
    2783,
    2784,
    2785,
    2786,
    2667,
    2667,
    0,
    0,
    0,
    0,
    0,
    0,
    0,
    0,
    0,
    0,
    0,
    2667,
    2667,
    2667,
    2667,
    2667,
    2667,
    2667,
    2667,
    2667,
    2667,
    2667,
    2667,
    2667,
    2667,
    2667,
    2667,
    2667,
    2667,
    2667,
    2667,
    2667,
    2667,
    2667,
    2667,
    2667,
    2667,
    2667,
    2667,
    2667,
    2667,
    2667,
    2667,
    2667,
    2667,
    2667,
    2667,
    2667,
    2667,
    2667,
    2667,
    2667,
    2605,
    2606,
    2607,
    2608,
    2609,
    2783,
    2784,
    2785,
    2786,
    2605,
    2606,
    2607,
    2605,
    2723,
    2782,
    2783,
    2784,
    2785,
    2786,
    2727,
    2786,
    2786,
    2607,
    2608,
    2609,
    2605,
    2606,
    2607,
    2608,
    2609,
    2607,
    2608,
    2609,
    2668,
    2782,
    2783,
    2784,
    2785,
    2786,
    2786,
    2727,
    2727,
    2727,
    2668,
    2668,
    2668,
    2668,
    2668,
    2609,
    2609,
    2609,
    2668,
    2668,
    2605,
    2606,
    2607,
    2608,
    2609,
    2668,
    2668,
    2727,
    2786,
    2786,
    2609,
    2668,
    2786,
    2785,
    2786,
    2608,
    2609,
    2605,
    2782,
    2782,
    2783,
    2784,
    2782,
    2783,
    2784,
    2785,
    2782,
    2783,
    2784,
    2785,
    2786,
    2727,
    2606,
    2605,
    2606,
    2607,
    2608,
    2609,
    2668,
    2609,
    2782,
    2783,
    2784,
    2785,
    2786,
    2667,
    2667,
    0,
    0,
    0,
    0,
    0,
    0,
    0,
    0,
    0,
    0,
    0,
    2667,
    2667,
    2667,
    2667,
    2667,
    2667,
    2667,
    2667,
    2667,
    2667,
    2667,
    2667,
    2667,
    2667,
    2667,
    2667,
    2667,
    2667,
    2667,
    2667,
    2667,
    2667,
    2667,
    2667,
    2667,
    2667,
    2667,
    2667,
    2667,
    2667,
    2667,
    2667,
    2667,
    2667,
    2667,
    2667,
    2667,
    2667,
    2667,
    2667,
    2667,
    2605,
    2606,
    2607,
    2608,
    2609,
    2783,
    2784,
    2785,
    2786,
    2664,
    2605,
    2606,
    2664,
    2782,
    2783,
    2784,
    2785,
    2786,
    2786,
    2786,
    2605,
    2606,
    2607,
    2608,
    2609,
    2605,
    2606,
    2607,
    2608,
    2609,
    2607,
    2608,
    2609,
    2727,
    2782,
    2783,
    2782,
    2783,
    2784,
    2785,
    2786,
    2786,
    2786,
    2727,
    2727,
    2727,
    2727,
    2727,
    2668,
    2668,
    2668,
    2605,
    2606,
    2607,
    2608,
    2609,
    2609,
    2668,
    2727,
    2727,
    2786,
    2607,
    2608,
    2609,
    2727,
    2784,
    2785,
    2786,
    2608,
    2609,
    2605,
    2782,
    2783,
    2784,
    2785,
    2782,
    2783,
    2784,
    2785,
    2782,
    2783,
    2784,
    2785,
    2786,
    2786,
    2606,
    2605,
    2606,
    2607,
    2608,
    2609,
    2605,
    2606,
    2782,
    2783,
    2784,
    2785,
    2786,
    2609,
    2667,
    0,
    0,
    0,
    0,
    0,
    0,
    0,
    0,
    0,
    0,
    0,
    2667,
    2667,
    2667,
    2667,
    2667,
    2667,
    2667,
    2667,
    2667,
    2667,
    2667,
    2667,
    2667,
    2667,
    2667,
    2667,
    2667,
    2667,
    2667,
    2667,
    2667,
    2667,
    2667,
    2667,
    2667,
    2667,
    2667,
    2667,
    2667,
    2667,
    2667,
    2667,
    2667,
    2667,
    2667,
    2667,
    2667,
    2667,
    2667,
    2667,
    2667,
    2605,
    2606,
    2607,
    2608,
    2609,
    2783,
    2784,
    2785,
    2786,
    2723,
    2605,
    2605,
    2723,
    2782,
    2783,
    2784,
    2785,
    2786,
    2607,
    2608,
    2609,
    2606,
    2607,
    2608,
    2609,
    2606,
    2607,
    2608,
    2609,
    2668,
    2608,
    2609,
    2668,
    2786,
    2782,
    2783,
    2782,
    2783,
    2784,
    2782,
    2783,
    2784,
    2785,
    2786,
    2786,
    2786,
    2786,
    2786,
    2727,
    2727,
    2605,
    2606,
    2607,
    2608,
    2609,
    2668,
    2668,
    2727,
    2786,
    2786,
    2607,
    2608,
    2609,
    2668,
    2786,
    2784,
    2785,
    2786,
    2608,
    2609,
    2605,
    2782,
    2783,
    2784,
    2785,
    2782,
    2783,
    2784,
    2785,
    2786,
    2782,
    2783,
    2784,
    2785,
    2786,
    2606,
    2605,
    2606,
    2607,
    2608,
    2609,
    2605,
    2606,
    2782,
    2783,
    2784,
    2785,
    2786,
    2668,
    2667,
    0,
    0,
    0,
    0,
    0,
    0,
    0,
    0,
    0,
    0,
    0,
    2667,
    2667,
    2667,
    2667,
    2667,
    2667,
    2667,
    2667,
    2667,
    2667,
    2667,
    2667,
    2667,
    2667,
    2667,
    2667,
    2667,
    2667,
    2667,
    2667,
    2667,
    2667,
    2667,
    2667,
    2667,
    2667,
    2667,
    2667,
    2667,
    2667,
    2667,
    2667,
    2667,
    2667,
    2667,
    2667,
    2667,
    2667,
    2667,
    2667,
    2667,
    2605,
    2606,
    2607,
    2608,
    2609,
    2783,
    2784,
    2785,
    2786,
    2782,
    2664,
    2664,
    2782,
    2783,
    2784,
    2785,
    2786,
    2608,
    2609,
    2608,
    2609,
    2606,
    2607,
    2608,
    2609,
    2606,
    2607,
    2608,
    2609,
    2727,
    2608,
    2609,
    2727,
    2607,
    2782,
    2783,
    2782,
    2783,
    2784,
    2785,
    2786,
    2605,
    2606,
    2607,
    2782,
    2783,
    2784,
    2785,
    2786,
    2605,
    2606,
    2607,
    2608,
    2609,
    2668,
    2727,
    2727,
    2786,
    2786,
    2606,
    2607,
    2608,
    2609,
    2727,
    2784,
    2785,
    2786,
    2607,
    2608,
    2609,
    2605,
    2782,
    2783,
    2784,
    2785,
    2782,
    2783,
    2784,
    2785,
    2786,
    2782,
    2783,
    2784,
    2785,
    2786,
    2606,
    2605,
    2606,
    2607,
    2608,
    2609,
    2605,
    2606,
    2782,
    2783,
    2784,
    2785,
    2786,
    2727,
    2667,
    0,
    0,
    0,
    0,
    0,
    0,
    0,
    0,
    0,
    0,
    0,
    2667,
    2667,
    2667,
    2667,
    2667,
    2667,
    2667,
    2667,
    2667,
    2667,
    2667,
    2667,
    2667,
    2667,
    2667,
    2667,
    2667,
    2667,
    2667,
    2667,
    2667,
    2667,
    2667,
    2667,
    2667,
    2667,
    2667,
    2667,
    2667,
    2667,
    2667,
    2667,
    2667,
    2667,
    2667,
    2667,
    2667,
    2667,
    2667,
    2667,
    2667,
    2605,
    2606,
    2607,
    2608,
    2609,
    2783,
    2784,
    2785,
    2786,
    2782,
    2723,
    2723,
    2782,
    2783,
    2784,
    2785,
    2786,
    2609,
    2609,
    2608,
    2609,
    2606,
    2607,
    2608,
    2609,
    2606,
    2607,
    2608,
    2609,
    2786,
    2609,
    2668,
    2786,
    2607,
    2782,
    2783,
    2782,
    2783,
    2784,
    2785,
    2786,
    2605,
    2606,
    2607,
    2608,
    2609,
    0,
    0,
    2605,
    2606,
    2607,
    2608,
    2609,
    2668,
    2727,
    2786,
    2786,
    2785,
    2786,
    2607,
    2608,
    2609,
    2668,
    2786,
    2784,
    2785,
    2786,
    2607,
    2608,
    2605,
    2605,
    2782,
    2783,
    2784,
    2785,
    2782,
    2783,
    2784,
    2785,
    2786,
    2782,
    2783,
    2784,
    2785,
    2786,
    2606,
    2605,
    2606,
    2607,
    2608,
    2605,
    2606,
    2607,
    2782,
    2783,
    2784,
    2785,
    2786,
    2786,
    2667,
    2667,
    2667,
    2667,
    2667,
    2667,
    2667,
    2667,
    2667,
    2667,
    2667,
    2667,
    2667,
    2667,
    2667,
    2667,
    2667,
    2667,
    2667,
    2667,
    2667,
    2667,
    2667,
    2667,
    2667,
    2667,
    2667,
    2667,
    2667,
    2667,
    2667,
    2667,
    2667,
    2667,
    2667,
    2667,
    2667,
    2667,
    2667,
    2667,
    2667,
    2667,
    2667,
    2667,
    2667,
    2667,
    2667,
    2667,
    2667,
    2667,
    2667,
    2667,
    2667,
    2605,
    2606,
    2607,
    2608,
    2609,
    2783,
    2784,
    2785,
    2786,
    2782,
    2782,
    2782,
    2783,
    2784,
    2785,
    2786,
    2668,
    2668,
    2668,
    2608,
    2609,
    2606,
    2607,
    2608,
    2609,
    2606,
    2607,
    2608,
    2609,
    2786,
    2609,
    2727,
    2606,
    2607,
    2782,
    2783,
    2782,
    2783,
    2784,
    2785,
    2786,
    2605,
    2606,
    2607,
    2608,
    2609,
    2605,
    2606,
    2607,
    2608,
    2609,
    2609,
    2668,
    2727,
    2786,
    2783,
    2784,
    2785,
    2786,
    2607,
    2608,
    2609,
    2727,
    2783,
    2784,
    2785,
    2786,
    2607,
    2608,
    2664,
    2605,
    2782,
    2783,
    2784,
    2785,
    2782,
    2783,
    2784,
    2785,
    2786,
    2782,
    2783,
    2784,
    2785,
    2786,
    2606,
    2605,
    2606,
    2607,
    2608,
    2605,
    2606,
    2607,
    2608,
    2667,
    2667,
    2667,
    2667,
    2667,
    2667,
    2667,
    2667,
    2667,
    2667,
    2667,
    2667,
    2667,
    2667,
    2667,
    2667,
    2667,
    2667,
    2667,
    2667,
    2667,
    2667,
    2667,
    2667,
    2667,
    2667,
    2667,
    2667,
    2667,
    2667,
    2667,
    2667,
    2667,
    2667,
    2667,
    2667,
    2667,
    2667,
    2667,
    2667,
    2667,
    2667,
    2667,
    2667,
    2667,
    2667,
    2667,
    2667,
    2667,
    2667,
    2667,
    2667,
    2667,
    2667,
    2667,
    2667,
    2667,
    2605,
    2605,
    2606,
    2607,
    2608,
    2609,
    2784,
    2785,
    2786,
    2605,
    2782,
    2783,
    2782,
    2783,
    2784,
    2785,
    2786,
    2727,
    2727,
    2727,
    2608,
    2609,
    2606,
    2607,
    2608,
    2609,
    2606,
    2607,
    2608,
    2609,
    2608,
    2609,
    2786,
    2606,
    2607,
    2782,
    2783,
    2782,
    2783,
    2784,
    2785,
    2786,
    2605,
    2606,
    2607,
    2608,
    2605,
    2606,
    2607,
    2608,
    2609,
    2668,
    2668,
    2727,
    2786,
    2782,
    2783,
    2784,
    2785,
    2786,
    2607,
    2608,
    2609,
    2786,
    2783,
    2784,
    2785,
    2786,
    2608,
    2609,
    2605,
    2605,
    2782,
    2783,
    2784,
    2605,
    2782,
    2783,
    2784,
    2785,
    2786,
    2782,
    2783,
    2784,
    2785,
    2786,
    2606,
    2605,
    2606,
    2607,
    2608,
    2605,
    2606,
    2607,
    2608,
    2667,
    2667,
    2667,
    2667,
    2667,
    2667,
    2667,
    2667,
    2667,
    2667,
    2667,
    2667,
    2667,
    2667,
    2667,
    2667,
    2667,
    2667,
    2667,
    2667,
    2667,
    2667,
    2667,
    2667,
    2667,
    2667,
    2667,
    2667,
    2667,
    2667,
    2667,
    2667,
    2667,
    2667,
    2667,
    2667,
    2667,
    2667,
    2667,
    2667,
    2667,
    2667,
    2667,
    2667,
    2667,
    2667,
    2667,
    2667,
    2667,
    2667,
    2667,
    2667,
    2667,
    2667,
    2667,
    2667,
    2667,
    2605,
    2605,
    2606,
    2607,
    2608,
    2609,
    2784,
    2785,
    2786,
    2605,
    2782,
    2783,
    2784,
    2785,
    2786,
    2727,
    2727,
    2786,
    2786,
    2786,
    2608,
    2609,
    2606,
    2607,
    2608,
    2609,
    2606,
    2607,
    2608,
    2609,
    2609,
    2668,
    2605,
    2606,
    2607,
    2782,
    2783,
    2782,
    2783,
    2784,
    2785,
    2786,
    2605,
    2606,
    2605,
    2606,
    2607,
    2608,
    2609,
    2609,
    2668,
    2727,
    2727,
    2786,
    2782,
    2783,
    2784,
    2785,
    2786,
    2607,
    2608,
    2609,
    2668,
    2782,
    2783,
    2784,
    2785,
    2786,
    2608,
    2609,
    2605,
    2605,
    2782,
    2783,
    2784,
    2605,
    2782,
    2783,
    2784,
    2785,
    2786,
    2782,
    2783,
    2784,
    2785,
    2786,
    2606,
    2605,
    2606,
    2607,
    2608,
    2605,
    2606,
    2607,
    2608,
    2667,
    2667,
    2667,
    2667,
    2667,
    2667,
    2667,
    2667,
    2667,
    2667,
    2667,
    2667,
    2667,
    2667,
    2667,
    2667,
    2667,
    2667,
    2667,
    2667,
    2667,
    2667,
    2667,
    2667,
    2667,
    2667,
    2667,
    2667,
    2667,
    2667,
    2667,
    2667,
    2667,
    2667,
    2667,
    2667,
    2667,
    2667,
    2667,
    2667,
    2667,
    2667,
    2667,
    2667,
    2667,
    2667,
    2667,
    2667,
    2667,
    2667,
    2667,
    2667,
    2667,
    2667,
    2667,
    2667,
    2667,
    2605,
    2605,
    2606,
    2607,
    2608,
    2609,
    2784,
    2785,
    2786,
    2605,
    2782,
    2783,
    2784,
    2785,
    2786,
    2786,
    2786,
    2605,
    2606,
    2607,
    2608,
    2609,
    2606,
    2607,
    2608,
    2609,
    2607,
    2608,
    2609,
    2668,
    2609,
    2727,
    2605,
    2606,
    2607,
    2782,
    2783,
    2782,
    2783,
    2784,
    2785,
    2786,
    2605,
    2605,
    2606,
    2607,
    2608,
    2609,
    2668,
    2668,
    2727,
    2786,
    2786,
    2723,
    2782,
    2783,
    2784,
    2785,
    2786,
    2607,
    2608,
    2609,
    2727,
    2782,
    2783,
    2784,
    2785,
    2786,
    2608,
    2609,
    2605,
    2605,
    2782,
    2783,
    2605,
    2664,
    2782,
    2783,
    2784,
    2785,
    2786,
    2782,
    2783,
    2784,
    2785,
    2786,
    2606,
    2605,
    2606,
    2607,
    2608,
    2605,
    2606,
    2607,
    2608,
    2667,
    2667,
    2667,
    2667,
    2667,
    2667,
    2667,
    2667,
    2667,
    2667,
    2667,
    2667,
    2667,
    2667,
    2667,
    2667,
    2667,
    2667,
    2667,
    2667,
    2667,
    2667,
    2667,
    2667,
    2667,
    2667,
    2667,
    2667,
    2667,
    2667,
    2667,
    2667,
    2667,
    2667,
    2667,
    2667,
    2667,
    2667,
    2667,
    2667,
    2667,
    2667,
    2667,
    2667,
    2667,
    2667,
    2667,
    2667,
    2667,
    2667,
    2667,
    2667,
    2667,
    2667,
    2667,
    2667,
    2667,
    2605,
    2605,
    2606,
    2607,
    2608,
    2609,
    2784,
    2785,
    2786,
    2664,
    2782,
    2783,
    2784,
    2785,
    2786,
    2668,
    2605,
    2606,
    2607,
    2608,
    2609,
    2668,
    2606,
    2607,
    2608,
    2609,
    2607,
    2608,
    2609,
    2727,
    2668,
    2786,
    2605,
    2606,
    2607,
    2782,
    2783,
    2782,
    2783,
    2784,
    2785,
    2786,
    2605,
    2606,
    2607,
    2608,
    2609,
    2668,
    2727,
    2727,
    2786,
    2784,
    2785,
    2605,
    2782,
    2783,
    2784,
    2785,
    2786,
    2607,
    2608,
    2609,
    2786,
    2782,
    2783,
    2784,
    2785,
    2786,
    2608,
    2605,
    2606,
    2605,
    2782,
    2783,
    2664,
    2723,
    2782,
    2783,
    2784,
    2785,
    2786,
    2782,
    2783,
    2784,
    2785,
    2786,
    2606,
    2605,
    2606,
    2607,
    2608,
    2605,
    2606,
    2607,
    2608,
    2667,
    2667,
    2667,
    2667,
    2667,
    2667,
    2667,
    2667,
    2667,
    2667,
    2667,
    2667,
    2667,
    2667,
    2667,
    2667,
    2667,
    2667,
    2667,
    2667,
    2667,
    2667,
    2667,
    2667,
    2667,
    2667,
    2667,
    2667,
    2667,
    2667,
    2667,
    2667,
    2667,
    2667,
    2667,
    2667,
    2667,
    2667,
    2667,
    2667,
    2667,
    2667,
    2667,
    2667,
    2667,
    2667,
    2667,
    2667,
    2667,
    2667,
    2667,
    2667,
    2667,
    2667,
    2667,
    2667,
    2667,
    2605,
    2605,
    2606,
    2607,
    2608,
    2609,
    2785,
    2786,
    2782,
    2723,
    2782,
    2783,
    2784,
    2785,
    2786,
    2727,
    2605,
    2606,
    2607,
    2608,
    2609,
    2727,
    2606,
    2607,
    2608,
    2609,
    2607,
    2608,
    2609,
    2786,
    2727,
    2784,
    2605,
    2606,
    2607,
    2782,
    2783,
    2782,
    2783,
    2784,
    2785,
    2605,
    2606,
    2607,
    2608,
    2609,
    2668,
    2727,
    2786,
    2786,
    2783,
    2784,
    2785,
    2664,
    2782,
    2783,
    2784,
    2785,
    2786,
    2608,
    2609,
    2668,
    2723,
    2782,
    2783,
    2784,
    2785,
    2786,
    2608,
    2605,
    2606,
    2605,
    2782,
    2605,
    2723,
    2782,
    2782,
    2783,
    2784,
    2785,
    2786,
    2782,
    2783,
    2784,
    2785,
    2786,
    2606,
    2605,
    2606,
    2607,
    2608,
    2605,
    2606,
    2607,
    2605,
    2667,
    2667,
    2667,
    2667,
    2667,
    2667,
    2667,
    2667,
    2667,
    2667,
    2667,
    2667,
    2667,
    2667,
    2667,
    2667,
    2667,
    2667,
    2667,
    2667,
    2667,
    2667,
    2667,
    2667,
    2667,
    2667,
    2667,
    2667,
    2667,
    2667,
    2667,
    2667,
    2667,
    2667,
    2667,
    2667,
    2667,
    2667,
    2667,
    2667,
    2667,
    2667,
    2667,
    2667,
    2667,
    2667,
    2667,
    2667,
    2667,
    2667,
    2667,
    2667,
    2667,
    2667,
    2667,
    2667,
    2605,
    2606,
    2605,
    2606,
    2607,
    2608,
    2609,
    2785,
    2786,
    2782,
    2782,
    2782,
    2783,
    2784,
    2785,
    2786,
    2786,
    2605,
    2606,
    2607,
    2608,
    2609,
    2786,
    2606,
    2607,
    2608,
    2609,
    2607,
    2608,
    2609,
    2786,
    2786,
    2784,
    2605,
    2606,
    2607,
    2782,
    2783,
    2782,
    2783,
    2784,
    2785,
    2605,
    2606,
    2607,
    2608,
    2609,
    2727,
    2786,
    2782,
    2783,
    2784,
    2785,
    2786,
    2723,
    2782,
    2783,
    2784,
    2785,
    2786,
    2609,
    2668,
    2727,
    2782,
    2783,
    2784,
    2785,
    2786,
    2608,
    2605,
    2606,
    2607,
    2664,
    2605,
    2664,
    2782,
    2782,
    2605,
    2782,
    2783,
    2784,
    2785,
    2782,
    2783,
    2784,
    2785,
    2786,
    2606,
    2605,
    2606,
    2607,
    2608,
    2605,
    2606,
    2607,
    2664,
    2667,
    2667,
    2667,
    2667,
    2667,
    2667,
    2667,
    2667,
    2667,
    2667,
    2667,
    2667,
    2667,
    2667,
    2667,
    2667,
    2667,
    2667,
    2667,
    2667,
    2667,
    2667,
    2667,
    2667,
    2667,
    2667,
    2667,
    2667,
    2667,
    2667,
    2667,
    2667,
    2667,
    2667,
    2667,
    2667,
    2667,
    2667,
    2667,
    2667,
    2667,
    2667,
    2667,
    2667,
    2667,
    2667,
    2667,
    2667,
    2667,
    2667,
    2667,
    2667,
    2667,
    2667,
    2667,
    2667,
    2605,
    2606,
    2605,
    2606,
    2607,
    2608,
    2609,
    2785,
    2786,
    2782,
    2783,
    2782,
    2783,
    2784,
    2785,
    2786,
    2668,
    2605,
    2606,
    2607,
    2608,
    2609,
    2786,
    2606,
    2607,
    2608,
    2609,
    2607,
    2608,
    2609,
    2786,
    2783,
    2784,
    2605,
    2606,
    2607,
    2782,
    2783,
    2782,
    2783,
    2784,
    2605,
    2606,
    2607,
    2608,
    2609,
    2668,
    2786,
    2605,
    2782,
    2783,
    2784,
    2785,
    2786,
    2782,
    2783,
    2784,
    2785,
    2786,
    2668,
    2609,
    2727,
    2786,
    2782,
    2783,
    2784,
    2785,
    2786,
    2608,
    2605,
    2606,
    2607,
    2723,
    2664,
    2723,
    2782,
    2783,
    2605,
    2782,
    2783,
    2784,
    2785,
    2782,
    2783,
    2784,
    2785,
    2786,
    2606,
    2605,
    2606,
    2607,
    2608,
    2605,
    2606,
    2607,
    2723,
    2667,
    2667,
    2667,
    2667,
    2667,
    2667,
    2667,
    2667,
    2667,
    2667,
    2667,
    2667,
    2667,
    2667,
    2667,
    2667,
    2667,
    2667,
    2667,
    2667,
    2667,
    2667,
    2667,
    2667,
    2667,
    2667,
    2667,
    2667,
    2667,
    2667,
    2667,
    2667,
    2667,
    2667,
    2667,
    2667,
    2667,
    2667,
    2667,
    2667,
    2667,
    2667,
    2667,
    2667,
    2667,
    2667,
    2667,
    2667,
    2667,
    2667,
    2667,
    2667,
    2667,
    2667,
    2667,
    2667,
    2605,
    2606,
    2605,
    2605,
    2606,
    2607,
    2608,
    2609,
    2786,
    2782,
    2783,
    2782,
    2783,
    2784,
    2785,
    2786,
    2727,
    2605,
    2606,
    2607,
    2608,
    2609,
    2786,
    2606,
    2607,
    2608,
    2609,
    2607,
    2608,
    2609,
    2786,
    2783,
    2784,
    2605,
    2606,
    2607,
    2782,
    2783,
    2782,
    2783,
    2605,
    2606,
    2607,
    2608,
    2609,
    2668,
    2727,
    2609,
    2664,
    2782,
    2783,
    2784,
    2785,
    2786,
    2782,
    2783,
    2784,
    2785,
    2786,
    2727,
    2609,
    2786,
    2664,
    2782,
    2783,
    2784,
    2785,
    2786,
    2608,
    2605,
    2606,
    2607,
    2605,
    2723,
    2782,
    2783,
    2784,
    2605,
    2782,
    2783,
    2784,
    2785,
    2782,
    2783,
    2784,
    2785,
    2786,
    2605,
    2605,
    2606,
    2607,
    2608,
    2605,
    2606,
    2607,
    2782,
    2667,
    2667,
    2667,
    2667,
    2667,
    2667,
    2667,
    2667,
    2667,
    2667,
    2667,
    2667,
    2667,
    2667,
    2667,
    2667,
    2667,
    2667,
    2667,
    2667,
    2667,
    2667,
    2667,
    2667,
    2667,
    2667,
    2667,
    2667,
    2667,
    2667,
    2667,
    2667,
    2667,
    2667,
    2667,
    2667,
    2667,
    2667,
    2667,
    2667,
    2667,
    2667,
    2667,
    2667,
    2667,
    2667,
    2667,
    2667,
    2667,
    2667,
    2667,
    2667,
    2667,
    2667,
    2667,
    2667,
    2605,
    2606,
    2664,
    2605,
    2606,
    2607,
    2608,
    2609,
    2786,
    2782,
    2783,
    2782,
    2783,
    2784,
    2785,
    2786,
    2786,
    2605,
    2606,
    2607,
    2608,
    2609,
    2786,
    2606,
    2607,
    2608,
    2609,
    2607,
    2608,
    2609,
    2782,
    2783,
    2784,
    2605,
    2606,
    2607,
    2782,
    2783,
    2782,
    2605,
    2606,
    2607,
    2608,
    2609,
    2668,
    2727,
    2786,
    2609,
    2723,
    2782,
    2783,
    2784,
    2785,
    2786,
    0,
    2782,
    2783,
    2784,
    2785,
    2786,
    2668,
    2605,
    2723,
    2782,
    2783,
    2784,
    2785,
    2786,
    2605,
    2606,
    2607,
    2608,
    2664,
    2782,
    2783,
    2784,
    2785,
    2664,
    2782,
    2783,
    2784,
    2785,
    2782,
    2783,
    2784,
    2785,
    2786,
    2605,
    2605,
    2606,
    2607,
    2608,
    2664,
    2605,
    2606,
    2782,
    2667,
    2667,
    2667,
    2667,
    2667,
    2667,
    2667,
    2667,
    2667,
    2667,
    2667,
    2667,
    2667,
    2667,
    2667,
    2667,
    2667,
    2667,
    2667,
    2667,
    2667,
    2667,
    2667,
    2667,
    2667,
    2667,
    2667,
    2667,
    2667,
    2667,
    2667,
    2667,
    2667,
    2667,
    2667,
    2667,
    2667,
    2667,
    2667,
    2667,
    2667,
    2667,
    2667,
    2667,
    2667,
    2667,
    2667,
    2667,
    2667,
    2667,
    2667,
    2667,
    2667,
    2667,
    2667,
    2667,
    2605,
    2606,
    2723,
    2605,
    2606,
    2607,
    2608,
    2609,
    2786,
    2782,
    2783,
    2782,
    2783,
    2784,
    2785,
    2786,
    0,
    2605,
    2606,
    2607,
    2608,
    2609,
    2786,
    2606,
    2607,
    2608,
    2609,
    2607,
    2608,
    2609,
    2782,
    2783,
    2784,
    2605,
    2606,
    2607,
    2782,
    2783,
    2605,
    2606,
    2607,
    2608,
    2609,
    2668,
    2727,
    2786,
    2608,
    2609,
    2782,
    2783,
    2784,
    2785,
    2786,
    0,
    0,
    2782,
    2783,
    2784,
    2785,
    2786,
    2727,
    2605,
    2782,
    2783,
    2784,
    2785,
    2786,
    2607,
    2605,
    2606,
    2607,
    2608,
    2723,
    2782,
    2783,
    2784,
    2785,
    2605,
    2782,
    2783,
    2784,
    2785,
    2782,
    2783,
    2784,
    2785,
    2786,
    2605,
    2605,
    2606,
    2607,
    2608,
    2723,
    2605,
    2606,
    2782,
    2667,
    2667,
    2667,
    2667,
    2667,
    2667,
    2667,
    2667,
    2667,
    2667,
    2667,
    2667,
    2667,
    2667,
    2667,
    2667,
    2667,
    2667,
    2667,
    2667,
    2667,
    2667,
    2667,
    2667,
    2667,
    2667,
    2667,
    2667,
    2667,
    2667,
    2667,
    2667,
    2667,
    2667,
    2667,
    2667,
    2667,
    2667,
    2667,
    2667,
    2667,
    2667,
    2667,
    2667,
    2667,
    2667,
    2667,
    2667,
    2667,
    2667,
    2667,
    2667,
    2667,
    2667,
    2667,
    2667,
    2605,
    2606,
    2782,
    2605,
    2606,
    2607,
    2608,
    2609,
    2786,
    2782,
    2783,
    2782,
    2783,
    2784,
    2785,
    2786,
    2605,
    2606,
    2607,
    2608,
    2609,
    2668,
    2786,
    2606,
    2607,
    2608,
    2609,
    2608,
    2609,
    2668,
    2782,
    2783,
    2784,
    2605,
    2606,
    2607,
    2782,
    2605,
    2606,
    2607,
    2608,
    2609,
    2668,
    2727,
    2786,
    2607,
    2608,
    2609,
    2782,
    2783,
    2784,
    2785,
    2786,
    2609,
    0,
    2782,
    2783,
    2784,
    2785,
    2786,
    2786,
    2605,
    2782,
    2783,
    2784,
    2785,
    2786,
    2607,
    2605,
    2606,
    2607,
    2608,
    2782,
    2783,
    2784,
    2785,
    2786,
    2605,
    2782,
    2783,
    2784,
    2785,
    2782,
    2783,
    2784,
    2785,
    2786,
    2605,
    2605,
    2606,
    2607,
    2608,
    2782,
    2605,
    2606,
    2782,
    2667,
    2667,
    2667,
    2667,
    2667,
    2667,
    2667,
    2667,
    2667,
    2667,
    2667,
    2667,
    2667,
    2667,
    2667,
    2667,
    2667,
    2667,
    2667,
    2667,
    2667,
    2667,
    2667,
    2667,
    2667,
    2667,
    2667,
    2667,
    2667,
    2667,
    2667,
    2667,
    2667,
    2667,
    2667,
    2667,
    2667,
    2667,
    2667,
    2667,
    2667,
    2667,
    2667,
    2667,
    2667,
    2667,
    2667,
    2667,
    2667,
    2667,
    2667,
    2667,
    2667,
    2667,
    2667,
    2667,
    2605,
    2606,
    2607,
    2664,
    2605,
    2606,
    2607,
    2608,
    2609,
    2783,
    2784,
    2782,
    2783,
    2784,
    2785,
    2786,
    2605,
    2606,
    2607,
    2608,
    2609,
    2727,
    2786,
    2606,
    2607,
    2608,
    2609,
    2608,
    2609,
    2727,
    2782,
    2783,
    2784,
    2605,
    2606,
    2607,
    2782,
    2605,
    2606,
    2607,
    2608,
    2609,
    2727,
    2786,
    2606,
    2607,
    2608,
    2609,
    2782,
    2783,
    2784,
    2785,
    2786,
    2609,
    0,
    0,
    2723,
    2605,
    2664,
    2605,
    2606,
    2605,
    2782,
    2783,
    2784,
    2785,
    2786,
    2605,
    2606,
    2607,
    2608,
    2609,
    2782,
    2783,
    2784,
    2785,
    2786,
    2605,
    2782,
    2783,
    2784,
    2785,
    2782,
    2783,
    2784,
    2785,
    2786,
    2605,
    2605,
    2606,
    2607,
    2608,
    2609,
    2605,
    2606,
    2782,
    2667,
    2667,
    2667,
    2667,
    2667,
    2667,
    2667,
    2667,
    2667,
    2667,
    2667,
    2667,
    2667,
    2667,
    2667,
    2667,
    2667,
    2667,
    2667,
    2667,
    2667,
    2667,
    2667,
    2667,
    2667,
    2667,
    2667,
    2667,
    2667,
    2667,
    2667,
    2667,
    2667,
    2667,
    2667,
    2667,
    2667,
    2667,
    2667,
    2667,
    2667,
    2667,
    2667,
    2667,
    2667,
    2667,
    2667,
    2667,
    2667,
    2667,
    2667,
    2667,
    2667,
    2667,
    2667,
    2667,
    2605,
    2606,
    2607,
    2723,
    2605,
    2606,
    2607,
    2608,
    2609,
    2783,
    2784,
    2605,
    2606,
    2607,
    2608,
    2609,
    2605,
    2606,
    2607,
    2608,
    2609,
    2786,
    2605,
    2606,
    2607,
    2608,
    2609,
    2608,
    2609,
    2786,
    2782,
    2783,
    2784,
    2605,
    2606,
    2607,
    2605,
    2606,
    2607,
    2608,
    2609,
    2668,
    2786,
    2727,
    2606,
    2607,
    2608,
    2609,
    2782,
    2783,
    2784,
    2785,
    2786,
    2609,
    0,
    0,
    2782,
    2664,
    2723,
    2605,
    2606,
    2605,
    2782,
    2783,
    2784,
    2785,
    2786,
    2605,
    2606,
    2607,
    2608,
    2609,
    2782,
    2783,
    2784,
    2785,
    2786,
    2605,
    2782,
    2783,
    2784,
    2605,
    2782,
    2783,
    2784,
    2785,
    2786,
    2609,
    2605,
    2606,
    2607,
    2608,
    2609,
    2605,
    2605,
    2782,
    2667,
    2667,
    2667,
    2667,
    2667,
    2667,
    2667,
    2667,
    2667,
    2667,
    2667,
    2667,
    2667,
    2667,
    2667,
    2667,
    2667,
    2667,
    2667,
    2667,
    2667,
    2667,
    2667,
    2667,
    2667,
    2667,
    2667,
    2667,
    2667,
    2667,
    2667,
    2667,
    2667,
    2667,
    2667,
    2667,
    2667,
    2667,
    2667,
    2667,
    2667,
    2667,
    2667,
    2667,
    2667,
    2667,
    2667,
    2667,
    2667,
    2667,
    2667,
    2667,
    2667,
    2667,
    2667,
    2667,
    2605,
    2606,
    2605,
    2782,
    2605,
    2606,
    2607,
    2608,
    2609,
    2783,
    2784,
    2605,
    2606,
    2607,
    2608,
    2609,
    2605,
    2606,
    2607,
    2608,
    2609,
    2786,
    2605,
    2606,
    2607,
    2608,
    2609,
    2608,
    2609,
    2786,
    2783,
    2784,
    2785,
    2605,
    2606,
    2605,
    2606,
    2607,
    2608,
    2609,
    2668,
    2727,
    2785,
    2786,
    2606,
    2607,
    2608,
    2609,
    2783,
    2784,
    2785,
    2786,
    2609,
    2668,
    0,
    0,
    2605,
    2723,
    2782,
    2605,
    2606,
    2605,
    2782,
    2783,
    2784,
    2785,
    2786,
    2606,
    2607,
    2608,
    2609,
    2668,
    2782,
    2783,
    2784,
    2785,
    2786,
    2605,
    2782,
    2783,
    2784,
    2605,
    2782,
    2783,
    2784,
    2785,
    2786,
    2668,
    2605,
    2606,
    2607,
    2608,
    2609,
    2605,
    2664,
    2782,
    2667,
    2667,
    2667,
    2667,
    2667,
    2667,
    2667,
    2667,
    2667,
    2667,
    2667,
    2667,
    2667,
    2667,
    2667,
    2667,
    2667,
    2667,
    2667,
    2667,
    2667,
    2667,
    2667,
    2667,
    2667,
    2667,
    2667,
    2667,
    2667,
    2667,
    2667,
    2667,
    2667,
    2667,
    2667,
    2667,
    2667,
    2667,
    2667,
    2667,
    2667,
    2667,
    2667,
    2667,
    2667,
    2667,
    2667,
    2667,
    2667,
    2667,
    2667,
    2667,
    2667,
    2667,
    2667,
    2667,
    2605,
    2606,
    2664,
    2782,
    2664,
    2605,
    2606,
    2607,
    2608,
    2609,
    2784,
    2605,
    2606,
    2607,
    2608,
    2609,
    2605,
    2606,
    2607,
    2608,
    2609,
    2786,
    2605,
    2606,
    2607,
    2608,
    2609,
    2608,
    2609,
    2786,
    2783,
    2784,
    2785,
    2605,
    2605,
    2606,
    2607,
    2608,
    2609,
    2668,
    2727,
    2786,
    2785,
    2786,
    2606,
    2607,
    2608,
    2609,
    2783,
    2784,
    2785,
    2786,
    2609,
    2727,
    0,
    0,
    2605,
    2782,
    2782,
    2605,
    2605,
    2605,
    2782,
    2783,
    2784,
    2785,
    2786,
    2607,
    2608,
    2609,
    2668,
    2605,
    2782,
    2783,
    2784,
    2785,
    2605,
    2606,
    2782,
    2783,
    2784,
    2605,
    2782,
    2783,
    2784,
    2785,
    2786,
    2727,
    2605,
    2606,
    2607,
    2608,
    2609,
    2605,
    2723,
    2782,
    2667,
    2667,
    2667,
    2667,
    2667,
    2667,
    2667,
    2667,
    2667,
    2667,
    2667,
    2667,
    2667,
    2667,
    2667,
    2667,
    2667,
    2667,
    2667,
    2667,
    2667,
    2667,
    2667,
    2667,
    2667,
    2667,
    2667,
    2667,
    2667,
    2667,
    2667,
    2667,
    2667,
    2667,
    2667,
    2667,
    2667,
    2667,
    2667,
    2667,
    2667,
    2667,
    2667,
    2667,
    2667,
    2667,
    2667,
    2667,
    2667,
    2667,
    2667,
    2667,
    2667,
    2667,
    2667,
    2667,
    2605,
    2606,
    2723,
    2782,
    2723,
    2605,
    2606,
    2607,
    2608,
    2609,
    2784,
    2605,
    2606,
    2607,
    2608,
    2609,
    2605,
    2606,
    2607,
    2608,
    2609,
    2786,
    2605,
    2606,
    2607,
    2608,
    2609,
    2609,
    2668,
    2786,
    2783,
    2784,
    2785,
    2605,
    2606,
    2607,
    2608,
    2609,
    2668,
    2727,
    2786,
    2784,
    2785,
    2786,
    2606,
    2607,
    2608,
    2609,
    2783,
    2784,
    2785,
    2786,
    2609,
    2786,
    0,
    0,
    2605,
    2605,
    2782,
    2605,
    2664,
    2605,
    2782,
    2783,
    2784,
    2785,
    2786,
    2608,
    2609,
    2668,
    2727,
    2605,
    2782,
    2783,
    2784,
    2785,
    2605,
    2606,
    2782,
    2783,
    2784,
    2605,
    2606,
    2782,
    2783,
    2784,
    2785,
    2786,
    2605,
    2606,
    2607,
    2608,
    2609,
    2605,
    2782,
    2783,
    2667,
    2667,
    2667,
    2667,
    2667,
    2667,
    2667,
    2667,
    2667,
    2667,
    2667,
    2667,
    2667,
    2667,
    2667,
    2667,
    2667,
    2667,
    2667,
    2667,
    2667,
    2667,
    2667,
    2667,
    2667,
    2667,
    2667,
    2667,
    2667,
    2667,
    2667,
    2667,
    2667,
    2667,
    2667,
    2667,
    2667,
    2667,
    2667,
    2667,
    2667,
    2667,
    2667,
    2667,
    2667,
    2667,
    2667,
    2667,
    2667,
    2667,
    2667,
    2667,
    2667,
    2667,
    2667,
    2667,
    2605,
    2606,
    2782,
    2783,
    2782,
    2664,
    2605,
    2606,
    2607,
    2608,
    2609,
    2605,
    2606,
    2607,
    2608,
    2609,
    2605,
    2606,
    2607,
    2608,
    2609,
    2786,
    2605,
    2606,
    2607,
    2608,
    2609,
    2609,
    2727,
    2786,
    2783,
    2784,
    2605,
    2606,
    2607,
    2608,
    2609,
    2668,
    2727,
    2786,
    2783,
    2784,
    2785,
    2786,
    2609,
    2607,
    2608,
    2609,
    2783,
    2784,
    2785,
    2786,
    2609,
    2786,
    0,
    2605,
    2664,
    2664,
    2782,
    2605,
    2723,
    2605,
    2782,
    2783,
    2784,
    2785,
    2786,
    2608,
    2609,
    2727,
    2786,
    2605,
    2782,
    2783,
    2784,
    2785,
    2605,
    2605,
    2782,
    2783,
    2784,
    2605,
    2606,
    2782,
    2783,
    2784,
    2785,
    2786,
    2605,
    2606,
    2607,
    2608,
    2609,
    2605,
    2782,
    2783,
    2667,
    2667,
    2667,
    2667,
    2667,
    2667,
    2667,
    2667,
    2667,
    2667,
    2667,
    2667,
    2667,
    2667,
    2667,
    2667,
    2667,
    2667,
    2667,
    2667,
    2667,
    2667,
    2667,
    2667,
    2667,
    2667,
    2667,
    2667,
    2667,
    2667,
    2667,
    2667,
    2667,
    2667,
    2667,
    2667,
    2667,
    2667,
    2667,
    2667,
    2667,
    2667,
    2667,
    2667,
    2667,
    2667,
    2667,
    2667,
    2667,
    2667,
    2667,
    2667,
    2667,
    2667,
    2667,
    2667,
    2605,
    2606,
    2782,
    2783,
    2784,
    2723,
    2605,
    2606,
    2607,
    2608,
    2609,
    2605,
    2606,
    2607,
    2608,
    2609,
    2605,
    2606,
    2607,
    2608,
    2609,
    2786,
    2605,
    2606,
    2607,
    2608,
    2609,
    2609,
    2786,
    2786,
    2783,
    2784,
    2605,
    2606,
    2607,
    2608,
    2609,
    2727,
    2786,
    2782,
    2783,
    2784,
    2785,
    2786,
    2668,
    2607,
    2608,
    2609,
    2784,
    2785,
    2786,
    2609,
    2668,
    2786,
    0,
    2605,
    2723,
    2723,
    2782,
    2605,
    2782,
    2605,
    2782,
    2783,
    2784,
    2785,
    2786,
    2609,
    2668,
    2786,
    2785,
    2605,
    2782,
    2783,
    2784,
    2785,
    2605,
    2664,
    2782,
    2783,
    2784,
    2605,
    2605,
    2782,
    2783,
    2784,
    2785,
    2786,
    2605,
    2606,
    2607,
    2608,
    2609,
    2605,
    2782,
    2783,
    2667,
    2667,
    2667,
    2667,
    2667,
    2667,
    2667,
    2667,
    2667,
    2667,
    2667,
    2667,
    2667,
    2667,
    2667,
    2667,
    2667,
    2667,
    2667,
    2667,
    2667,
    2667,
    2667,
    2667,
    2667,
    2667,
    2667,
    2667,
    2667,
    2667,
    2667,
    2667,
    2667,
    2667,
    2667,
    2667,
    2667,
    2667,
    2667,
    2667,
    2667,
    2667,
    2667,
    2667,
    2667,
    2667,
    2667,
    2667,
    2667,
    2667,
    2667,
    2667,
    2667,
    2667,
    2667,
    2667,
    2605,
    2606,
    2782,
    2783,
    2784,
    2782,
    2664,
    2605,
    2606,
    2607,
    2608,
    2609,
    2606,
    2607,
    2608,
    2609,
    2605,
    2606,
    2607,
    2608,
    2609,
    2786,
    2605,
    2606,
    2607,
    2608,
    2609,
    2609,
    2786,
    2782,
    2783,
    2605,
    2606,
    2607,
    2608,
    2609,
    2668,
    2786,
    2784,
    2782,
    2783,
    2784,
    2785,
    2786,
    2727,
    2607,
    2608,
    2609,
    2784,
    2785,
    2786,
    2609,
    2727,
    2786,
    0,
    2605,
    2782,
    2782,
    2783,
    2605,
    2782,
    2605,
    2782,
    2783,
    2784,
    2785,
    2786,
    2609,
    2727,
    2784,
    2785,
    2605,
    2782,
    2783,
    2784,
    2785,
    2605,
    2723,
    2782,
    2783,
    2784,
    2605,
    2664,
    2605,
    2782,
    2783,
    2784,
    2785,
    2605,
    2606,
    2607,
    2608,
    2605,
    2605,
    2782,
    2783,
    2667,
    2667,
    2667,
    2667,
    2667,
    2667,
    2667,
    2667,
    2667,
    2667,
    2667,
    2667,
    2667,
    2667,
    2667,
    2667,
    2667,
    2667,
    2667,
    2667,
    2667,
    2667,
    2667,
    2667,
    2667,
    2667,
    2667,
    2667,
    2667,
    2667,
    2667,
    2667,
    2667,
    2667,
    2667,
    2667,
    2667,
    2667,
    2667,
    2667,
    2667,
    2667,
    2667,
    2667,
    2667,
    2667,
    2667,
    2667,
    2667,
    2667,
    2667,
    2667,
    2667,
    2667,
    2667,
    2667,
    2605,
    2606,
    2782,
    2783,
    2784,
    2785,
    2723,
    2664,
    2605,
    2606,
    2607,
    2608,
    2609,
    2607,
    2608,
    2609,
    2606,
    2607,
    2608,
    2609,
    2668,
    2786,
    2605,
    2606,
    2607,
    2608,
    2609,
    2609,
    2786,
    2782,
    2605,
    2606,
    2607,
    2608,
    2609,
    2668,
    2727,
    2783,
    2784,
    2785,
    2782,
    2783,
    2784,
    2785,
    2786,
    2607,
    2608,
    2609,
    2784,
    2785,
    2786,
    2609,
    2786,
    2786,
    0,
    2605,
    2782,
    2782,
    2783,
    2605,
    2782,
    2605,
    2782,
    2783,
    2784,
    2785,
    2786,
    2668,
    2786,
    2784,
    2785,
    2605,
    2782,
    2783,
    2784,
    2785,
    2605,
    2782,
    2783,
    2784,
    2785,
    2605,
    2723,
    2605,
    2782,
    2783,
    2784,
    2785,
    2605,
    2606,
    2607,
    2608,
    2664,
    2605,
    2782,
    2783,
    2667,
    2667,
    2667,
    2667,
    2667,
    2667,
    2667,
    2667,
    2667,
    2667,
    2667,
    2667,
    2667,
    2667,
    2667,
    2667,
    2667,
    2667,
    2667,
    2667,
    2667,
    2667,
    2667,
    2667,
    2667,
    2667,
    2667,
    2667,
    2667,
    2667,
    2667,
    2667,
    2667,
    2667,
    2667,
    2667,
    2667,
    2667,
    2667,
    2667,
    2667,
    2667,
    2667,
    2667,
    2667,
    2667,
    2667,
    2667,
    2667,
    2667,
    2667,
    2667,
    2667,
    2667,
    2667,
    2667,
    2664,
    2605,
    2782,
    2783,
    2784,
    2785,
    2782,
    2723,
    2664,
    2605,
    2605,
    2606,
    2607,
    2608,
    2609,
    2609,
    2606,
    2607,
    2608,
    2609,
    2727,
    2786,
    2605,
    2606,
    2607,
    2608,
    2609,
    2609,
    2786,
    2782,
    2605,
    2606,
    2607,
    2608,
    2609,
    2727,
    2786,
    2783,
    2784,
    2785,
    2782,
    2783,
    2784,
    2785,
    2786,
    2607,
    2608,
    2609,
    2784,
    2785,
    2786,
    2668,
    2785,
    2786,
    0,
    2664,
    2782,
    2782,
    2783,
    2605,
    2782,
    2664,
    2782,
    2783,
    2784,
    2785,
    2786,
    2727,
    2784,
    2785,
    2786,
    2605,
    2782,
    2783,
    2784,
    2785,
    2605,
    2782,
    2783,
    2784,
    2785,
    2605,
    2782,
    2664,
    2782,
    2783,
    2784,
    2785,
    2605,
    2606,
    2607,
    2608,
    2723,
    2605,
    2782,
    2783,
    2667,
    2667,
    2667,
    2667,
    2667,
    2667,
    2667,
    2667,
    2667,
    2667,
    2667,
    2667,
    2667,
    2667,
    2667,
    2667,
    2667,
    2667,
    2667,
    2667,
    2667,
    2667,
    2667,
    2667,
    2667,
    2667,
    2667,
    2667,
    2667,
    2667,
    2667,
    2667,
    2667,
    2667,
    2667,
    2667,
    2667,
    2667,
    2667,
    2667,
    2667,
    2667,
    2667,
    2667,
    2667,
    2667,
    2667,
    2667,
    2667,
    2667,
    2667,
    2667,
    2667,
    2667,
    2667,
    2667,
    2723,
    2605,
    2782,
    2783,
    2784,
    2785,
    2786,
    2782,
    2723,
    2664,
    2664,
    2605,
    2606,
    2607,
    2608,
    2609,
    2606,
    2607,
    2608,
    2609,
    2786,
    2786,
    2605,
    2606,
    2607,
    2608,
    2609,
    2609,
    2786,
    2605,
    2606,
    2607,
    2608,
    2609,
    2668,
    2786,
    2782,
    2783,
    2784,
    2785,
    2782,
    2783,
    2784,
    2785,
    2786,
    2609,
    2608,
    2609,
    2785,
    2786,
    2609,
    2727,
    2786,
    0,
    2605,
    2723,
    2782,
    2782,
    2783,
    2605,
    2782,
    2723,
    2782,
    2783,
    2784,
    2785,
    2786,
    2786,
    2784,
    2785,
    2786,
    2605,
    2782,
    2783,
    2784,
    2785,
    2605,
    2782,
    2783,
    2784,
    2785,
    2605,
    2782,
    2723,
    2605,
    2782,
    2783,
    2784,
    2605,
    2606,
    2607,
    2608,
    2782,
    2605,
    2782,
    2783,
    2667,
    2667,
    2667,
    2667,
    2667,
    2667,
    2667,
    2667,
    2667,
    2667,
    2667,
    2667,
    2667,
    2667,
    2667,
    2667,
    2667,
    2667,
    2667,
    2667,
    2667,
    2667,
    2667,
    2667,
    2667,
    2667,
    2667,
    2667,
    2667,
    2667,
    2667,
    2667,
    2667,
    2667,
    2667,
    2667,
    2667,
    2667,
    2667,
    2667,
    2667,
    2667,
    2667,
    2667,
    2667,
    2667,
    2667,
    2667,
    2667,
    2667,
    2667,
    2667,
    2667,
    2667,
    2667,
    2667,
    2782,
    2664,
    2782,
    2783,
    2784,
    2785,
    2786,
    2782,
    2782,
    2723,
    2723,
    2664,
    2605,
    2606,
    2607,
    2608,
    2609,
    2607,
    2608,
    2609,
    2785,
    2786,
    2605,
    2606,
    2607,
    2608,
    2609,
    2609,
    2786,
    2605,
    2606,
    2607,
    2608,
    2609,
    2727,
    2607,
    2782,
    2783,
    2784,
    2785,
    2782,
    2783,
    2784,
    2785,
    2786,
    2668,
    2608,
    2609,
    2605,
    2606,
    2607,
    2608,
    2609,
    0,
    2605,
    2782,
    2783,
    2782,
    2783,
    2664,
    2782,
    2782,
    2783,
    2784,
    2785,
    2786,
    2727,
    2783,
    2784,
    2785,
    2786,
    2605,
    2782,
    2783,
    2784,
    2785,
    2664,
    2782,
    2783,
    2784,
    2605,
    2606,
    2782,
    2782,
    2605,
    2782,
    2783,
    2784,
    2605,
    2606,
    2607,
    2608,
    2782,
    2605,
    2782,
    2783,
    2667,
    2667,
    2667,
    2667,
    2667,
    2667,
    2667,
    2667,
    2667,
    2667,
    2667,
    2667,
    2667,
    2667,
    2667,
    2667,
    2667,
    2667,
    2667,
    2667,
    2667,
    2667,
    2667,
    2667,
    2667,
    2667,
    2667,
    2667,
    2667,
    2667,
    2667,
    2667,
    2667,
    2667,
    2667,
    2667,
    2667,
    2667,
    2667,
    2667,
    2667,
    2667,
    2667,
    2667,
    2667,
    2667,
    2667,
    2667,
    2667,
    2667,
    2667,
    2667,
    2667,
    2667,
    2667,
    2667,
    2605,
    2723,
    2782,
    2783,
    2784,
    2785,
    2786,
    2782,
    2783,
    2782,
    2782,
    2723,
    2664,
    2605,
    2605,
    2606,
    2607,
    2608,
    2609,
    2609,
    2785,
    2786,
    2605,
    2606,
    2607,
    2608,
    2609,
    2609,
    2605,
    2606,
    2607,
    2608,
    2609,
    2668,
    2786,
    2607,
    2782,
    2783,
    2784,
    2785,
    2782,
    2783,
    2784,
    2785,
    2786,
    2727,
    2608,
    2609,
    2605,
    2606,
    2607,
    2608,
    2609,
    2605,
    2664,
    2782,
    2783,
    2782,
    2783,
    2723,
    2782,
    2783,
    2784,
    2785,
    2786,
    2668,
    2786,
    2784,
    2785,
    2786,
    2783,
    2664,
    2782,
    2783,
    2784,
    2785,
    2723,
    2782,
    2783,
    2784,
    2605,
    2606,
    2782,
    2783,
    2605,
    2782,
    2783,
    2784,
    2605,
    2606,
    2607,
    2608,
    2782,
    2605,
    2782,
    2783,
    2667,
    2667,
    2667,
    2667,
    2667,
    2667,
    2667,
    2667,
    2667,
    2667,
    2667,
    2667,
    2667,
    2667,
    2667,
    2667,
    2667,
    2667,
    2667,
    2667,
    2667,
    2667,
    2667,
    2667,
    2667,
    2667,
    2667,
    2667,
    2667,
    2667,
    2667,
    2667,
    2667,
    2667,
    2667,
    2667,
    2667,
    2667,
    2667,
    2667,
    2667,
    2667,
    2667,
    2667,
    2667,
    2667,
    2667,
    2667,
    2667,
    2667,
    2667,
    2667,
    2667,
    2667,
    2667,
    2667,
    2664,
    2782,
    2783,
    2784,
    2785,
    2786,
    2609,
    2782,
    2783,
    2784,
    2785,
    2782,
    2723,
    2664,
    2664,
    2605,
    2605,
    2606,
    2607,
    2608,
    2609,
    2786,
    2605,
    2606,
    2607,
    2608,
    2609,
    2609,
    2605,
    2606,
    2607,
    2608,
    2609,
    2727,
    2606,
    2607,
    2782,
    2783,
    2784,
    2785,
    2786,
    2782,
    2783,
    2784,
    2785,
    2786,
    2609,
    2609,
    2605,
    2606,
    2607,
    2608,
    2609,
    2605,
    2723,
    2782,
    2783,
    2782,
    2783,
    2782,
    2782,
    2783,
    2784,
    2785,
    2786,
    2727,
    2783,
    2784,
    2785,
    2786,
    2783,
    2723,
    2782,
    2782,
    2783,
    2784,
    2782,
    2783,
    2784,
    2785,
    2605,
    2606,
    2782,
    2783,
    2605,
    2782,
    2782,
    2783,
    2605,
    2606,
    2607,
    2608,
    2782,
    2664,
    2782,
    2783,
    2667,
    2667,
    2667,
    2667,
    2667,
    2667,
    2667,
    2667,
    2667,
    2667,
    2667,
    2667,
    2667,
    2667,
    2667,
    2667,
    2667,
    2667,
    2667,
    2667,
    2667,
    2667,
    2667,
    2667,
    2667,
    2667,
    2667,
    2667,
    2667,
    2667,
    2667,
    2667,
    2667,
    2667,
    2667,
    2667,
    2667,
    2667,
    2667,
    2667,
    2667,
    2667,
    2667,
    2667,
    2667,
    2667,
    2667,
    2667,
    2667,
    2667,
    2667,
    2667,
    2667,
    2667,
    2667,
    2667,
    2723,
    2782,
    2783,
    2784,
    2785,
    2786,
    2609,
    2782,
    2783,
    2784,
    2785,
    2605,
    2782,
    2723,
    2723,
    2664,
    2664,
    2605,
    2605,
    2606,
    2607,
    2608,
    2609,
    2606,
    2607,
    2608,
    2609,
    2605,
    2606,
    2607,
    2608,
    2609,
    2668,
    2786,
    2606,
    2607,
    2782,
    2783,
    2784,
    2785,
    2786,
    2782,
    2783,
    2784,
    2785,
    2786,
    2668,
    2609,
    2605,
    2606,
    2607,
    2608,
    2609,
    2605,
    2782,
    2783,
    2784,
    2782,
    2783,
    2784,
    2782,
    2783,
    2784,
    2785,
    2786,
    2786,
    2783,
    2784,
    2785,
    2786,
    2782,
    2782,
    2782,
    2782,
    2783,
    2784,
    2782,
    2783,
    2784,
    2785,
    2605,
    2606,
    2782,
    2783,
    2605,
    2782,
    2782,
    2783,
    2605,
    2606,
    2607,
    2608,
    2782,
    2723,
    2782,
    2783,
    2667,
    2667,
    2667,
    2667,
    2667,
    2667,
    2667,
    2667,
    2667,
    2667,
    2667,
    2667,
    2667,
    2667,
    2667,
    2667,
    2667,
    2667,
    2667,
    2667,
    2667,
    2667,
    2667,
    2667,
    2667,
    2667,
    2667,
    2667,
    2667,
    2667,
    2667,
    2667,
    2667,
    2667,
    2667,
    2667,
    2667,
    2667,
    2667,
    2667,
    2667,
    2667,
    2667,
    2667,
    2667,
    2667,
    2667,
    2667,
    2667,
    2667,
    2667,
    2667,
    2667,
    2667,
    2667,
    2667,
    2782,
    2783,
    2784,
    2785,
    2786,
    2608,
    2609,
    2782,
    2783,
    2784,
    2785,
    2605,
    2606,
    2782,
    2782,
    2723,
    2723,
    2664,
    2664,
    2605,
    2606,
    2607,
    2608,
    2609,
    2607,
    2608,
    2609,
    2605,
    2606,
    2607,
    2608,
    2609,
    2727,
    2605,
    2606,
    2607,
    2608,
    2782,
    2783,
    2784,
    2785,
    2782,
    2783,
    2784,
    2785,
    2786,
    2727,
    2609,
    2605,
    2606,
    2607,
    2608,
    2609,
    2605,
    2782,
    2783,
    2784,
    2785,
    2605,
    2606,
    2782,
    2783,
    2784,
    2785,
    2786,
    2783,
    2784,
    2785,
    2786,
    2668,
    2782,
    2783,
    2782,
    2782,
    2783,
    2784,
    2782,
    2783,
    2784,
    2785,
    2605,
    2606,
    2782,
    2783,
    2605,
    2782,
    2783,
    2782,
    2605,
    2606,
    2607,
    2605,
    2782,
    2782,
    2782,
    2783,
    2667,
    2667,
    2667,
    2667,
    2667,
    2667,
    2667,
    2667,
    2667,
    2667,
    2667,
    2667,
    2667,
    2667,
    2667,
    2667,
    2667,
    2667,
    2667,
    2667,
    2667,
    2667,
    2667,
    2667,
    2667,
    2667,
    2667,
    2667,
    2667,
    2667,
    2667,
    2667,
    2667,
    2667,
    2667,
    2667,
    2667,
    2667,
    2667,
    2667,
    2667,
    2667,
    2667,
    2667,
    2667,
    2667,
    2667,
    2667,
    2667,
    2667,
    2667,
    2667,
    2667,
    2667,
    2667,
    2667,
    2782,
    2783,
    2784,
    2785,
    2786,
    2608,
    2609,
    2608,
    2609,
    2784,
    2785,
    2605,
    2606,
    2607,
    2608,
    2782,
    2782,
    2723,
    2723,
    2664,
    2605,
    2605,
    2606,
    2607,
    2608,
    2609,
    2605,
    2606,
    2607,
    2608,
    2609,
    2668,
    2786,
    2605,
    2606,
    2607,
    2608,
    2782,
    2783,
    2784,
    2785,
    2786,
    2782,
    2783,
    2784,
    2785,
    2786,
    2609,
    2605,
    2606,
    2607,
    2608,
    2609,
    2605,
    2782,
    2783,
    2784,
    2605,
    2606,
    2607,
    2782,
    2783,
    2784,
    2785,
    2786,
    2783,
    2784,
    2785,
    2786,
    2727,
    2782,
    2783,
    2782,
    2782,
    2783,
    2784,
    2782,
    2783,
    2784,
    2785,
    2605,
    2606,
    2782,
    2783,
    2605,
    2782,
    2783,
    2782,
    2605,
    2606,
    2607,
    2664,
    2782,
    2783,
    2782,
    2783,
    2667,
    2667,
    2667,
    2667,
    2667,
    2667,
    2667,
    2667,
    2667,
    2667,
    2667,
    2667,
    2667,
    2667,
    2667,
    2667,
    2667,
    2667,
    2667,
    2667,
    2667,
    2667,
    2667,
    2667,
    2667,
    2667,
    2667,
    2667,
    2667,
    2667,
    2667,
    2667,
    2667,
    2667,
    66,
    66,
    66,
    66,
    66,
    66,
    66,
    66,
    66,
    66,
    66,
    66,
    66,
    66,
    66,
    66,
    66,
    66,
    66,
    66,
    66,
    66,
    2782,
    2783,
    2784,
    2785,
    2786,
    2608,
    2609,
    2608,
    2609,
    2784,
    2785,
    2605,
    2606,
    2607,
    2608,
    2609,
    2607,
    2782,
    2782,
    2723,
    2664,
    2664,
    2605,
    2606,
    2607,
    2608,
    2609,
    2606,
    2607,
    2608,
    2609,
    2727,
    2785,
    2605,
    2606,
    2607,
    2608,
    2782,
    2783,
    2784,
    2785,
    2786,
    2782,
    2783,
    2784,
    2785,
    2786,
    2668,
    2605,
    2606,
    2607,
    2608,
    2609,
    2664,
    2782,
    2783,
    2784,
    2605,
    2606,
    2607,
    2608,
    2609,
    2727,
    2786,
    2782,
    2783,
    2784,
    2785,
    2786,
    2786,
    2782,
    2783,
    2782,
    2782,
    2783,
    2784,
    2785,
    2786,
    2782,
    2783,
    2605,
    2606,
    2782,
    2783,
    2605,
    2782,
    2783,
    2784,
    2605,
    2606,
    2607,
    2723,
    2782,
    2783,
    2782,
    2783,
    66,
    66,
    66,
    66,
    66,
    66,
    66,
    66,
    66,
    66,
    66,
    66,
    66,
    66,
    66,
    66,
    66,
    66,
    66,
    66,
    66,
    66,
    66,
    66,
    66,
    66,
    66,
    66,
    66,
    66,
    66,
    66,
    66,
    66,
    66,
    66,
    66,
    66,
    66,
    66,
    66,
    66,
    66,
    66,
    66,
    66,
    66,
    66,
    66,
    66,
    66,
    66,
    66,
    66,
    66,
    66,
    2782,
    2783,
    2784,
    2785,
    2786,
    2608,
    2609,
    2608,
    2609,
    2785,
    2786,
    2605,
    2606,
    2607,
    2608,
    2609,
    2607,
    2608,
    2609,
    2782,
    2723,
    2723,
    2664,
    2605,
    2606,
    2607,
    2608,
    2609,
    2608,
    2609,
    2668,
    2786,
    2786,
    2605,
    2606,
    2607,
    2608,
    2782,
    2783,
    2784,
    2785,
    2786,
    2782,
    2783,
    2784,
    2785,
    2786,
    2727,
    2609,
    2606,
    2607,
    2608,
    2609,
    2723,
    2782,
    2783,
    2605,
    2606,
    2607,
    2608,
    2609,
    2668,
    2786,
    2606,
    2782,
    2783,
    2784,
    2785,
    2786,
    2605,
    2782,
    2783,
    2782,
    2782,
    2783,
    2784,
    2785,
    2786,
    2782,
    2783,
    2605,
    2606,
    2782,
    2783,
    2605,
    2782,
    2783,
    2784,
    2605,
    2606,
    2607,
    2782,
    2783,
    2784,
    2782,
    2783,
    66,
    66,
    66,
    66,
    66,
    66,
    66,
    66,
    66,
    66,
    66,
    66,
    66,
    66,
    66,
    66,
    66,
    66,
    66,
    66,
    66,
    66,
    66,
    66,
    66,
    66,
    66,
    66,
    66,
    66,
    66,
    66,
    66,
    66,
    66,
    66,
    66,
    66,
    66,
    66,
    66,
    66,
    66,
    66,
    66,
    66,
    66,
    66,
    66,
    66,
    66,
    66,
    66,
    66,
    66,
    2605,
    2782,
    2783,
    2784,
    2785,
    2786,
    2608,
    2609,
    2609,
    2668,
    2785,
    2786,
    2605,
    2606,
    2607,
    2608,
    2609,
    2607,
    2608,
    2609,
    2784,
    2782,
    2782,
    2723,
    2664,
    2605,
    2605,
    2606,
    2607,
    2608,
    2609,
    2727,
    2785,
    2786,
    2605,
    2606,
    2607,
    2608,
    2782,
    2783,
    2784,
    2785,
    2786,
    2609,
    2782,
    2783,
    2784,
    2785,
    2786,
    2668,
    2606,
    2607,
    2608,
    2609,
    2782,
    2605,
    2606,
    2607,
    2608,
    2609,
    2609,
    2668,
    2727,
    2605,
    2605,
    2782,
    2783,
    2784,
    2785,
    2786,
    2605,
    2782,
    2783,
    2782,
    2782,
    2783,
    2784,
    2785,
    2786,
    2782,
    2783,
    2605,
    2606,
    2782,
    2783,
    2664,
    2782,
    2783,
    2784,
    2605,
    2606,
    2607,
    2782,
    2783,
    2784,
    2782,
    2783,
    66,
    66,
    66,
    66,
    66,
    66,
    66,
    66,
    66,
    66,
    66,
    66,
    66,
    66,
    66,
    66,
    66,
    66,
    66,
    66,
    66,
    66,
    66,
    66,
    66,
    66,
    66,
    66,
    66,
    66,
    66,
    66,
    66,
    66,
    66,
    66,
    66,
    66,
    66,
    66,
    66,
    66,
    66,
    66,
    66,
    66,
    66,
    66,
    66,
    66,
    66,
    66,
    66,
    66,
    66,
    2605,
    2782,
    2783,
    2784,
    2785,
    2786,
    2608,
    2609,
    2609,
    2727,
    2785,
    2786,
    2605,
    2606,
    2607,
    2608,
    2609,
    2609,
    2608,
    2609,
    2783,
    2784,
    2785,
    2782,
    2723,
    2664,
    2664,
    2605,
    2606,
    2607,
    2608,
    2609,
    2785,
    2786,
    2605,
    2606,
    2607,
    2608,
    2782,
    2783,
    2784,
    2785,
    2786,
    2668,
    2782,
    2783,
    2784,
    2785,
    2786,
    2727,
    2609,
    2609,
    2609,
    2605,
    2606,
    2607,
    2608,
    2609,
    2609,
    2668,
    2668,
    2727,
    2786,
    2605,
    2605,
    2782,
    2783,
    2784,
    2785,
    2786,
    2605,
    2782,
    2783,
    2782,
    2782,
    2783,
    2784,
    2785,
    2786,
    2782,
    2783,
    2605,
    2606,
    2782,
    2783,
    2723,
    2782,
    2783,
    2784,
    2605,
    2606,
    2607,
    2782,
    2783,
    2784,
    2782,
    2783,
    66,
    66,
    66,
    66,
    66,
    66,
    66,
    66,
    66,
    66,
    66,
    66,
    66,
    66,
    66,
    66,
    66,
    66,
    66,
    66,
    66,
    66,
    66,
    66,
    66,
    66,
    66,
    66,
    66,
    66,
    66,
    66,
    66,
    66,
    66,
    66,
    66,
    66,
    66,
    66,
    66,
    66,
    66,
    66,
    66,
    66,
    66,
    66,
    66,
    66,
    66,
    66,
    66,
    66,
    66,
    2664,
    2782,
    2783,
    2784,
    2785,
    2786,
    2607,
    2608,
    2609,
    2786,
    2785,
    2786,
    2605,
    2606,
    2607,
    2608,
    2609,
    2609,
    2608,
    2609,
    2783,
    2784,
    2785,
    2786,
    2782,
    2723,
    2723,
    2664,
    2605,
    2605,
    2606,
    2607,
    2608,
    2609,
    2605,
    2606,
    2607,
    2608,
    2782,
    2783,
    2784,
    2785,
    2786,
    2727,
    2605,
    2782,
    2783,
    2784,
    2785,
    2786,
    2668,
    2668,
    2668,
    2609,
    2609,
    2609,
    2609,
    2668,
    2668,
    2727,
    2727,
    2786,
    2786,
    2605,
    2664,
    2782,
    2783,
    2784,
    2785,
    2786,
    2605,
    2782,
    2783,
    2782,
    2783,
    2782,
    2783,
    2784,
    2785,
    2786,
    2782,
    2605,
    2606,
    2782,
    2783,
    2782,
    2783,
    2784,
    2785,
    2605,
    2606,
    2607,
    2782,
    2783,
    2784,
    2782,
    2783,
    66,
    66,
    66,
    66,
    66,
    66,
    66,
    66,
    66,
    66,
    66,
    66,
    66,
    66,
    66,
    66,
    66,
    66,
    66,
    66,
    66,
    66,
    66,
    66,
    66,
    66,
    66,
    66,
    66,
    66,
    66,
    66,
    66,
    66,
    66,
    66,
    66,
    66,
    66,
    66,
    66,
    66,
    66,
    66,
    66,
    66,
    66,
    66,
    66,
    66,
    66,
    66,
    66,
    66,
    66,
    2723,
    2782,
    2783,
    2784,
    2785,
    2786,
    2607,
    2608,
    2609,
    2786,
    2785,
    2786,
    2605,
    2606,
    2607,
    2608,
    2609,
    2609,
    2608,
    2609,
    2783,
    2784,
    2785,
    2786,
    2605,
    2782,
    2782,
    2723,
    2664,
    2605,
    2605,
    2606,
    2607,
    2608,
    2609,
    2606,
    2607,
    2608,
    2609,
    2782,
    2783,
    2784,
    2785,
    2786,
    2605,
    2782,
    2783,
    2784,
    2785,
    2786,
    2727,
    2727,
    2727,
    2668,
    2668,
    2668,
    2668,
    2727,
    2727,
    2786,
    2786,
    2609,
    2786,
    2605,
    2723,
    2782,
    2783,
    2784,
    2785,
    2786,
    2605,
    2782,
    2783,
    2782,
    2783,
    2782,
    2783,
    2784,
    2785,
    2786,
    2609,
    2605,
    2606,
    2782,
    2783,
    2782,
    2783,
    2784,
    2785,
    2605,
    2606,
    2607,
    2782,
    2783,
    2784,
    2782,
    2783,
    66,
    66,
    66,
    66,
    66,
    66,
    66,
    66,
    66,
    66,
    66,
    66,
    66,
    66,
    66,
    66,
    66,
    66,
    66,
    66,
    66,
    66,
    66,
    66,
    66,
    66,
    66,
    66,
    66,
    66,
    66,
    66,
    66,
    66,
    66,
    66,
    66,
    66,
    66,
    66,
    66,
    66,
    66,
    66,
    66,
    66,
    66,
    66,
    66,
    66,
    66,
    66,
    66,
    66,
    66,
    2782,
    2783,
    2784,
    2785,
    2786,
    2606,
    2607,
    2608,
    2609,
    2786,
    2785,
    2786,
    2605,
    2606,
    2607,
    2608,
    2609,
    2609,
    2608,
    2609,
    2783,
    2784,
    2785,
    2605,
    2606,
    2607,
    2608,
    2782,
    2723,
    2664,
    2605,
    2606,
    2607,
    2608,
    2609,
    2606,
    2607,
    2608,
    2609,
    2782,
    2783,
    2784,
    2785,
    2786,
    2605,
    2606,
    2782,
    2783,
    2784,
    2785,
    2786,
    2786,
    2786,
    2727,
    2727,
    2727,
    2727,
    2786,
    2786,
    2607,
    2608,
    2609,
    2786,
    2605,
    2782,
    2783,
    2784,
    2785,
    2786,
    2786,
    2605,
    2782,
    2783,
    2784,
    2785,
    2782,
    2783,
    2784,
    2785,
    2786,
    2668,
    2605,
    2606,
    2782,
    2783,
    2782,
    2783,
    2784,
    2785,
    2605,
    2606,
    2607,
    2608,
    2782,
    2783,
    2782,
    2783,
    66,
    66,
    66,
    66,
    66,
    66,
    66,
    66,
    66,
    66,
    66,
    66,
    66,
    66,
    66,
    66,
    66,
    66,
    66,
    66,
    66,
    66,
    66,
    66,
    66,
    66,
    66,
    66,
    66,
    66,
    66,
    66,
    66,
    66,
    66,
    66,
    66,
    66,
    66,
    66,
    66,
    66,
    66,
    66,
    66,
    66,
    66,
    66,
    66,
    66,
    2605,
    2606,
    2607,
    2608,
    2609,
    2782,
    2783,
    2784,
    2785,
    2786,
    2606,
    2607,
    2608,
    2609,
    2786,
    2785,
    2786,
    2605,
    2606,
    2607,
    2608,
    2609,
    2609,
    2609,
    2668,
    2783,
    2784,
    2785,
    2605,
    2606,
    2607,
    2608,
    2609,
    2782,
    2605,
    2606,
    2607,
    2608,
    2609,
    2668,
    2606,
    2607,
    2608,
    2609,
    2782,
    2783,
    2784,
    2785,
    2786,
    2606,
    2607,
    2608,
    2609,
    2609,
    2782,
    2783,
    2784,
    2785,
    2786,
    2786,
    2786,
    2786,
    2605,
    2606,
    2607,
    2608,
    2609,
    2786,
    2605,
    2782,
    2783,
    2784,
    2785,
    2786,
    2783,
    2605,
    2782,
    2783,
    2784,
    2785,
    2782,
    2783,
    2784,
    2785,
    2786,
    2727,
    2605,
    2606,
    2782,
    2783,
    2782,
    2783,
    2784,
    2785,
    2605,
    2606,
    2607,
    2608,
    2782,
    2783,
    2782,
    2783,
    66,
    66,
    66,
    66,
    66,
    66,
    66,
    66,
    66,
    66,
    66,
    66,
    66,
    66,
    66,
    66,
    66,
    66,
    66,
    66,
    66,
    66,
    66,
    66,
    66,
    66,
    66,
    66,
    66,
    66,
    66,
    66,
    66,
    66,
    66,
    66,
    66,
    66,
    66,
    66,
    66,
    66,
    66,
    66,
    66,
    66,
    66,
    66,
    66,
    2605,
    2606,
    2607,
    2608,
    2609,
    2668,
    2782,
    2783,
    2784,
    2785,
    2786,
    2606,
    2607,
    2608,
    2609,
    2786,
    2785,
    2786,
    2605,
    2606,
    2607,
    2608,
    2609,
    2609,
    2609,
    2727,
    2783,
    2784,
    2605,
    2606,
    2607,
    2608,
    2609,
    2668,
    2786,
    2605,
    2606,
    2607,
    2608,
    2609,
    2727,
    2606,
    2607,
    2608,
    2605,
    2782,
    2783,
    2784,
    2785,
    2786,
    2606,
    2607,
    2608,
    2609,
    2668,
    2727,
    2606,
    2607,
    2608,
    2609,
    2607,
    2608,
    2605,
    2605,
    2606,
    2607,
    2608,
    2609,
    2786,
    2664,
    2782,
    2783,
    2784,
    2785,
    2786,
    2783,
    2605,
    2782,
    2783,
    2784,
    2785,
    2786,
    2782,
    2783,
    2784,
    2785,
    2786,
    2605,
    2606,
    2782,
    2783,
    2782,
    2783,
    2784,
    2785,
    2605,
    2606,
    2607,
    2608,
    2782,
    2783,
    2782,
    2783,
    66,
    66,
    66,
    66,
    66,
    66,
    66,
    66,
    66,
    66,
    66,
    66,
    66,
    66,
    66,
    66,
    66,
    66,
    66,
    66,
    66,
    66,
    66,
    66,
    66,
    66,
    66,
    66,
    66,
    66,
    66,
    66,
    66,
    66,
    66,
    66,
    66,
    66,
    66,
    66,
    66,
    66,
    66,
    66,
    66,
    66,
    66,
    66,
    66,
    2605,
    2606,
    2607,
    2608,
    2609,
    2727,
    2782,
    2783,
    2784,
    2785,
    2786,
    2606,
    2607,
    2608,
    2609,
    2786,
    2785,
    2786,
    2605,
    2606,
    2607,
    2608,
    2609,
    2609,
    2609,
    2786,
    2783,
    2605,
    2605,
    2606,
    2607,
    2608,
    2609,
    2727,
    2782,
    2605,
    2606,
    2607,
    2608,
    2609,
    2786,
    2606,
    2607,
    2608,
    2664,
    2782,
    2783,
    2784,
    2785,
    2786,
    2606,
    2607,
    2608,
    2609,
    2727,
    2786,
    2606,
    2607,
    2608,
    2609,
    2607,
    2608,
    2605,
    2605,
    2606,
    2607,
    2608,
    2609,
    2605,
    2723,
    2782,
    2783,
    2784,
    2785,
    2786,
    2783,
    2605,
    2782,
    2783,
    2784,
    2785,
    2786,
    2782,
    2783,
    2784,
    2785,
    2786,
    2605,
    2606,
    2782,
    2783,
    2782,
    2783,
    2784,
    2785,
    2605,
    2606,
    2607,
    2608,
    2782,
    2783,
    2782,
    2783,
    66,
    66,
    66,
    66,
    66,
    66,
    66,
    66,
    66,
    66,
    66,
    66,
    66,
    66,
    66,
    66,
    66,
    66,
    66,
    66,
    66,
    66,
    66,
    66,
    66,
    66,
    66,
    66,
    66,
    66,
    66,
    66,
    66,
    66,
    66,
    66,
    66,
    66,
    66,
    66,
    66,
    66,
    66,
    66,
    66,
    66,
    66,
    66,
    2605,
    2605,
    2606,
    2607,
    2608,
    2609,
    2786,
    2782,
    2783,
    2784,
    2785,
    2786,
    2605,
    2606,
    2607,
    2608,
    2609,
    2785,
    2786,
    2605,
    2606,
    2607,
    2608,
    2609,
    2609,
    2609,
    2782,
    2605,
    2605,
    2605,
    2606,
    2607,
    2608,
    2609,
    2786,
    2605,
    2606,
    2607,
    2608,
    2609,
    2668,
    2605,
    2606,
    2607,
    2608,
    2723,
    2782,
    2783,
    2784,
    2785,
    2786,
    2606,
    2607,
    2608,
    2609,
    2786,
    2786,
    2606,
    2607,
    2608,
    2609,
    2608,
    2609,
    2664,
    2664,
    2605,
    2606,
    2607,
    2608,
    2605,
    2782,
    2783,
    2784,
    2785,
    2786,
    2782,
    2783,
    2605,
    2782,
    2783,
    2784,
    2785,
    2786,
    2782,
    2783,
    2784,
    2785,
    2786,
    2605,
    2606,
    2782,
    2783,
    2782,
    2783,
    2784,
    2785,
    2605,
    2606,
    2607,
    2608,
    2782,
    2783,
    2782,
    2783,
    66,
    66,
    66,
    66,
    66,
    66,
    66,
    66,
    66,
    66,
    66,
    66,
    66,
    66,
    66,
    66,
    66,
    66,
    66,
    66,
    66,
    66,
    66,
    66,
    66,
    66,
    66,
    66,
    66,
    66,
    66,
    66,
    66,
    66,
    66,
    66,
    66,
    66,
    66,
    66,
    66,
    66,
    66,
    66,
    66,
    66,
    66,
    2605,
    2664,
    2605,
    2606,
    2607,
    2608,
    2609,
    66,
    2782,
    2783,
    2784,
    2785,
    2786,
    2605,
    2606,
    2607,
    2608,
    2609,
    2785,
    2786,
    2605,
    2606,
    2607,
    2608,
    2609,
    2609,
    2609,
    2782,
    2664,
    2605,
    2605,
    2606,
    2607,
    2608,
    2609,
    2609,
    2605,
    2606,
    2607,
    2608,
    2609,
    2727,
    2605,
    2606,
    2607,
    2608,
    2782,
    2782,
    2783,
    2784,
    2785,
    2786,
    2607,
    2608,
    2609,
    2668,
    2785,
    2786,
    2606,
    2607,
    2608,
    2609,
    2608,
    2609,
    2723,
    2723,
    2605,
    2606,
    2607,
    2608,
    2664,
    2782,
    2783,
    2784,
    2785,
    2786,
    2782,
    2783,
    2605,
    2782,
    2783,
    2784,
    2785,
    2786,
    2609,
    2782,
    2783,
    2784,
    2785,
    2605,
    2606,
    2782,
    2783,
    2782,
    2783,
    2784,
    2785,
    2605,
    2606,
    2607,
    2608,
    2782,
    2783,
    2782,
    2783,
    66,
    66,
    66,
    66,
    66,
    66,
    66,
    66,
    66,
    66,
    66,
    66,
    66,
    66,
    66,
    66,
    66,
    66,
    66,
    66,
    66,
    66,
    66,
    66,
    66,
    66,
    66,
    66,
    66,
    66,
    66,
    66,
    66,
    66,
    66,
    66,
    66,
    66,
    66,
    66,
    66,
    66,
    66,
    66,
    66,
    66,
    2605,
    2664,
    2723,
    2605,
    2606,
    2607,
    2608,
    2609,
    66,
    2782,
    2783,
    2784,
    2785,
    2786,
    2605,
    2606,
    2607,
    2608,
    2609,
    2785,
    2786,
    2605,
    2606,
    2607,
    2608,
    2609,
    2609,
    2609,
    2605,
    2723,
    2605,
    2605,
    2606,
    2607,
    2608,
    2609,
    2609,
    2664,
    2605,
    2606,
    2607,
    2608,
    2609,
    2605,
    2606,
    2607,
    2608,
    2782,
    2782,
    2783,
    2784,
    2785,
    2786,
    2607,
    2608,
    2609,
    2727,
    2785,
    2786,
    2609,
    2607,
    2608,
    2609,
    2608,
    2609,
    2782,
    2782,
    2605,
    2606,
    2607,
    2608,
    2723,
    2782,
    2783,
    2784,
    2785,
    2786,
    2782,
    2783,
    2605,
    2782,
    2783,
    2784,
    2785,
    2786,
    2609,
    2782,
    2783,
    2784,
    2785,
    2605,
    2606,
    2782,
    2783,
    2782,
    2783,
    2784,
    2785,
    2605,
    2606,
    2607,
    2608,
    2782,
    2783,
    2782,
    2783,
    66,
    66,
    66,
    66,
    66,
    66,
    66,
    66,
    66,
    66,
    66,
    66,
    66,
    66,
    66,
    66,
    66,
    66,
    66,
    66,
    66,
    66,
    66,
    66,
    66,
    66,
    66,
    66,
    66,
    66,
    66,
    66,
    66,
    66,
    66,
    66,
    66,
    66,
    66,
    66,
    66,
    66,
    66,
    66,
    66,
    2605,
    2664,
    2723,
    2782,
    2605,
    2606,
    2607,
    2608,
    2609,
    2605,
    2782,
    2783,
    2784,
    2785,
    2786,
    2606,
    2607,
    2608,
    2609,
    2609,
    2785,
    2786,
    2605,
    2606,
    2607,
    2608,
    2609,
    2609,
    2609,
    2664,
    2782,
    2605,
    2606,
    2607,
    2608,
    2609,
    2668,
    2609,
    2723,
    2605,
    2606,
    2607,
    2608,
    2609,
    2605,
    2606,
    2607,
    2608,
    2782,
    2782,
    2783,
    2784,
    2785,
    2786,
    2607,
    2608,
    2609,
    2786,
    2785,
    2786,
    2668,
    2607,
    2608,
    2609,
    2609,
    2668,
    2782,
    2783,
    2605,
    2606,
    2607,
    2608,
    2782,
    2783,
    2784,
    2785,
    2786,
    2605,
    2782,
    2783,
    2605,
    2782,
    2783,
    2784,
    2785,
    2786,
    2609,
    2782,
    2783,
    2784,
    2785,
    2605,
    2606,
    2782,
    2783,
    2782,
    2783,
    2784,
    2785,
    2605,
    2606,
    2607,
    2608,
    2782,
    2783,
    2782,
    2783,
    66,
    66,
    66,
    66,
    66,
    66,
    66,
    66,
    66,
    66,
    66,
    66,
    66,
    66,
    66,
    66,
    66,
    66,
    66,
    66,
    66,
    66,
    66,
    66,
    66,
    66,
    66,
    66,
    66,
    66,
    66,
    66,
    66,
    66,
    66,
    66,
    66,
    66,
    66,
    66,
    66,
    66,
    66,
    66,
    2605,
    2664,
    2723,
    2782,
    2783,
    2664,
    2605,
    2606,
    2607,
    2608,
    2664,
    2782,
    2783,
    2784,
    2785,
    2786,
    2607,
    2608,
    2609,
    2609,
    2668,
    2785,
    2786,
    2605,
    2606,
    2607,
    2608,
    2609,
    2609,
    2668,
    2723,
    2782,
    2605,
    2606,
    2607,
    2608,
    2609,
    2727,
    2609,
    2782,
    2605,
    2606,
    2607,
    2608,
    2609,
    2605,
    2606,
    2607,
    2605,
    2782,
    2782,
    2783,
    2784,
    2785,
    2786,
    2607,
    2608,
    2609,
    2784,
    2785,
    2786,
    2727,
    2607,
    2608,
    2609,
    2609,
    2727,
    2782,
    2783,
    2664,
    2605,
    2606,
    2607,
    2608,
    2609,
    2609,
    2785,
    2786,
    2664,
    2782,
    2783,
    2605,
    2782,
    2783,
    2784,
    2785,
    2786,
    2609,
    2782,
    2783,
    2784,
    2785,
    2605,
    2606,
    2782,
    2783,
    2784,
    2782,
    2783,
    2784,
    2605,
    2606,
    2607,
    2608,
    2782,
    2605,
    2782,
    2783,
    66,
    66,
    66,
    66,
    66,
    66,
    66,
    66,
    66,
    66,
    66,
    66,
    66,
    66,
    66,
    66,
    66,
    66,
    66,
    66,
    66,
    66,
    66,
    66,
    66,
    66,
    66,
    66,
    66,
    66,
    66,
    66,
    66,
    66,
    66,
    66,
    66,
    66,
    66,
    66,
    66,
    2605,
    2605,
    2605,
    2664,
    2723,
    2782,
    2782,
    2783,
    2723,
    2605,
    2606,
    2607,
    2608,
    2723,
    2782,
    2783,
    2784,
    2785,
    2786,
    2608,
    2609,
    2609,
    2668,
    2727,
    2785,
    2786,
    2605,
    2606,
    2607,
    2608,
    2609,
    2609,
    2605,
    2782,
    2783,
    2605,
    2606,
    2605,
    2605,
    2605,
    2605,
    2606,
    2607,
    2605,
    2606,
    2607,
    2608,
    2609,
    2605,
    2606,
    2607,
    2664,
    2782,
    2782,
    2783,
    2784,
    2785,
    2786,
    2609,
    2608,
    2609,
    2783,
    2784,
    2785,
    2786,
    2605,
    2606,
    2607,
    2608,
    2609,
    2782,
    2783,
    2723,
    2605,
    2606,
    2607,
    2608,
    2609,
    2609,
    2785,
    2786,
    2723,
    2782,
    2783,
    2664,
    2782,
    2783,
    2784,
    2785,
    2786,
    2609,
    2782,
    2783,
    2784,
    2785,
    2605,
    2606,
    2782,
    2783,
    2784,
    2782,
    2783,
    2784,
    2605,
    2606,
    2607,
    2608,
    2782,
    2664,
    2782,
    2783,
    66,
    66,
    66,
    66,
    66,
    66,
    66,
    66,
    66,
    66,
    66,
    66,
    66,
    66,
    66,
    66,
    66,
    66,
    66,
    66,
    66,
    66,
    66,
    66,
    66,
    66,
    66,
    66,
    66,
    66,
    66,
    66,
    66,
    66,
    66,
    66,
    66,
    66,
    66,
    66,
    66,
    2664,
    2664,
    2664,
    2723,
    2782,
    2783,
    2784,
    2785,
    2782,
    2605,
    2606,
    2607,
    2608,
    2782,
    2783,
    2784,
    2785,
    2786,
    2609,
    2609,
    2668,
    2668,
    2727,
    2786,
    2785,
    2786,
    2605,
    2606,
    2607,
    2608,
    2609,
    2609,
    2664,
    2782,
    2783,
    2605,
    2605,
    2664,
    2664,
    2664,
    2605,
    2606,
    2607,
    2664,
    2605,
    2606,
    2607,
    2608,
    2609,
    2606,
    2607,
    2723,
    2782,
    2782,
    2783,
    2784,
    2785,
    2786,
    2668,
    2609,
    2668,
    2783,
    2784,
    2785,
    2786,
    2605,
    2606,
    2607,
    2608,
    2605,
    2782,
    2783,
    2782,
    2605,
    2606,
    2607,
    2608,
    2609,
    2668,
    2785,
    2605,
    2782,
    2783,
    2784,
    2723,
    2782,
    2783,
    2784,
    2785,
    2786,
    2609,
    2782,
    2782,
    2783,
    2784,
    2605,
    2606,
    2782,
    2783,
    2784,
    2782,
    2783,
    2784,
    2664,
    2605,
    2606,
    2607,
    2782,
    2723,
    2782,
    2783,
    66,
    66,
    66,
    66,
    66,
    66,
    66,
    66,
    66,
    66,
    66,
    66,
    66,
    66,
    66,
    66,
    66,
    66,
    66,
    66,
    66,
    66,
    66,
    66,
    66,
    66,
    66,
    66,
    66,
    66,
    66,
    66,
    66,
    66,
    66,
    66,
    66,
    66,
    66,
    66,
    66,
    2723,
    2723,
    2723,
    2782,
    2782,
    2783,
    2784,
    2785,
    2786,
    2664,
    2605,
    2606,
    2607,
    2782,
    2783,
    2784,
    2785,
    2786,
    2668,
    2609,
    2727,
    2727,
    2786,
    2784,
    2785,
    2786,
    2605,
    2606,
    2607,
    2608,
    2609,
    2605,
    2723,
    2782,
    2783,
    2664,
    2664,
    2723,
    2723,
    2723,
    2605,
    2606,
    2607,
    2723,
    2605,
    2606,
    2607,
    2608,
    2609,
    2606,
    2607,
    2782,
    2783,
    2782,
    2783,
    2784,
    2785,
    2786,
    2727,
    2609,
    2727,
    2783,
    2784,
    2785,
    2605,
    2606,
    2607,
    2608,
    2609,
    2605,
    2782,
    2783,
    2784,
    2664,
    2605,
    2606,
    2607,
    2608,
    2609,
    2605,
    2664,
    2782,
    2783,
    2784,
    2782,
    2782,
    2783,
    2784,
    2785,
    2786,
    2609,
    2782,
    2782,
    2783,
    2784,
    2605,
    2606,
    2782,
    2783,
    2784,
    2782,
    2783,
    2784,
    2723,
    2605,
    2606,
    2607,
    2782,
    2782,
    2783,
    2784,
    66,
    66,
    66,
    66,
    66,
    66,
    66,
    66,
    66,
    66,
    66,
    66,
    66,
    66,
    66,
    66,
    66,
    66,
    66,
    66,
    66,
    66,
    66,
    66,
    66,
    66,
    66,
    66,
    66,
    66,
    66,
    66,
    66,
    66,
    66,
    66,
    66,
    66,
    66,
    66,
    66,
    2782,
    2782,
    2782,
    2783,
    2784,
    2785,
    2786,
    66,
    66,
    2723,
    2605,
    2606,
    2607,
    2782,
    2783,
    2784,
    2785,
    2786,
    2727,
    2668,
    2786,
    2786,
    2609,
    2785,
    2786,
    2609,
    2605,
    2606,
    2607,
    2608,
    2609,
    2664,
    2782,
    2783,
    2784,
    2723,
    2723,
    2782,
    2782,
    2605,
    2606,
    2607,
    2608,
    2782,
    2605,
    2606,
    2607,
    2608,
    2609,
    2606,
    2607,
    2782,
    2783,
    2784,
    2782,
    2783,
    2784,
    2785,
    2786,
    2609,
    2786,
    2783,
    2605,
    2606,
    2607,
    2608,
    2609,
    2609,
    2668,
    2664,
    2782,
    2783,
    2784,
    2723,
    2605,
    2606,
    2607,
    2608,
    2609,
    2664,
    2723,
    2782,
    2783,
    2784,
    2785,
    2782,
    2783,
    2784,
    2785,
    2786,
    2668,
    2782,
    2783,
    2782,
    2783,
    2605,
    2606,
    2782,
    2783,
    2784,
    2782,
    2783,
    2784,
    2782,
    2605,
    2606,
    2607,
    2782,
    2782,
    2783,
    2784,
    66,
    66,
    66,
    66,
    66,
    66,
    66,
    66,
    66,
    66,
    66,
    66,
    66,
    66,
    66,
    66,
    66,
    66,
    66,
    66,
    66,
    66,
    66,
    66,
    66,
    66,
    66,
    66,
    66,
    66,
    66,
    66,
    66,
    66,
    66,
    66,
    66,
    66,
    66,
    66,
    66,
    2782,
    2783,
    2784,
    2785,
    2786,
    2668,
    2609,
    66,
    66,
    2782,
    2605,
    2606,
    2607,
    2608,
    2782,
    2783,
    2784,
    2785,
    2786,
    2727,
    2786,
    2609,
    2609,
    2785,
    2786,
    2609,
    2605,
    2606,
    2607,
    2608,
    2605,
    2605,
    2782,
    2783,
    2784,
    2782,
    2782,
    2605,
    2606,
    2607,
    2608,
    2609,
    2609,
    2668,
    2664,
    2605,
    2606,
    2607,
    2608,
    2609,
    2607,
    2782,
    2605,
    2605,
    2605,
    2606,
    2607,
    2608,
    2609,
    2668,
    2605,
    2606,
    2607,
    2608,
    2605,
    2605,
    2605,
    2605,
    2606,
    2607,
    2608,
    2609,
    2784,
    2782,
    2664,
    2605,
    2606,
    2607,
    2608,
    2723,
    2782,
    2782,
    2783,
    2784,
    2785,
    2782,
    2783,
    2784,
    2785,
    2786,
    2727,
    2782,
    2783,
    2784,
    2785,
    2605,
    2606,
    2782,
    2783,
    2784,
    2785,
    2786,
    2727,
    2786,
    2605,
    2606,
    2607,
    2782,
    2782,
    2783,
    2784,
    66,
    66,
    66,
    66,
    66,
    66,
    66,
    66,
    66,
    66,
    66,
    66,
    66,
    66,
    66,
    66,
    66,
    66,
    66,
    66,
    66,
    66,
    66,
    66,
    66,
    66,
    66,
    66,
    66,
    66,
    66,
    66,
    66,
    66,
    66,
    66,
    66,
    66,
    66,
    66,
    66,
    2782,
    2783,
    2784,
    2785,
    2786,
    2727,
    2668,
    2609,
    66,
    66,
    2605,
    2606,
    2607,
    2608,
    2782,
    2783,
    2784,
    2785,
    2786,
    2786,
    2786,
    2668,
    2609,
    2785,
    2786,
    2609,
    2605,
    2606,
    2607,
    2605,
    2664,
    2664,
    2782,
    2783,
    2784,
    2605,
    2606,
    2607,
    2608,
    2609,
    2609,
    2668,
    2668,
    2727,
    2723,
    2664,
    2605,
    2606,
    2607,
    2608,
    2609,
    2605,
    2664,
    2664,
    2605,
    2605,
    2605,
    2605,
    2605,
    2606,
    2607,
    2608,
    2609,
    2605,
    2664,
    2664,
    2664,
    2664,
    2665,
    2666,
    2667,
    2668,
    2785,
    2786,
    2723,
    2605,
    2606,
    2607,
    2605,
    2782,
    2605,
    2782,
    2783,
    2784,
    2785,
    2782,
    2783,
    2784,
    2785,
    2786,
    2786,
    2609,
    2782,
    2783,
    2605,
    2606,
    2607,
    2608,
    2782,
    2783,
    2784,
    2785,
    2786,
    0,
    2605,
    2606,
    2607,
    2782,
    2782,
    2783,
    2784,
    2785,
    2786,
    2786,
    66,
    66,
    66,
    66,
    66,
    66,
    66,
    66,
    66,
    66,
    66,
    66,
    66,
    66,
    66,
    66,
    66,
    66,
    66,
    66,
    66,
    66,
    66,
    66,
    66,
    66,
    66,
    66,
    66,
    66,
    66,
    66,
    66,
    66,
    66,
    66,
    66,
    66,
    66,
    2782,
    2783,
    2784,
    2785,
    2786,
    2727,
    2668,
    2609,
    2609,
    2605,
    2606,
    2607,
    2608,
    2782,
    2783,
    2782,
    2783,
    2784,
    2785,
    2786,
    2727,
    2609,
    2785,
    2786,
    2609,
    2605,
    2606,
    2605,
    2664,
    2723,
    2723,
    2782,
    2783,
    2605,
    2606,
    2607,
    2608,
    2609,
    2668,
    2668,
    2727,
    2727,
    2786,
    2782,
    2723,
    2605,
    2606,
    2607,
    2608,
    2609,
    2606,
    2605,
    2605,
    2664,
    2664,
    2664,
    2605,
    2605,
    2605,
    2605,
    2605,
    2605,
    2664,
    2723,
    2723,
    2723,
    2723,
    2724,
    2725,
    2726,
    2727,
    2785,
    2786,
    2782,
    2664,
    2605,
    2606,
    2664,
    2782,
    2664,
    2782,
    2783,
    2784,
    2785,
    2782,
    2783,
    2784,
    2785,
    2786,
    2786,
    2668,
    2605,
    2606,
    2607,
    2605,
    2606,
    2607,
    2782,
    2783,
    2784,
    2785,
    2786,
    0,
    2605,
    2606,
    2605,
    2782,
    2605,
    2782,
    2783,
    2784,
    2785,
    2786,
    66,
    66,
    66,
    66,
    66,
    66,
    66,
    66,
    66,
    66,
    66,
    66,
    66,
    66,
    66,
    66,
    66,
    66,
    66,
    66,
    66,
    66,
    66,
    66,
    66,
    66,
    66,
    66,
    66,
    66,
    66,
    66,
    66,
    66,
    66,
    66,
    66,
    66,
    66,
    66,
    2782,
    2783,
    2784,
    2785,
    2786,
    2727,
    2668,
    2668,
    2605,
    2606,
    2607,
    2608,
    2782,
    2783,
    2784,
    2782,
    2783,
    2784,
    2785,
    2786,
    2609,
    2785,
    2786,
    2609,
    2605,
    2606,
    2664,
    2723,
    2605,
    2605,
    2606,
    2607,
    2608,
    2609,
    2609,
    2609,
    2668,
    2727,
    2727,
    2786,
    2786,
    2783,
    2605,
    2782,
    2605,
    2606,
    2607,
    2608,
    2609,
    2609,
    2664,
    2664,
    2723,
    2723,
    2605,
    2664,
    2664,
    2664,
    2664,
    2664,
    2664,
    2723,
    2782,
    2782,
    2782,
    2782,
    2783,
    2784,
    2785,
    2786,
    2785,
    2786,
    2783,
    2723,
    2605,
    2605,
    2723,
    2782,
    2723,
    2782,
    2783,
    2784,
    2785,
    2782,
    2783,
    2784,
    2785,
    2786,
    2786,
    2605,
    2606,
    2607,
    2605,
    2605,
    2605,
    2605,
    2605,
    2605,
    2605,
    2605,
    2605,
    2605,
    2605,
    2606,
    2664,
    2782,
    2605,
    2782,
    2783,
    2784,
    2785,
    2786,
    66,
    66,
    66,
    66,
    66,
    66,
    66,
    66,
    66,
    66,
    66,
    66,
    66,
    66,
    66,
    66,
    66,
    66,
    66,
    66,
    66,
    66,
    66,
    66,
    66,
    66,
    66,
    66,
    66,
    66,
    66,
    66,
    66,
    66,
    66,
    66,
    66,
    66,
    66,
    66,
    66,
    2782,
    2783,
    2784,
    2785,
    2786,
    2727,
    2727,
    2605,
    2606,
    2607,
    2608,
    2782,
    2783,
    2784,
    2782,
    2783,
    2784,
    2785,
    2786,
    2609,
    2785,
    2786,
    2605,
    2606,
    2607,
    2608,
    2609,
    2609,
    2609,
    2609,
    2609,
    2609,
    2668,
    2668,
    2668,
    2727,
    2786,
    2786,
    2609,
    2605,
    2605,
    2606,
    2607,
    2664,
    2605,
    2605,
    2606,
    2607,
    2608,
    2609,
    2605,
    2605,
    2605,
    2664,
    2723,
    2723,
    2723,
    2723,
    2723,
    2723,
    2782,
    2783,
    2784,
    2785,
    2786,
    2723,
    2782,
    2783,
    2784,
    2785,
    2786,
    2783,
    2782,
    2664,
    2664,
    2782,
    2783,
    2782,
    2783,
    2784,
    2785,
    2786,
    2782,
    2783,
    2605,
    2606,
    2607,
    2608,
    2609,
    2605,
    2605,
    2605,
    2664,
    2664,
    2664,
    2664,
    2664,
    2664,
    2664,
    2664,
    2664,
    2605,
    2606,
    2723,
    2782,
    2605,
    2782,
    2783,
    2784,
    2785,
    2786,
    66,
    66,
    66,
    66,
    66,
    66,
    66,
    66,
    66,
    66,
    66,
    66,
    66,
    66,
    66,
    66,
    66,
    66,
    66,
    66,
    66,
    66,
    66,
    66,
    66,
    66,
    66,
    66,
    66,
    66,
    66,
    66,
    66,
    66,
    66,
    66,
    66,
    66,
    66,
    66,
    66,
    66,
    2782,
    2783,
    2784,
    2785,
    2786,
    2786,
    2605,
    2606,
    2607,
    2608,
    2782,
    2783,
    2784,
    2782,
    2783,
    2784,
    2785,
    2786,
    2609,
    2609,
    2609,
    2609,
    2609,
    2609,
    2609,
    2668,
    2668,
    2668,
    2668,
    2668,
    2668,
    2727,
    2727,
    2727,
    2786,
    2606,
    2607,
    2608,
    2609,
    2609,
    2609,
    2609,
    2723,
    2664,
    2605,
    2606,
    2607,
    2608,
    2605,
    2664,
    2664,
    2664,
    2723,
    2782,
    2782,
    2782,
    2782,
    2782,
    2782,
    2783,
    2784,
    2785,
    2786,
    2782,
    2782,
    2782,
    2783,
    2784,
    2785,
    2786,
    2782,
    2782,
    2723,
    2723,
    2782,
    2783,
    2782,
    2783,
    2784,
    2785,
    2786,
    2782,
    2605,
    2606,
    2607,
    2608,
    2605,
    2606,
    2607,
    2608,
    2609,
    2609,
    2609,
    2609,
    2609,
    2609,
    2609,
    2609,
    2609,
    2609,
    2605,
    2606,
    2782,
    2783,
    2664,
    2782,
    2783,
    2784,
    2785,
    2786,
    2609,
    2609,
    66,
    66,
    66,
    66,
    66,
    66,
    66,
    66,
    66,
    66,
    66,
    66,
    66,
    66,
    66,
    66,
    66,
    66,
    66,
    66,
    66,
    66,
    66,
    66,
    66,
    66,
    66,
    66,
    66,
    66,
    66,
    66,
    66,
    66,
    66,
    66,
    66,
    66,
    66,
    66,
    66,
    66,
    66,
    2782,
    2783,
    2784,
    2664,
    2605,
    2606,
    2607,
    2782,
    2783,
    2784,
    2782,
    2783,
    2784,
    2785,
    2786,
    2609,
    2668,
    2668,
    2668,
    2668,
    2668,
    2668,
    2727,
    2727,
    2727,
    2727,
    2727,
    2727,
    2786,
    2786,
    2786,
    2609,
    2609,
    2609,
    2609,
    2668,
    2668,
    2668,
    2668,
    2782,
    2723,
    2664,
    2605,
    2605,
    2605,
    2664,
    2723,
    2723,
    2723,
    2782,
    2782,
    2783,
    2784,
    2785,
    2786,
    2605,
    2605,
    2605,
    2605,
    2605,
    2605,
    2605,
    2782,
    2783,
    2784,
    2785,
    2786,
    2664,
    2664,
    2782,
    2782,
    2782,
    2783,
    2782,
    2783,
    2784,
    2785,
    2786,
    2605,
    2606,
    2607,
    2608,
    2609,
    2664,
    2665,
    2666,
    2667,
    2668,
    2668,
    2668,
    2668,
    2668,
    2668,
    2668,
    2668,
    2668,
    2668,
    2605,
    2606,
    2782,
    2783,
    2723,
    2782,
    2783,
    2784,
    2785,
    2786,
    2668,
    2668,
    66,
    66,
    66,
    66,
    66,
    66,
    66,
    66,
    66,
    66,
    66,
    66,
    66,
    66,
    66,
    66,
    66,
    66,
    66,
    66,
    66,
    66,
    66,
    66,
    66,
    66,
    66,
    66,
    66,
    66,
    66,
    66,
    66,
    66,
    66,
    66,
    66,
    66,
    66,
    66,
    66,
    66,
    66,
    66,
    66,
    66,
    2723,
    2605,
    2606,
    2607,
    2782,
    2783,
    2784,
    2782,
    2783,
    2784,
    2785,
    2786,
    2609,
    2727,
    2727,
    2727,
    2727,
    2727,
    2727,
    2786,
    2786,
    2786,
    2786,
    2786,
    2786,
    2605,
    2605,
    2605,
    2605,
    2605,
    2605,
    2605,
    2605,
    2605,
    2605,
    2605,
    2605,
    2782,
    2723,
    2664,
    2664,
    2664,
    2723,
    2782,
    2782,
    2782,
    2783,
    2784,
    2785,
    2786,
    2664,
    2664,
    2664,
    2664,
    2664,
    2664,
    2664,
    2664,
    2664,
    2782,
    2783,
    2784,
    2785,
    2786,
    2723,
    2723,
    2723,
    2723,
    2723,
    2723,
    2782,
    2783,
    2784,
    2785,
    2605,
    2606,
    2607,
    2608,
    2609,
    2609,
    2723,
    2724,
    2725,
    2726,
    2727,
    2727,
    2727,
    2727,
    2727,
    2727,
    2727,
    2727,
    2727,
    2727,
    2664,
    2605,
    2782,
    2783,
    2782,
    2782,
    2783,
    2784,
    2785,
    2786,
    2727,
    2727,
    66,
    66,
    66,
    66,
    66,
    66,
    66,
    66,
    66,
    66,
    66,
    66,
    66,
    66,
    66,
    66,
    66,
    66,
    66,
    66,
    66,
    66,
    66,
    66,
    66,
    66,
    66,
    66,
    66,
    66,
    66,
    66,
    66,
    66,
    66,
    66,
    66,
    66,
    66,
    66,
    66,
    66,
    66,
    66,
    66,
    66,
    2782,
    2605,
    2606,
    2607,
    2782,
    2783,
    2784,
    2782,
    2783,
    2784,
    2785,
    2786,
    2609,
    2786,
    2786,
    2786,
    2786,
    2786,
    2786,
    2605,
    2605,
    2605,
    2605,
    2605,
    2605,
    2605,
    2605,
    2664,
    2664,
    2664,
    2664,
    2664,
    2664,
    2664,
    2664,
    2664,
    2664,
    2664,
    2782,
    2723,
    2723,
    2723,
    2782,
    2782,
    2783,
    2784,
    2785,
    2786,
    2723,
    2723,
    2723,
    2723,
    2723,
    2723,
    2723,
    2723,
    2723,
    2723,
    2723,
    2782,
    2783,
    2784,
    2785,
    2786,
    2782,
    2782,
    2782,
    2782,
    2782,
    2782,
    2782,
    2783,
    2784,
    2605,
    2606,
    2607,
    2608,
    2609,
    2609,
    2668,
    2782,
    2783,
    2784,
    2785,
    2786,
    2786,
    2786,
    2786,
    2786,
    2786,
    2786,
    2786,
    2786,
    2786,
    2723,
    2605,
    2782,
    2783,
    2784,
    2785,
    2786,
    2784,
    2785,
    2786,
    2609,
    2786,
    66,
    66,
    66,
    66,
    66,
    66,
    66,
    66,
    66,
    66,
    66,
    66,
    66,
    66,
    66,
    66,
    66,
    66,
    66,
    66,
    66,
    66,
    66,
    66,
    66,
    66,
    66,
    66,
    66,
    66,
    66,
    66,
    66,
    66,
    66,
    66,
    66,
    66,
    66,
    66,
    66,
    66,
    66,
    66,
    66,
    66,
    66,
    2605,
    2606,
    2607,
    2782,
    2783,
    2784,
    2782,
    2783,
    2784,
    2785,
    2786,
    2609,
    2784,
    2785,
    2786,
    2782,
    2605,
    2605,
    2664,
    2664,
    2664,
    2664,
    2664,
    2664,
    2664,
    2664,
    2723,
    2723,
    2723,
    2723,
    2723,
    2723,
    2723,
    2723,
    2723,
    2723,
    2723,
    2723,
    2782,
    2782,
    2782,
    2783,
    2784,
    2785,
    2786,
    2782,
    2782,
    2782,
    2782,
    2782,
    2782,
    2782,
    2782,
    2782,
    2782,
    2782,
    2782,
    2782,
    2782,
    2783,
    2784,
    2785,
    2786,
    2783,
    2784,
    2785,
    2786,
    2609,
    2609,
    2782,
    2783,
    2605,
    2606,
    2607,
    2608,
    2609,
    2609,
    2668,
    2727,
    2723,
    2782,
    2782,
    2783,
    2784,
    2605,
    2605,
    2605,
    2605,
    2605,
    2605,
    2605,
    2605,
    2605,
    2782,
    2605,
    2782,
    2783,
    2784,
    2785,
    2786,
    2784,
    2785,
    2786,
    2668,
    66,
    66,
    66,
    66,
    66,
    66,
    66,
    66,
    66,
    66,
    66,
    66,
    66,
    66,
    66,
    66,
    66,
    66,
    66,
    66,
    66,
    66,
    66,
    66,
    66,
    66,
    66,
    66,
    66,
    66,
    66,
    66,
    66,
    66,
    66,
    66,
    66,
    66,
    66,
    66,
    66,
    66,
    66,
    66,
    66,
    66,
    66,
    66,
    2605,
    2606,
    2605,
    2782,
    2783,
    2784,
    2782,
    2783,
    2784,
    2785,
    2786,
    2609,
    2784,
    2785,
    2786,
    2727,
    2664,
    2664,
    2723,
    2723,
    2723,
    2723,
    2723,
    2723,
    2723,
    2723,
    2782,
    2782,
    2782,
    2782,
    2782,
    2782,
    2607,
    2782,
    2783,
    2784,
    2782,
    2783,
    2784,
    2785,
    2782,
    2782,
    2782,
    2782,
    2783,
    2784,
    2785,
    2786,
    2783,
    2784,
    2785,
    2786,
    2668,
    2668,
    2668,
    2668,
    2668,
    2609,
    2782,
    2783,
    2784,
    2785,
    2786,
    2609,
    2609,
    2609,
    2668,
    2668,
    2668,
    2605,
    2606,
    2607,
    2608,
    2609,
    2609,
    2668,
    2668,
    2727,
    2786,
    2782,
    2782,
    2783,
    2784,
    2785,
    2664,
    2664,
    2664,
    2664,
    2664,
    2664,
    2664,
    2664,
    2664,
    2664,
    2605,
    2782,
    2783,
    2784,
    2785,
    2786,
    2784,
    2785,
    2786,
    2727,
    66,
    66,
    66,
    66,
    66,
    66,
    66,
    66,
    66,
    66,
    66,
    66,
    66,
    66,
    66,
    66,
    66,
    66,
    66,
    66,
    66,
    66,
    66,
    66,
    66,
    66,
    66,
    66,
    66,
    66,
    66,
    66,
    66,
    66,
    66,
    66,
    66,
    66,
    66,
    66,
    66,
    66,
    66,
    66,
    66,
    66,
    66,
    66,
    2664,
    2605,
    2664,
    2782,
    2782,
    2783,
    2782,
    2783,
    2784,
    2785,
    2786,
    2609,
    2783,
    2784,
    2785,
    2786,
    2723,
    2723,
    2782,
    2782,
    2782,
    2782,
    2782,
    2782,
    2782,
    2782,
    2783,
    2784,
    2785,
    2786,
    2727,
    2727,
    2607,
    2782,
    2605,
    2605,
    2605,
    2606,
    2607,
    2608,
    2727,
    2727,
    2727,
    2727,
    2727,
    2727,
    2727,
    2727,
    2727,
    2727,
    2727,
    2727,
    2727,
    2727,
    2727,
    2727,
    2727,
    2668,
    2782,
    2783,
    2784,
    2785,
    2786,
    2668,
    2668,
    2668,
    2727,
    2727,
    2605,
    2606,
    2607,
    2608,
    2609,
    2609,
    2668,
    2727,
    2727,
    2786,
    2786,
    2727,
    2605,
    2605,
    2723,
    2782,
    2723,
    2723,
    2723,
    2723,
    2723,
    2723,
    2723,
    2723,
    2723,
    2723,
    2664,
    2782,
    2783,
    2784,
    2785,
    2786,
    2784,
    2785,
    2786,
    2786,
    66,
    66,
    66,
    66,
    66,
    66,
    66,
    66,
    66,
    66,
    66,
    66,
    66,
    66,
    66,
    66,
    66,
    66,
    66,
    66,
    66,
    66,
    66,
    66,
    66,
    66,
    66,
    66,
    66,
    66,
    66,
    66,
    66,
    66,
    66,
    66,
    66,
    66,
    66,
    66,
    66,
    66,
    66,
    66,
    66,
    66,
    66,
    66,
    2723,
    2605,
    2723,
    2782,
    2782,
    2783,
    2607,
    2782,
    2783,
    2784,
    2782,
    2783,
    2784,
    2785,
    2785,
    2785,
    2785,
    2785,
    2785,
    2785,
    2785,
    2785,
    2785,
    2785,
    2785,
    2785,
    2785,
    2785,
    2785,
    2783,
    2784,
    2785,
    2609,
    2605,
    2664,
    2664,
    2605,
    2605,
    2605,
    2605,
    2786,
    2786,
    2786,
    2786,
    2786,
    2786,
    2786,
    2786,
    2786,
    2786,
    2786,
    2786,
    2786,
    2786,
    2786,
    2786,
    2786,
    2727,
    2782,
    2783,
    2784,
    2785,
    2786,
    2727,
    2727,
    2727,
    2786,
    2786,
    2605,
    2606,
    2607,
    2608,
    2609,
    2668,
    2727,
    2786,
    2786,
    2784,
    2785,
    2786,
    2664,
    2664,
    2782,
    2783,
    2782,
    2782,
    2782,
    2782,
    2782,
    2782,
    2782,
    2782,
    2782,
    2782,
    2723,
    2607,
    2607,
    2782,
    2783,
    2784,
    2782,
    2783,
    2784,
    2785,
    66,
    66,
    66,
    66,
    66,
    66,
    66,
    66,
    66,
    66,
    66,
    66,
    66,
    66,
    66,
    66,
    66,
    66,
    66,
    66,
    66,
    66,
    66,
    66,
    66,
    66,
    66,
    66,
    66,
    66,
    66,
    66,
    66,
    66,
    66,
    66,
    66,
    66,
    66,
    66,
    66,
    66,
    66,
    66,
    66,
    66,
    66,
    66,
    2782,
    2664,
    2607,
    2782,
    2783,
    2784,
    2782,
    2783,
    2784,
    2785,
    2785,
    2785,
    2785,
    2785,
    2608,
    2608,
    2608,
    2608,
    2608,
    2608,
    2608,
    2608,
    2608,
    2608,
    2608,
    2608,
    2608,
    2608,
    2608,
    2785,
    2785,
    2785,
    2609,
    2606,
    2605,
    2605,
    2664,
    2664,
    2664,
    2605,
    2607,
    2607,
    2607,
    2607,
    2607,
    2607,
    2607,
    2607,
    2607,
    2607,
    2607,
    2607,
    2607,
    2607,
    2607,
    2607,
    2607,
    2607,
    2607,
    2607,
    2607,
    2607,
    2607,
    2607,
    2607,
    2607,
    2607,
    2607,
    2607,
    2607,
    2607,
    2607,
    2607,
    2607,
    2607,
    2607,
    2607,
    2607,
    2607,
    2782,
    2783,
    2784,
    2782,
    2783,
    2784,
    2785,
    2607,
    2607,
    2607,
    2607,
    2607,
    2607,
    2607,
    2607,
    2607,
    2607,
    2607,
    2782,
    2605,
    2605,
    2605,
    2606,
    2607,
    2608,
    66,
    66,
    66,
    66,
    66,
    66,
    66,
    66,
    66,
    66,
    66,
    66,
    66,
    66,
    66,
    66,
    66,
    66,
    66,
    66,
    66,
    66,
    66,
    66,
    66,
    66,
    66,
    66,
    66,
    66,
    66,
    66,
    66,
    66,
    66,
    66,
    66,
    66,
    66,
    66,
    66,
    66,
    66,
    66,
    66,
    66,
    66,
    66,
    66,
    2723,
    2607,
    2782,
    2605,
    2605,
    2605,
    2606,
    2607,
    2608,
    2608,
    2608,
    2608,
    2608,
    2605,
    2605,
    2605,
    2605,
    2605,
    2605,
    2605,
    2605,
    2605,
    2605,
    2605,
    2605,
    2605,
    2605,
    2605,
    2608,
    2608,
    2608,
    2609,
    2609,
    2664,
    2664,
    2723,
    2723,
    2605,
    2664,
    2785,
    2785,
    2785,
    2607,
    2607,
    2607,
    2607,
    2607,
    2607,
    2607,
    2607,
    2607,
    2607,
    2607,
    2607,
    2607,
    2607,
    2607,
    2607,
    2607,
    2607,
    2607,
    2607,
    2607,
    2607,
    2607,
    2607,
    2607,
    2607,
    2607,
    2607,
    2607,
    2607,
    2607,
    2607,
    2607,
    2607,
    2607,
    2607,
    2782,
    2783,
    2784,
    2782,
    2783,
    2784,
    2785,
    2785,
    2785,
    2607,
    2607,
    2607,
    2607,
    2607,
    2607,
    2607,
    2609,
    2609,
    2605,
    2664,
    2664,
    2605,
    2605,
    2605,
    2605,
    0,
    66,
    66,
    66,
    66,
    66,
    66,
    66,
    66,
    66,
    66,
    66,
    66,
    66,
    66,
    66,
    66,
    66,
    66,
    66,
    66,
    66,
    66,
    66,
    66,
    66,
    66,
    66,
    66,
    66,
    66,
    66,
    66,
    66,
    66,
    66,
    66,
    66,
    66,
    66,
    66,
    66,
    66,
    66,
    66,
    66,
    66,
    66,
    66,
    2782,
    2609,
    2605,
    2664,
    2664,
    2605,
    2605,
    2605,
    2605,
    2605,
    2605,
    2605,
    2605,
    2605,
    2605,
    2605,
    2605,
    2605,
    2605,
    2605,
    2605,
    2605,
    2605,
    2605,
    2605,
    2605,
    2605,
    2605,
    2605,
    2605,
    2605,
    2607,
    2608,
    2609,
    2605,
    2605,
    2605,
    2664,
    2723,
    2608,
    2608,
    2608,
    2785,
    2785,
    2785,
    2785,
    2785,
    2785,
    2785,
    2785,
    2785,
    2785,
    2785,
    2785,
    2785,
    2785,
    2785,
    2785,
    2785,
    2785,
    2785,
    2785,
    2785,
    2785,
    2785,
    2785,
    2785,
    2785,
    2785,
    2785,
    2785,
    2785,
    2785,
    2785,
    2785,
    2785,
    2785,
    2785,
    2785,
    2785,
    2785,
    2785,
    2785,
    2785,
    2785,
    2608,
    2608,
    2609,
    2609,
    2609,
    2609,
    2609,
    2609,
    2609,
    2609,
    2609,
    2606,
    2605,
    2605,
    2664,
    2664,
    2664,
    2605,
    0,
    66,
    66,
    66,
    66,
    66,
    66,
    66,
    66,
    66,
    66,
    66,
    66,
    66,
    66,
    66,
    66,
    66,
    66,
    66,
    66,
    66,
    66,
    66,
    66,
    66,
    66,
    66,
    66,
    66,
    66,
    66,
    66,
    66,
    66,
    66,
    66,
    66,
    66,
    66,
    66,
    66,
    66,
    66,
    66,
    66,
    66,
    66,
    66,
    2782,
    2609,
    2606,
    2605,
    2605,
    2664,
    2664,
    2664,
    2605,
    2605,
    2605,
    2605,
    2605,
    2664,
    2664,
    2664,
    2664,
    2664,
    2664,
    2664,
    2664,
    2664,
    2664,
    2664,
    2664,
    2664,
    2664,
    2664,
    2605,
    2605,
    2605,
    2607,
    2608,
    2605,
    2664,
    2664,
    2664,
    2723,
    2782,
    2605,
    2605,
    2605,
    2608,
    2608,
    2608,
    2608,
    2608,
    2608,
    2608,
    2608,
    2608,
    2608,
    2608,
    2608,
    2608,
    2608,
    2608,
    2608,
    2608,
    2608,
    2608,
    2608,
    2608,
    2608,
    2608,
    2608,
    2608,
    2608,
    2608,
    2608,
    2608,
    2608,
    2608,
    2608,
    2608,
    2608,
    2608,
    2608,
    2608,
    2608,
    2608,
    2608,
    2608,
    2608,
    2608,
    2605,
    2605,
    2609,
    2609,
    2609,
    2609,
    2609,
    2609,
    2609,
    2609,
    2609,
    2609,
    2664,
    2664,
    2723,
    2723,
    2605,
    2664,
    66,
    66,
    66,
    66,
    66,
    66,
    66,
    66,
    66,
    66,
    66,
    66,
    66,
    66,
    66,
    66,
    66,
    66,
    66,
    66,
    66,
    66,
    66,
    66,
    66,
    66,
    66,
    66,
    66,
    66,
    66,
    66,
    66,
    66,
    66,
    66,
    66,
    66,
    66,
    66,
    66,
    66,
    66,
    66,
    66,
    66,
    66,
    66,
    66,
    66,
    2609,
    2609,
    2664,
    2664,
    2723,
    2723,
    2605,
    2664,
    2664,
    2664,
    2664,
    2664,
    2723,
    2723,
    2723,
    2723,
    2723,
    2723,
    2723,
    2723,
    2723,
    2723,
    2723,
    2723,
    2723,
    2723,
    2723,
    2664,
    2664,
    2664,
    2605,
    2605,
    2664,
    2723,
    2723,
    2723,
    2782,
    2782,
    2605,
    2605,
    2605,
    2605,
    2605,
    2605,
    2605,
    2605,
    2605,
    2605,
    2605,
    2605,
    2605,
    2605,
    2605,
    2605,
    2605,
    2605,
    2605,
    2605,
    2605,
    2605,
    2605,
    2605,
    2605,
    2605,
    2605,
    2605,
    2605,
    2605,
    2605,
    2605,
    2605,
    2605,
    2605,
    2605,
    2605,
    2605,
    2605,
    2605,
    2605,
    2605,
    2605,
    2605,
    2605,
    2605,
    2605,
    2605,
    2609,
    2609,
    2609,
    2609,
    2609,
    2609,
    2609,
    2607,
    2607,
    2608,
    2609,
    2605,
    2605,
    2605,
    2664,
    2723,
    66,
    66,
    66,
    66,
    66,
    66,
    66,
    66,
    66,
    66,
    66,
    66,
    66,
    66,
    66,
    66,
    66,
    66,
    66,
    66,
    66,
    66,
    66,
    66,
    66,
    66,
    66,
    66,
    66,
    66,
    66,
    66,
    66,
    66,
    66,
    66,
    66,
    66,
    66,
    66,
    66,
    66,
    66,
    66,
    66,
    66,
    66,
    66,
    66,
    66,
    2607,
    2608,
    2609,
    2605,
    2605,
    2605,
    2664,
    2723,
    2723,
    2723,
    2723,
    2723,
    2782,
    2782,
    2782,
    2782,
    2782,
    2782,
    2782,
    2782,
    2782,
    2782,
    2782,
    2782,
    2782,
    2782,
    2782,
    2723,
    2723,
    2723,
    2664,
    2664,
    2723,
    2782,
    2782,
    2782,
    2783,
    2784,
    2664,
    2664,
    2664,
    2605,
    2605,
    2605,
    2605,
    2605,
    2605,
    2605,
    2605,
    2605,
    2605,
    2605,
    2605,
    2605,
    2605,
    2605,
    2605,
    2605,
    2605,
    2605,
    2605,
    2605,
    2605,
    2605,
    2605,
    2605,
    2605,
    2605,
    2605,
    2605,
    2605,
    2605,
    2605,
    2605,
    2605,
    2605,
    2605,
    2605,
    2605,
    2605,
    2605,
    2605,
    2605,
    2605,
    2664,
    2664,
    2607,
    2607,
    2607,
    2607,
    2607,
    2607,
    2607,
    2607,
    2607,
    2608,
    2605,
    2664,
    2664,
    2664,
    2723,
    2782,
    66,
    66,
    66,
    66,
    66,
    66,
    66,
    66,
    66,
    66,
    66,
    66,
    66,
    66,
    66,
    66,
    66,
    66,
    66,
    66,
    66,
    66,
    66,
    66,
    66,
    66,
    66,
    66,
    66,
    66,
    66,
    66,
    66,
    66,
    66,
    66,
    66,
    66,
    66,
    66,
    66,
    66,
    66,
    66,
    66,
    66,
    66,
    66,
    66,
    66,
    2607,
    2608,
    2605,
    2664,
    2664,
    2664,
    2723,
    2782,
    2782,
    2782,
    2782,
    2782,
    2782,
    2782,
    2782,
    2782,
    2782,
    2782,
    2782,
    2782,
    2782,
    2782,
    2782,
    2782,
    2782,
    2782,
    2782,
    2782,
    2782,
    2782,
    2723,
    2723,
    2782,
    2782,
    2783,
    2784,
    2785,
    2786,
    2723,
    2723,
    2723,
    2664,
    2664,
    2664,
    2664,
    2664,
    2664,
    2664,
    2664,
    2664,
    2664,
    2664,
    2664,
    2664,
    2664,
    2664,
    2664,
    2664,
    2664,
    2664,
    2664,
    2664,
    2664,
    2664,
    2664,
    2664,
    2664,
    2664,
    2664,
    2664,
    2664,
    2664,
    2664,
    2664,
    2664,
    2664,
    2664,
    2664,
    2664,
    2664,
    2664,
    2664,
    2664,
    2664,
    2723,
    2723,
    2607,
    2607,
    2607,
    2607,
    2607,
    2607,
    2607,
    2605,
    2605,
    2605,
    2664,
    2723,
    2723,
    2723,
    2782,
    2782,
    66,
    66,
    66,
    66,
    66,
    66,
    66,
    66,
    66,
    66,
    66,
    66,
    66,
    66,
    66,
    66,
    66,
    66,
    66,
    66,
    66,
    66,
    66,
    66,
    66,
    66,
    66,
    66,
    66,
    66,
    66,
    66,
    66,
    66,
    66,
    66,
    66,
    66,
    66,
    66,
    66,
    66,
    66,
    66,
    66,
    66,
    66,
    66,
    66,
    66,
    2605,
    2605,
    2664,
    2723,
    2723,
    2723,
    2782,
    2782,
    2782,
    2782,
    2782,
    2782,
    2784,
    2784,
    2784,
    2784,
    2784,
    2784,
    2784,
    2784,
    2784,
    2784,
    2784,
    2784,
    2784,
    2784,
    2784,
    2782,
    2782,
    2782,
    2782,
    2782,
    2783,
    2784,
    2785,
    2786,
    2782,
    2782,
    2782,
    2782,
    2782,
    2723,
    2723,
    2723,
    2723,
    2723,
    2723,
    2723,
    2723,
    2723,
    2723,
    2723,
    2723,
    2723,
    2723,
    2723,
    2723,
    2723,
    2723,
    2723,
    2723,
    2723,
    2723,
    2723,
    2723,
    2723,
    2723,
    2723,
    2723,
    2723,
    2723,
    2723,
    2723,
    2723,
    2723,
    2723,
    2723,
    2723,
    2723,
    2723,
    2723,
    2723,
    2723,
    2723,
    2782,
    2782,
    2605,
    2605,
    2605,
    2605,
    2605,
    2605,
    2605,
    2664,
    2664,
    2664,
    2723,
    2782,
    2782,
    2782,
    2783,
    2784,
    66,
    66,
    66,
    66,
    66,
    66,
    66,
    66,
    66,
    66,
    66,
    66,
    66,
    66,
    66,
    66,
    66,
    66,
    66,
    66,
    66,
    66,
    66,
    66,
    66,
    66,
    66,
    66,
    66,
    66,
    66,
    66,
    66,
    66,
    66,
    66,
    66,
    66,
    66,
    66,
    66,
    66,
    66,
    66,
    66,
    66,
    66,
    66,
    66,
    66,
    2664,
    2664,
    2723,
    2782,
    2782,
    2782,
    2783,
    2784,
    2784,
    2784,
    2784,
    2784,
    2786,
    2786,
    2786,
    2786,
    2786,
    2786,
    2786,
    2786,
    2786,
    2786,
    2786,
    2786,
    2786,
    2786,
    2786,
    2784,
    2784,
    2784,
    2782,
    2782,
    2782,
    2782,
    2782,
    2783,
    2784,
    2785,
    2782,
    2782,
    2782,
    2782,
    2782,
    2782,
    2782,
    2782,
    2782,
    2782,
    2782,
    2782,
    2782,
    2782,
    2782,
    2782,
    2782,
    2782,
    2782,
    2782,
    2782,
    2782,
    2782,
    2782,
    2782,
    2782,
    2782,
    2782,
    2782,
    2782,
    2782,
    2782,
    2782,
    2782,
    2782,
    2782,
    2782,
    2782,
    2782,
    2782,
    2782,
    2782,
    2782,
    2782,
    2782,
    2782,
    2782,
    2782,
    2664,
    2664,
    2664,
    2664,
    2664,
    2664,
    2664,
    2723,
    2723,
    2723,
    2782,
    2782,
    2783,
    2784,
    2785,
    2786,
    66,
    66,
    66,
    66,
    66,
    66,
    66,
    66,
    66,
    66,
    66,
    66,
    66,
    66,
    66,
    66,
    66,
    66,
    66,
    66,
    66,
    66,
    66,
    66,
    66,
    66,
    66,
    66,
    66,
    66,
    66,
    66,
    66,
    66,
    66,
    66,
    66,
    66,
    66,
    66,
    66,
    66,
    66,
    66,
    66,
    66,
    66,
    66,
    66,
    66,
    2723,
    2723,
    2782,
    2782,
    2783,
    2784,
    2785,
    2786,
    2786,
    2786,
    2786,
    2786,
    2782,
    2782,
    2782,
    2782,
    2782,
    2782,
    2782,
    2782,
    2782,
    2782,
    2782,
    2782,
    2782,
    2782,
    2782,
    2786,
    2786,
    2786,
    2727,
    2727,
    2727,
    2727,
    2727,
    2727,
    2727,
    2727,
    2784,
    2784,
    2784,
    2782,
    2782,
    2782,
    2782,
    2782,
    2782,
    2782,
    2782,
    2782,
    2782,
    2782,
    2782,
    2782,
    2782,
    2782,
    2782,
    2782,
    2782,
    2782,
    2782,
    2782,
    2782,
    2782,
    2782,
    2782,
    2782,
    2782,
    2782,
    2782,
    2782,
    2782,
    2782,
    2782,
    2782,
    2782,
    2782,
    2782,
    2782,
    2782,
    2782,
    2782,
    2782,
    2782,
    2784,
    2784,
    2723,
    2723,
    2723,
    2723,
    2723,
    2723,
    2723,
    2782,
    2782,
    2782,
    2783,
    2784,
    2785,
    2786,
    2782,
    2782,
    66,
    66,
    66,
    66,
    66,
    66,
    66,
    66,
    66,
    66,
    66,
    66,
    66,
    66,
    66,
    66,
    66,
    66,
    66,
    66,
    66,
    66,
    66,
    66,
    66,
    66,
    66,
    66,
    66,
    66,
    66,
    66,
    66,
    66,
    66,
    66,
    66,
    66,
    66,
    66,
    66,
    66,
    66,
    66,
    66,
    66,
    66,
    66,
    66,
    66,
    2782,
    2782,
    2783,
    2784,
    2785,
    2786,
    2782,
    2782,
    2782,
    2782,
    2782,
    2782,
    2785,
    2785,
    2785,
    2785,
    2785,
    2785,
    2785,
    2785,
    2785,
    2785,
    2785,
    2785,
    2785,
    2785,
    2785,
    2782,
    2782,
    2782,
    2786,
    2786,
    2786,
    2786,
    2786,
    2786,
    2786,
    2786,
    2786,
    2786,
    2786,
    2784,
    2784,
    2784,
    2784,
    2784,
    2784,
    2784,
    2784,
    2784,
    2784,
    2784,
    2784,
    2784,
    2784,
    2784,
    2784,
    2784,
    2784,
    2784,
    2784,
    2784,
    2784,
    2784,
    2784,
    2784,
    2784,
    2784,
    2784,
    2784,
    2784,
    2784,
    2784,
    2784,
    2784,
    2784,
    2784,
    2784,
    2784,
    2784,
    2784,
    2784,
    2784,
    2784,
    2786,
    2786,
    2782,
    2782,
    2782,
    2782,
    2782,
    2782,
    2782,
    2782,
    2782,
    2782,
    2782,
    2782,
    2782,
    2783,
    2784,
    2785,
    66,
    66,
    66,
    66,
    66,
    66,
    66,
    66,
    66,
    66,
    66,
    66,
    66,
    66,
    66,
    66,
    66,
    66,
    66,
    66,
    66,
    66,
    66,
    66,
    66,
    66,
    66,
    66,
    66,
    66,
    66,
    66,
    66,
    66,
    66,
    66,
    66,
    66,
    66,
    66,
    66,
    66,
    66,
    66,
    66,
    66,
    66,
    66,
    66,
    66,
    2782,
    2782,
    2782,
    2782,
    2782,
    2783,
    2784,
    2785,
    2785,
    2785,
    2785,
    2785,
    2727,
    2727,
    2727,
    2727,
    2727,
    2727,
    2727,
    2727,
    2727,
    2727,
    2727,
    2727,
    2727,
    2727,
    2727,
    2785,
    2785,
    2785,
    2782,
    2782,
    2782,
    2782,
    2782,
    2782,
    2782,
    2782,
    2782,
    2782,
    2782,
    2786,
    2786,
    2786,
    2786,
    2786,
    2786,
    2786,
    2786,
    2786,
    2786,
    2786,
    2786,
    2786,
    2786,
    2786,
    2786,
    2786,
    2786,
    2786,
    2786,
    2786,
    2786,
    2786,
    2786,
    2786,
    2786,
    2786,
    2786,
    2786,
    2786,
    2786,
    2786,
    2786,
    2786,
    2786,
    2786,
    2786,
    2786,
    2786,
    2786,
    2786,
    2786,
    2786,
    2782,
    2782,
    2782,
    2782,
    2782,
    2782,
    2782,
    2782,
    2782,
    2727,
    2727,
    2727,
    2727,
    2727,
    2727,
    2727,
    2727,
    2727,
    66,
    66,
    66,
    66,
    66,
    66,
    66,
    66,
    66,
    66,
    66,
    66,
    66,
    66,
    66,
    66,
    66,
    66,
    66,
    66,
    66,
    66,
    66,
    66,
    66,
    66,
    66,
    66,
    66,
    66,
    66,
    66,
    66,
    66,
    66,
    66,
    66,
    66,
    66,
    66,
    66,
    66,
    66,
    66,
    66,
    66,
    66,
    66,
    66,
    66,
    2727,
    2727,
    2727,
    2727,
    2727,
    2727,
    2727,
    2727,
    2727,
    2727,
    2727,
    2727,
    66,
    66,
    66,
    66,
    66,
    66,
    2727,
    2727,
    2727,
    2727,
    2727,
    2727,
    2727,
    2727,
    2727,
    2727,
    2727,
    2727,
    2785,
    2785,
    2785,
    2785,
    2785,
    2785,
    2785,
    2785,
    2785,
    2785,
    2785,
    2782,
    2782,
    2782,
    2782,
    2782,
    2782,
    2782,
    2782,
    2782,
    2782,
    2782,
    2782,
    2782,
    2782,
    2782,
    2782,
    2782,
    2782,
    2782,
    2782,
    2782,
    2782,
    2782,
    2782,
    2782,
    2782,
    2782,
    2782,
    2782,
    2782,
    2782,
    2782,
    2782,
    2782,
    2782,
    2782,
    2782,
    2782,
    2782,
    2782,
    2782,
    2782,
    2782,
    2785,
    2785,
    2727,
    2727,
    2727,
    2727,
    2727,
    2727,
    2727,
    2727,
    2727,
    2727,
    2727,
    2727,
    2727,
    2727,
    2727,
    66,
    66,
    66,
    66,
    66,
    66,
    66,
    66,
    66,
    66,
    66,
    66,
    66,
    66,
    66,
    66,
    66,
    66,
    66,
    66,
    66,
    66,
    66,
    66,
    66,
    66,
    66,
    66,
    66,
    66,
    66,
    66,
    66,
    66,
    66,
    66,
    66,
    66,
    66,
    66,
    66,
    66,
    66,
    66,
    66,
    66,
    66,
    66,
    66,
    66,
    66,
    66,
    66,
    66,
    66,
    66,
    66,
    66,
    66,
    66,
    66,
    66,
    66,
    66,
    66,
    66,
    66,
    66,
    66,
    2727,
    2727,
    2727,
    2727,
    2727,
    2727,
    2727,
    2727,
    2727,
    2727,
    2727,
    2727,
    2727,
    2727,
    2727,
    2727,
    2727,
    2727,
    2727,
    2727,
    2727,
    2727,
    2727,
    2785,
    2785,
    2785,
    2785,
    2785,
    2785,
    2785,
    2785,
    2785,
    2785,
    2785,
    2785,
    2785,
    2785,
    2785,
    2785,
    2785,
    2785,
    2785,
    2785,
    2785,
    2785,
    2785,
    2785,
    2785,
    2785,
    2785,
    2785,
    2785,
    2785,
    2785,
    2785,
    2785,
    2785,
    2785,
    2785,
    2785,
    2785,
    2785,
    2785,
    2785,
    2785,
    2785,
    2727,
    2727,
    2727,
    2727,
    2727,
    2727,
    2727,
    2727,
    2727,
    2727,
    2785,
    66,
    66,
    66,
    66,
    66,
    66,
    66,
    66,
    66,
    66,
    66,
    66,
    66,
    66,
    66,
    66,
    66,
    66,
    66,
    66,
    66,
    66,
    66,
    66,
    66,
    66,
    66,
    66,
    66,
    66,
    66,
    66,
    66,
    66,
    66,
    66,
    66,
    66,
    66,
    66,
    66,
    66,
    66,
    66,
    66,
    66,
    66,
    66,
    66,
    66,
    66,
    66,
    66,
    66,
    66,
    66,
    66,
    66,
    66,
    66,
    66,
    66,
    66,
    66,
    66,
    66,
    66,
    66,
    66,
    66,
    66,
    66,
    66,
    66,
    66,
    66,
    66,
    66,
    66,
    66,
    66,
    66,
    66,
    66,
    66,
    66,
    66,
    66,
    66,
    66,
    66,
    2727,
    2727,
    2727,
    2727,
    2727,
    2727,
    2727,
    2727,
    2727,
    2727,
    2727,
    2727,
    2727,
    2727,
    2727,
    2727,
    2727,
    2727,
    2727,
    2727,
    2727,
    2727,
    2727,
    2727,
    2727,
    2727,
    2727,
    2727,
    2727,
    2727,
    2727,
    2727,
    2727,
    2727,
    2727,
    2727,
    2727,
    2727,
    2727,
    2727,
    2727,
    2727,
    2727,
    2727,
    2727,
    2727,
    2727,
    2727,
    2727,
    2727,
    66,
    2727,
    2727,
    2727,
    2727,
    2727,
    2727,
    2727,
    2727,
    2727,
    2727,
    66,
    66,
    66,
    66,
    66,
    66,
    66,
    66,
    66,
    66,
    66,
    66,
    66,
    66,
    66,
    66,
    66,
    66,
    66,
    66,
    66,
    66,
    66,
    66,
    66,
    66,
    66,
    66,
    66,
    66,
    66,
    66,
    66,
    66,
    66,
    66,
    66,
    66,
    66,
    66,
    66,
    66,
    66,
    66,
    66,
    66,
    66,
    66,
    66,
    66,
    66,
    66,
    66,
    66,
    66,
    66,
    66,
    66,
    66,
    66,
    66,
    66,
    66,
    66,
    66,
    66,
    66,
    66,
    66,
    66,
    66,
    66,
    66,
    66,
    66,
    66,
    66,
    66,
    66,
    66,
    66,
    66,
    66,
    66,
    66,
    66,
    66,
    66,
    66,
    66,
    66,
    66,
    66,
    66,
    66,
    66,
    66,
    66,
    66,
    66,
    66,
    66,
    66,
    66,
    66,
    66,
    66,
    66,
    66,
    66,
    66,
    66,
    66,
    66,
    66,
    66,
    66,
    66,
    66,
    66,
    66,
    66,
    66,
    66,
    66,
    66,
    66,
    66,
    66,
    66,
    66,
    66,
    66,
    66,
    66,
    66,
    66,
    66,
    66,
    66,
    66,
    66,
    66,
    66,
    66,
    66,
    66,
    66,
    66,
    66,
    66,
    66,
    66,
    66,
    66,
    66,
    66,
    66,
    66,
    66,
    66,
    66,
    66,
    66,
    66,
    66,
    66,
    66,
    66,
    66,
    66,
    66,
    66,
    66,
    66,
    66,
    66,
    66,
    66,
    66,
    66,
    66,
    66,
    66,
    66,
    66,
    66,
    66,
    66,
    66,
    66,
    66,
    66,
    66,
    66,
    66,
    66,
    66,
    66,
    66,
    66,
    66,
    66,
    66,
    66,
    66,
    66,
    66,
    66,
    66,
    66,
    66,
    66,
    66,
    66,
    66,
    66,
    66,
    66,
    66,
    66,
    66,
    66,
    66,
    66,
    66,
    66,
    66,
    66,
    66,
    66,
    66,
    66,
    66,
    66,
    66,
    66,
    66,
    66,
    66,
    66,
    66,
    66,
    66,
    66,
    66,
    66,
    66,
    66,
    66,
    66,
    66,
    66,
    66,
    66,
    66,
    66,
    66,
    66,
    66,
    66,
    66,
    66,
    66,
    66,
    66,
    66,
    66,
    66,
    66,
    66,
    66,
    66,
    66,
    66,
    66,
    66,
    66,
    66,
    66,
    66,
    66,
    66,
    66,
    66,
    66,
    66,
    66,
    66,
    66,
    66,
    66,
    66,
    66,
    66,
    66,
    66,
    66,
    66,
    66,
    66,
    66,
    66,
    66,
    66,
    66,
    66,
    66,
    66,
    66,
    66,
    66,
    66,
    66,
    66,
    66,
    66,
    66,
    66,
    66,
    66,
    66,
    66,
    66,
    66,
    66,
    66,
    66,
    66,
    66,
    66,
    66,
    66,
    66,
    66,
    66,
    66,
    66,
    66,
    66,
    66,
    66,
    66,
    66,
    66,
    66,
    66,
    66,
    66,
    66,
    66,
    66,
    66,
    66,
    66,
    66,
    66,
    66,
    66,
    66,
    66,
    66,
    66,
    66,
    66,
    66,
    66,
    66,
    66,
    66,
    66,
    66,
    66,
    66,
    66,
    66,
    66,
    66,
    66,
    66,
    66,
    66,
    66,
    66,
    66,
    66,
    66,
    66,
    66,
    66,
    66,
    66,
    66,
    66,
    66,
    66,
    66,
    66,
    66,
    66,
    66,
    66,
    66,
    66,
    66,
    66,
    66,
    66,
    66,
    66,
    66,
    66,
    66,
    66,
    66,
    66,
    66,
    66,
    66,
    66,
    66,
    66,
    66,
    66,
    66,
    66,
    66,
    66,
    66,
    66,
    66,
    66,
    66,
    66,
    66,
    66,
    66,
    66,
    66,
    66,
    66,
    66,
    66,
    66,
    66,
    66,
    66,
    66,
    66,
    66,
    66,
    66,
    66,
    66,
    66,
    66,
    66,
    66,
    66,
    66,
    66,
    66,
    66,
    66,
    66,
    66,
    66,
    66,
    66,
    66,
    66,
    66,
    66,
    66,
    66,
    66,
    66,
    66,
    66,
    66,
    66,
    66,
    66,
    66,
    66,
    66,
    66,
    66,
    66,
    66,
    66,
    66,
    66,
    66,
    66,
    66,
    66,
    66,
    66,
    66,
    66,
    66,
    66,
    66,
    66,
    66,
    66,
    66,
    66,
    66,
    66,
    66,
    66,
    66,
    66,
    66,
    66,
    66,
    66,
    66,
    66,
    66,
    66,
    66,
    66,
    66,
    66,
    66,
    66,
    66,
    66,
    66,
    66,
    66,
    66,
    66,
    66,
    66,
    66,
    66,
    66,
    66,
    66,
    66,
    66,
    66,
    66,
    66,
    66,
    66,
    66,
    66,
    66,
    66,
    66,
    66,
    66,
    66,
    66,
    66,
    66,
    66,
    66,
    66,
    66,
    66,
    66,
    66,
    66,
    66,
    66,
    66,
    66,
    66,
    66,
    66,
    66,
    66,
    66,
    66,
    66,
    66,
    66,
    66,
    66,
    66,
    66,
    66,
    66,
    66,
    66,
    66,
    66,
    66,
    66,
    66,
    66,
    66,
    66,
    66,
    66,
    66,
    66,
    66,
    66,
    66,
    66,
    66,
    66,
    66,
    66,
    66,
    66,
    66,
    66,
    66,
    66,
    66,
    66,
    66,
    66,
    66,
    66,
    66,
    66,
    66,
    66,
    66,
    66,
    66,
    66,
    66,
    66,
    66,
    66,
    66,
    66,
    66,
    66,
    66,
    66,
    66,
    66,
    66,
    66,
    66,
    66,
    66,
    66,
    66,
    66,
    66,
    66,
    66,
    66,
    66,
    66,
    66,
    66,
    66,
    66,
    66,
    66,
    66,
    66,
    66,
    66,
    66,
    66,
    66,
    66,
    66,
    66,
    66,
    66,
    66,
    66,
    66,
    66,
    66,
    66,
    66,
    66,
    66,
    66,
    66,
    66,
    66,
    66,
    66,
    66,
    66,
    66,
    66,
    66,
    66,
    66,
    66,
    66,
    66,
    66,
    66,
    66,
    66,
    66,
    66,
    66,
    66,
    66,
    66,
    66,
    66,
    66,
    66,
    66,
    66,
    66,
    66,
    66,
    66,
    66,
    66,
    66,
    66,
    66,
    66,
    66,
    66,
    66,
    66,
    66,
    66,
    66,
    66,
    66,
    66,
    66,
    66,
    66,
    66,
    66,
    66,
    66,
    66,
    66,
    66,
    66,
    66,
    66,
    66,
    66,
    66,
    66,
    66,
    66,
    66,
    66,
    66,
    66,
    66,
    66,
    66,
    66,
    66,
    66,
    66,
    66,
    66,
    66,
    66,
    66,
    66,
    66,
    66,
    66,
    66,
    66,
    66,
    66,
    66,
    66,
    66,
    66,
    66,
    66,
    66,
    66,
    66,
    66,
    66,
    66,
    66,
    66,
    66,
    66,
    66,
    66,
    66,
    66,
    66,
    66,
    66,
    66,
    66,
    66,
    66,
    66,
    66,
    66,
    66,
    66,
    66,
    66,
    66,
    66,
    66,
    66,
    66,
    66,
    66,
    66,
    66,
    66,
    66,
    66,
    66,
    66,
    66,
    66,
    66,
    66,
    66,
    66,
    66,
    66,
    66,
    66,
    66,
    66,
    66,
    66,
    66,
    66,
    66,
    66,
    66,
    66,
    66,
    66,
    66,
    66,
    66,
    66,
    66,
    66,
    66,
    66,
    66,
    66,
    66,
    66,
    66,
    66,
    66,
    66,
    66,
    66,
    66,
    66,
    66,
    66,
    66,
    66,
    66,
    66,
    66,
    66,
    66,
    66,
    66,
    66,
    66,
    66,
    66,
    66,
    66,
    66,
    66,
    66,
    66,
    66,
    66,
    66,
    66,
    66,
    66,
    66,
    66,
    66,
    66,
    66,
    66,
    66,
    66,
    66,
    66,
    66,
    66,
    66,
    66,
    66,
    66,
    66,
    66,
    66,
    66,
    66,
    66,
    66,
    66,
    66,
    66,
    66,
    66,
    66,
    66,
    66,
    66,
    66,
    66,
    66,
    66,
    66,
    66,
    66,
    66,
    66,
    66,
    66,
    66,
    66,
    66,
    66,
    66,
    66,
    66,
    66,
    66,
    66,
    66,
    66,
    66,
    66,
    66,
    66,
    66,
    66,
    66,
    66,
    66,
    66,
    66,
    66,
    66,
    66,
    66,
    66,
    66,
    66,
    66,
    66,
    66,
    66,
    66,
    66,
    66,
    66,
    66,
    66,
    66,
    66,
    66,
    66,
    66,
    66,
    66,
    66,
    66,
    66,
    66,
    66,
    66,
    66,
    66,
    66,
    66,
    66,
    66,
    66,
    66,
    66,
    66,
    66,
    66,
    66,
    66,
    66,
    66,
    66,
    66,
    66,
    66,
    66,
    66,
    66,
    66,
    66,
    66,
    66,
    66,
    66,
    66,
    66,
    66,
    66,
    66,
    66,
    66,
    66,
    66,
    66,
    66,
    66,
    66,
    66,
    66,
    66,
    66,
    66,
    66,
    66,
    66,
    66,
    66,
    66,
    66,
    66,
    66,
    66,
    66,
    66,
    66,
    66,
    66,
    66,
    66,
    66,
    66,
    66,
    66,
    66,
    66,
    66,
    66,
    66,
    66,
    66,
    66,
    66,
    66,
    66,
    66,
    66,
    66,
    66,
    66,
    66,
    66,
    66,
    66,
    66,
    66,
    66,
    66,
    66,
    66,
    66,
    66,
    66,
    66,
    66,
    66,
    66,
    66,
    66,
    66,
    66,
    66,
    66,
    66,
    66,
    66,
    66,
    66,
    66,
    66,
    66,
    66,
    66,
    66,
    66,
    66,
    66,
    66,
    66,
    66,
    66,
    66,
    66,
    66,
    66,
    66,
    66,
    66,
    66,
    66,
    66,
    66,
    66,
    66,
    66,
    66,
    66,
    66,
    66,
    66,
    66,
    66,
    66,
    66,
    66,
    66,
    66,
    66,
    66,
    66,
    66,
    66,
    66,
    66,
    66,
    66,
    66,
    66,
    66,
    66,
    66,
    66,
    66,
    66,
    66,
    66,
    66,
    66,
    66,
    66,
    66,
    66,
    66,
    66,
    66,
    66,
    66,
    66,
    66,
    66,
    66,
    66,
    66,
    66,
    66,
    66,
    66,
    66,
    66,
    66,
    66,
    66,
    66,
    66,
    66,
    66,
    66,
    66,
    66,
    66,
    66,
    66,
    66,
    66,
    66,
    66,
    66,
    66,
    66,
    66,
    66,
    66,
    66,
    66,
    66,
    66,
    66,
    66,
    66,
    66,
    66,
    66,
    66,
    66,
    66,
    66,
    66,
    66,
    66,
    66,
    66,
    66,
    66,
    66,
    66,
    66,
    66,
    66,
    66,
    66,
    66,
    66,
    66,
    66,
    66,
    66,
    66,
    66,
    66,
    66,
    66,
    66,
    66,
    66,
    66,
    66,
    66,
    66,
    66,
    66,
    66,
    66,
    66,
    66,
    66,
    66,
    66,
    66,
    66,
    66,
    66,
    66,
    66,
    66,
    66,
    66,
    66,
    66,
    66,
    66,
    66,
    66,
    66,
    66,
    66,
    66,
    66,
    66,
    66,
    66,
    66,
    66,
    66,
    66,
    66,
    66,
    66,
    66,
    66,
    66,
    66,
    66,
    66,
    66,
    66,
    66,
    66,
    66,
    66,
    66,
    66,
    66,
    66,
    66,
    66,
    66,
    66,
    66,
    66,
    66,
    66,
    66,
    66,
    66,
    66,
    66,
    66,
    66,
    66,
    66,
    66,
    66,
    66,
    66,
    66,
    66,
    66,
    66,
    66,
    66,
    66,
    66,
    66,
    66,
    66,
    66,
    66,
    66,
    66,
    66,
    66,
    66,
    66,
    66,
    66,
    66,
    66,
    66,
    66,
    66,
    66,
    66,
    66,
    66,
    66,
    66,
    66,
    66,
    66,
    66,
    66,
    66,
    66,
    66,
    66,
    66,
    66,
    66,
    66,
    66,
    66,
    66,
    66,
    66,
    66,
    66,
    66,
    66,
    66,
    66,
    66,
    66,
    66,
    66,
    66,
    66,
    66,
    66,
    66,
    66,
    66,
    66,
    66,
    66,
    66,
    66,
    66,
    66,
    66,
    66,
    66,
    66,
    66,
    66,
    66,
    66,
    66,
    66,
    66,
    66,
    66,
    66,
    66,
    66,
    66,
    66,
    66,
    66,
    66,
    66,
    66,
    66,
    66,
    66,
    66,
    66,
    66,
    66,
    66,
    66,
    66,
    66,
    66,
    66,
    66,
    66,
    66,
    66,
    66,
    66,
    66,
    66,
    66,
    66,
    66,
    66,
    66,
    66,
    66,
    66,
    66,
    66,
    66,
    66,
    66,
    66,
    66,
    66,
    66,
    66,
    66,
    66,
    66,
    66,
    66,
    66,
    66,
    66,
    66,
    66,
    66,
    66,
    66,
    66,
    66,
    66,
    66,
    66,
    66,
    66,
    66,
    66,
    66,
    66,
    66,
    66,
    66,
    66,
    66,
    66,
    66,
    66,
    66,
    66,
    66,
    66,
    66,
    66,
    66,
    66,
    66,
    66,
    66,
    66,
    66,
    66,
    66,
    66,
    66,
    66,
    66,
    66,
    66,
    66,
    66,
    66,
    66,
    66,
    66,
    66,
    66,
    66,
    66,
    66,
    66,
    66,
    66,
    66,
    66,
    66,
    66,
    66,
    66,
    66,
    66,
    66,
    66,
    66,
    66,
    66,
    66,
    66,
    66,
    66,
    66,
    66,
    66,
    66,
    66,
    66,
    66,
    66,
    66,
    66,
    66,
    66,
    66,
    66,
    66,
    66,
    66,
    66,
    66,
    66,
    66,
    66,
    66,
    66,
    66,
    66,
    66,
    66,
    66,
    66,
    66,
    66,
    66,
    66,
    66,
    66,
    66,
    66,
    66,
    66,
    66,
    66,
    66,
    66,
    66,
    66,
    66,
    66,
    66,
    66,
    66,
    66,
    66,
    66,
    66,
    66,
    66,
    66,
    66,
    66,
    66,
    66,
    66,
    66,
    66,
    66,
    66,
    66,
    66,
    66,
    66,
    66,
    66,
    66,
    66,
    66,
    66,
    66,
    66,
    66,
    66,
    66,
    66,
    66,
    66,
    66,
    66,
    66,
    66,
    66,
    66,
    66,
    66,
    66,
    66,
    66,
    66,
    66,
    66,
    66,
    66,
    66,
    66,
    66,
    66,
    66,
    66,
    66,
    66,
    66,
    66,
    66,
    66,
    66,
    66,
    66,
    66,
    66,
    66,
    66,
    66,
    66,
    66,
    66,
    66,
    66,
    66,
    66,
    66,
    66,
    66,
    66,
    66,
    66,
    66,
    66,
    66,
    66,
    66,
    66,
    66,
    66,
    66,
    66,
    66,
    66,
    66,
    66,
    66,
    66,
    66,
    66,
    66,
    66,
    66,
    66,
    66,
    66,
    66,
    66,
    66,
    66,
    66,
    66,
    66,
    66,
    66,
    66,
    66,
    66,
    66,
    66,
    66,
    66,
    66,
    66,
    66,
    66,
    66,
    66,
    66,
    66,
    66,
    66,
    66,
    66,
    66,
    66,
    66,
    66,
    66,
    66,
    66,
    66,
    66,
    66,
    66,
    66,
    66,
    66,
    66,
    66,
    66,
    66,
    66,
    66,
    66,
    66,
    66,
    66,
    66,
    66,
    66,
    66,
    66,
    66,
    66,
    66,
    66,
    66,
    66,
    66,
    66,
    66,
    66,
    66,
    66,
    66,
    66,
    66,
    66,
    66,
    66,
    66,
    66,
    66,
    66,
    66,
    66,
    66,
    66,
    66,
    66,
    66,
    66,
    66,
    66,
    66,
    66,
    66,
    66,
    66,
    66,
    66,
    66,
    66,
    66,
    66,
    66,
    66,
    66,
    66,
    66,
    66,
    66,
    66,
    66,
    66,
    66,
    66,
    66,
    66,
    66,
    66,
    66,
    66,
    66,
    66,
    66,
    66,
    66,
    66,
    66,
    66,
    66,
    66,
    66,
    66,
    66,
    66,
    66,
    66,
    66,
    66,
    66,
    66,
    66,
    66,
    66,
    66,
    66,
    66,
    66,
    66,
    66,
    66,
    66,
    66,
    66,
    66,
    66,
    66,
    66,
    66,
    66,
    66,
    66,
    66,
    66,
    66,
    66,
    66,
    66,
    66,
    66,
    66,
    66,
    66,
    66,
    66,
    66,
    66,
    66,
    66,
    66,
    66,
    66,
    66,
    66,
    66,
    66,
    66,
    66,
    66,
    66,
    66,
    66,
    66,
    66,
    66,
    66,
    66,
    66,
    66,
    66,
    66,
    66,
    66,
    66,
    66,
    66,
    66,
    66,
    66,
    66,
    66,
    66,
    66,
    66,
    66,
    66,
    66,
    66,
    66,
    66,
    66,
    66,
    66,
    66,
    66,
    66,
    66,
    66,
    66,
    66,
    66,
    66,
    66,
    66,
    66,
    66,
    66,
    66,
    66,
    66,
    66,
    66,
    66,
    66,
    66,
    66,
    66,
    66,
    66,
    66,
    66,
    66,
    66,
    66,
    66,
    66,
    66,
    66,
    66,
    66,
    66,
    66,
    66,
    66,
    66,
    66,
    66,
    66,
    66,
    66,
    66,
    66,
    66,
    66,
    66,
    66,
    66,
    66,
    66,
    66,
    66,
    66,
    66,
    66,
    66,
    66,
    66,
    66,
    66,
    66,
    66,
    66,
    66,
    66,
    66,
    66,
    66,
    66,
    66,
    66,
    66,
    66,
    66,
    66,
    66,
    66,
    66,
    66,
    66,
    66,
    66,
    66,
    66,
    66,
    66,
    66,
    66,
    66,
    66,
    66,
    66,
    66,
    66,
    66,
    66,
    66,
    66,
    66,
    66,
    66,
    66,
    66,
    66,
    66,
    66,
    66,
    66,
    66,
    66,
    66,
    66,
    66,
    66,
    66,
    66,
    66,
    66,
    66,
    66,
    66,
    66,
    66,
    66,
    66,
    66,
    66,
    66,
    66,
    66,
    66,
    66,
    66,
    66,
    66,
    66,
    66,
    66,
    66,
    66,
    66,
    66,
    66,
    66,
    66,
    66,
    66,
    66,
    66,
    66,
    66,
    66,
    66,
    66,
    66,
    66,
    66,
    66,
    66,
    66,
    66,
    66,
    66,
    66,
    66,
    66,
    66,
    66,
    66,
    66,
    66,
    66,
    66,
    66,
    66,
    66,
    66,
    66,
    66,
    66,
    66,
    66,
    66,
    66,
    66,
    66,
    66,
    66,
    66,
    66,
    66,
    66,
    66,
    66,
    66,
    66,
    66,
    66,
    66,
    66,
    66,
    66,
    66,
    66,
    66,
    66,
    66,
    66,
    66,
    66,
    66,
    66,
    66,
    66,
    66,
    66,
    66,
    66,
    66,
    66,
    66,
    66,
    66,
    66,
    66,
    66,
    66,
    66,
    66,
    66,
    66,
    66,
    66,
    66,
    66,
    66,
    66,
    66,
    66,
    66,
    66,
    66,
    66,
    66,
    66,
    66,
    66,
    66,
    66,
    66,
    66,
    66,
    66,
    66,
    66,
    66,
    66,
    66,
    66,
    66,
    66,
    66,
    66,
    66,
    66,
    66,
    66,
    66,
    66,
    66,
    66,
    66,
    66,
    66,
    66,
    66,
    66,
    66,
    66,
    66,
    66,
    66,
    66,
    66,
    66,
    66,
    66,
    66,
    66,
    66,
    66,
    66,
    66,
    66,
    66,
    66,
    66,
    66,
    66,
    66,
    66,
    66,
    66,
    66,
    66,
    66,
    66,
    66,
    66,
    66,
    66,
    66,
    66,
    66,
    66,
    66,
    66,
    66,
    66,
    66,
    66,
    66,
    66,
    66,
    66,
    66,
    66,
    66,
    66,
    66,
    66,
    66,
    66,
    66,
    66,
    66,
    66,
    66,
    66,
    66,
    66,
    66,
    66,
    66,
    66,
    66,
    66,
    66,
    66,
    66,
    66,
    66,
    66,
    66,
    66,
    66,
    66,
    66,
    66,
    66,
    66,
    66,
    66,
    66,
    66,
    66,
    66,
    66,
    66,
    66,
    66,
    66,
    66,
    66,
    66,
    66,
    66,
    66,
    66,
    66,
    66,
    66,
    66,
    66,
    66,
    66,
    66,
    66,
    66,
    66,
    66,
    66,
    66,
    66,
    66,
    66,
    66,
    66,
    66,
    66,
    66,
    66,
    66,
    66,
    66,
    66,
    66,
    66,
    66,
    66,
    66,
    66,
    66,
    66,
    66,
    66,
    66,
    66,
    66,
    66,
    66,
    66,
    66,
    66,
    66,
    66,
    66,
    66,
    66,
    66,
    66,
    66,
    66,
    66,
    66,
    66,
    66,
    66,
    66,
    66,
    66,
    66,
    66,
    66,
    66,
    66,
    66,
    66,
    66,
    66,
    66,
    66,
    66,
    66,
    66,
    66,
    66,
    66,
    66,
    66,
    66,
    66,
    66,
    66,
    66,
    66,
    66,
    66,
    66,
    66,
    66,
    66,
    66,
    66,
    66,
    66,
    66,
    66,
    66,
    66,
    66,
    66,
    66,
    66,
    66,
    66,
    66,
    66,
    66,
    66,
    66,
    66,
    66,
    66,
    66,
    66,
    66,
    66,
    66,
    66,
    66,
    66,
    66,
    66,
    66,
    66,
    66,
    66,
    66,
    66,
    66,
    66,
    66,
    66,
    66,
    66,
    66,
    66,
    66,
    66,
    66,
    66,
    66,
    66,
    66,
    66,
    66,
    66,
    66,
    66,
    66,
    66,
    66,
    66,
    66
   ]
  },
  {
   "id": 2,
   "name": "buildings",
   "type": "tilelayer",
   "x": 0,
   "y": 0,
   "width": 152,
   "height": 152,
   "opacity": 1,
   "visible": true,
   "data": [
    0,
    0,
    0,
    0,
    0,
    0,
    0,
    0,
    0,
    0,
    0,
    0,
    0,
    0,
    0,
    0,
    0,
    0,
    0,
    0,
    0,
    0,
    0,
    0,
    0,
    0,
    0,
    0,
    0,
    0,
    0,
    0,
    0,
    0,
    0,
    0,
    0,
    0,
    0,
    0,
    0,
    0,
    0,
    0,
    0,
    0,
    0,
    0,
    0,
    0,
    0,
    0,
    0,
    0,
    0,
    0,
    0,
    0,
    0,
    0,
    0,
    0,
    0,
    0,
    0,
    0,
    0,
    0,
    0,
    0,
    0,
    0,
    0,
    0,
    0,
    0,
    0,
    0,
    0,
    0,
    0,
    0,
    0,
    0,
    0,
    0,
    0,
    0,
    0,
    0,
    0,
    0,
    0,
    0,
    0,
    0,
    0,
    0,
    0,
    0,
    0,
    0,
    0,
    0,
    0,
    0,
    0,
    0,
    0,
    0,
    0,
    0,
    0,
    0,
    0,
    0,
    0,
    0,
    0,
    0,
    0,
    0,
    0,
    0,
    0,
    0,
    0,
    0,
    0,
    0,
    0,
    0,
    0,
    0,
    0,
    0,
    0,
    0,
    0,
    0,
    0,
    0,
    0,
    0,
    0,
    0,
    0,
    0,
    0,
    0,
    0,
    0,
    0,
    0,
    0,
    0,
    0,
    0,
    0,
    0,
    0,
    0,
    0,
    0,
    0,
    0,
    0,
    0,
    0,
    0,
    0,
    0,
    0,
    0,
    0,
    0,
    0,
    0,
    0,
    0,
    0,
    0,
    0,
    0,
    0,
    0,
    0,
    0,
    0,
    0,
    0,
    0,
    0,
    0,
    0,
    0,
    0,
    0,
    0,
    0,
    0,
    0,
    0,
    0,
    0,
    0,
    0,
    0,
    0,
    0,
    0,
    0,
    0,
    0,
    0,
    0,
    0,
    0,
    0,
    0,
    0,
    0,
    0,
    0,
    0,
    0,
    0,
    0,
    0,
    0,
    0,
    0,
    0,
    0,
    0,
    0,
    0,
    0,
    0,
    0,
    0,
    0,
    0,
    0,
    0,
    0,
    0,
    0,
    0,
    0,
    0,
    0,
    0,
    0,
    0,
    0,
    0,
    0,
    0,
    0,
    0,
    0,
    0,
    0,
    0,
    0,
    0,
    0,
    0,
    0,
    0,
    0,
    0,
    0,
    0,
    0,
    0,
    0,
    0,
    0,
    0,
    0,
    0,
    0,
    0,
    0,
    0,
    0,
    0,
    0,
    0,
    0,
    0,
    0,
    0,
    0,
    0,
    0,
    0,
    0,
    0,
    0,
    0,
    0,
    0,
    0,
    0,
    0,
    0,
    0,
    0,
    0,
    0,
    0,
    0,
    0,
    0,
    0,
    0,
    0,
    0,
    0,
    0,
    0,
    0,
    0,
    0,
    0,
    0,
    0,
    0,
    0,
    0,
    0,
    0,
    0,
    0,
    0,
    0,
    0,
    0,
    0,
    0,
    0,
    0,
    0,
    0,
    0,
    0,
    0,
    0,
    0,
    0,
    0,
    0,
    0,
    0,
    0,
    0,
    0,
    0,
    0,
    0,
    0,
    0,
    0,
    0,
    0,
    0,
    0,
    0,
    0,
    0,
    0,
    0,
    0,
    0,
    0,
    0,
    0,
    0,
    0,
    0,
    0,
    0,
    0,
    0,
    0,
    0,
    0,
    0,
    0,
    0,
    0,
    0,
    0,
    0,
    0,
    0,
    0,
    0,
    0,
    0,
    0,
    0,
    0,
    0,
    0,
    0,
    0,
    0,
    0,
    0,
    0,
    0,
    0,
    0,
    0,
    0,
    0,
    0,
    0,
    0,
    0,
    0,
    0,
    0,
    0,
    0,
    0,
    0,
    0,
    0,
    0,
    0,
    0,
    0,
    0,
    0,
    0,
    0,
    0,
    0,
    0,
    0,
    0,
    0,
    0,
    0,
    0,
    0,
    0,
    0,
    0,
    0,
    0,
    0,
    0,
    0,
    0,
    0,
    0,
    0,
    0,
    0,
    0,
    0,
    0,
    0,
    0,
    0,
    0,
    0,
    0,
    0,
    0,
    0,
    0,
    0,
    0,
    0,
    0,
    0,
    0,
    0,
    0,
    0,
    0,
    0,
    0,
    0,
    0,
    0,
    0,
    0,
    0,
    0,
    0,
    0,
    0,
    0,
    0,
    0,
    0,
    0,
    0,
    0,
    0,
    0,
    0,
    0,
    0,
    0,
    0,
    0,
    0,
    0,
    0,
    0,
    0,
    0,
    0,
    0,
    0,
    0,
    0,
    0,
    0,
    0,
    0,
    0,
    0,
    0,
    0,
    0,
    0,
    0,
    0,
    0,
    0,
    0,
    0,
    0,
    0,
    0,
    0,
    0,
    0,
    0,
    0,
    0,
    0,
    0,
    0,
    0,
    0,
    0,
    0,
    0,
    0,
    0,
    0,
    0,
    0,
    0,
    0,
    0,
    0,
    0,
    0,
    0,
    0,
    0,
    0,
    0,
    0,
    0,
    0,
    0,
    0,
    0,
    0,
    0,
    0,
    0,
    0,
    0,
    0,
    0,
    0,
    0,
    0,
    0,
    0,
    0,
    0,
    0,
    0,
    0,
    0,
    0,
    0,
    0,
    0,
    0,
    0,
    0,
    0,
    0,
    0,
    0,
    0,
    0,
    0,
    0,
    0,
    0,
    0,
    0,
    0,
    0,
    0,
    0,
    0,
    0,
    0,
    0,
    0,
    0,
    0,
    0,
    0,
    0,
    0,
    0,
    0,
    0,
    0,
    0,
    0,
    0,
    0,
    0,
    0,
    0,
    0,
    0,
    0,
    0,
    0,
    0,
    0,
    0,
    0,
    0,
    0,
    0,
    0,
    0,
    0,
    0,
    0,
    0,
    0,
    0,
    0,
    0,
    0,
    0,
    0,
    0,
    0,
    0,
    0,
    0,
    0,
    0,
    0,
    0,
    0,
    0,
    0,
    0,
    0,
    0,
    0,
    0,
    0,
    0,
    0,
    0,
    0,
    0,
    0,
    0,
    0,
    0,
    0,
    0,
    0,
    0,
    0,
    0,
    0,
    0,
    0,
    0,
    0,
    0,
    0,
    0,
    0,
    0,
    0,
    0,
    0,
    0,
    0,
    0,
    0,
    0,
    0,
    0,
    0,
    0,
    0,
    0,
    0,
    0,
    0,
    0,
    0,
    0,
    0,
    0,
    0,
    0,
    0,
    0,
    0,
    0,
    0,
    0,
    0,
    0,
    0,
    0,
    0,
    0,
    0,
    0,
    0,
    0,
    0,
    0,
    0,
    0,
    0,
    0,
    0,
    0,
    0,
    0,
    0,
    0,
    0,
    0,
    0,
    0,
    0,
    0,
    0,
    0,
    0,
    0,
    0,
    0,
    0,
    0,
    0,
    0,
    0,
    0,
    0,
    0,
    0,
    0,
    0,
    0,
    0,
    0,
    0,
    0,
    0,
    0,
    0,
    0,
    0,
    0,
    0,
    0,
    0,
    0,
    0,
    0,
    0,
    0,
    0,
    0,
    0,
    0,
    0,
    0,
    0,
    0,
    0,
    0,
    0,
    0,
    0,
    0,
    0,
    0,
    0,
    0,
    0,
    0,
    0,
    0,
    0,
    0,
    0,
    0,
    0,
    0,
    0,
    0,
    0,
    0,
    0,
    0,
    0,
    0,
    0,
    0,
    0,
    0,
    0,
    0,
    0,
    0,
    0,
    0,
    0,
    0,
    0,
    0,
    0,
    0,
    0,
    0,
    0,
    0,
    0,
    0,
    0,
    0,
    0,
    0,
    0,
    0,
    0,
    0,
    0,
    0,
    0,
    0,
    0,
    0,
    0,
    0,
    0,
    0,
    0,
    0,
    0,
    0,
    0,
    0,
    0,
    0,
    0,
    0,
    0,
    0,
    0,
    0,
    0,
    0,
    0,
    0,
    0,
    0,
    0,
    0,
    0,
    0,
    0,
    0,
    0,
    0,
    0,
    0,
    0,
    0,
    0,
    0,
    0,
    0,
    0,
    0,
    0,
    0,
    0,
    0,
    0,
    0,
    0,
    0,
    0,
    0,
    0,
    0,
    0,
    0,
    0,
    0,
    0,
    0,
    0,
    0,
    0,
    0,
    0,
    0,
    0,
    0,
    0,
    0,
    0,
    0,
    0,
    0,
    0,
    0,
    0,
    0,
    0,
    0,
    0,
    0,
    0,
    0,
    0,
    0,
    0,
    0,
    0,
    0,
    0,
    0,
    0,
    0,
    0,
    0,
    0,
    0,
    0,
    0,
    0,
    0,
    0,
    0,
    0,
    0,
    0,
    0,
    0,
    0,
    0,
    0,
    0,
    0,
    0,
    0,
    0,
    0,
    0,
    0,
    0,
    0,
    0,
    0,
    0,
    0,
    0,
    0,
    0,
    0,
    0,
    0,
    0,
    0,
    0,
    0,
    0,
    0,
    0,
    0,
    0,
    0,
    0,
    0,
    0,
    0,
    0,
    0,
    0,
    0,
    0,
    0,
    0,
    0,
    0,
    0,
    0,
    0,
    0,
    0,
    0,
    0,
    0,
    0,
    0,
    0,
    0,
    0,
    0,
    0,
    0,
    0,
    0,
    0,
    0,
    0,
    0,
    0,
    0,
    0,
    0,
    0,
    0,
    0,
    0,
    0,
    0,
    0,
    0,
    0,
    0,
    0,
    0,
    0,
    0,
    0,
    0,
    0,
    0,
    0,
    0,
    0,
    0,
    0,
    0,
    0,
    0,
    0,
    0,
    0,
    0,
    0,
    0,
    0,
    0,
    0,
    0,
    0,
    0,
    0,
    0,
    0,
    0,
    0,
    0,
    0,
    0,
    0,
    0,
    0,
    0,
    0,
    0,
    0,
    0,
    0,
    0,
    0,
    0,
    0,
    0,
    0,
    0,
    0,
    0,
    0,
    0,
    0,
    0,
    0,
    0,
    0,
    0,
    0,
    0,
    0,
    0,
    0,
    0,
    0,
    0,
    0,
    0,
    0,
    0,
    0,
    0,
    0,
    0,
    0,
    0,
    0,
    0,
    0,
    0,
    0,
    0,
    0,
    0,
    0,
    0,
    0,
    0,
    0,
    0,
    0,
    0,
    0,
    0,
    0,
    0,
    0,
    0,
    0,
    0,
    0,
    0,
    0,
    0,
    0,
    0,
    0,
    0,
    0,
    0,
    0,
    0,
    0,
    0,
    0,
    0,
    0,
    0,
    0,
    0,
    0,
    0,
    0,
    0,
    0,
    0,
    0,
    0,
    0,
    0,
    0,
    0,
    0,
    0,
    0,
    0,
    0,
    0,
    0,
    0,
    0,
    0,
    0,
    0,
    0,
    0,
    0,
    0,
    0,
    0,
    0,
    0,
    0,
    0,
    0,
    0,
    0,
    0,
    0,
    0,
    0,
    0,
    0,
    0,
    0,
    0,
    0,
    0,
    0,
    0,
    0,
    0,
    0,
    0,
    0,
    0,
    0,
    0,
    0,
    0,
    0,
    0,
    0,
    0,
    0,
    0,
    0,
    0,
    0,
    0,
    0,
    0,
    0,
    0,
    0,
    0,
    0,
    0,
    0,
    0,
    0,
    0,
    0,
    0,
    0,
    0,
    0,
    0,
    0,
    0,
    0,
    0,
    0,
    0,
    0,
    0,
    0,
    0,
    0,
    0,
    0,
    0,
    0,
    0,
    0,
    0,
    0,
    0,
    0,
    0,
    0,
    0,
    0,
    0,
    0,
    0,
    0,
    0,
    0,
    0,
    0,
    0,
    0,
    0,
    0,
    0,
    0,
    0,
    0,
    0,
    0,
    0,
    0,
    0,
    0,
    0,
    0,
    0,
    0,
    0,
    0,
    0,
    0,
    0,
    0,
    0,
    0,
    0,
    0,
    0,
    0,
    0,
    0,
    0,
    0,
    0,
    0,
    0,
    0,
    0,
    0,
    0,
    0,
    0,
    0,
    0,
    0,
    0,
    0,
    0,
    0,
    0,
    0,
    0,
    0,
    0,
    0,
    0,
    0,
    0,
    0,
    0,
    0,
    0,
    0,
    0,
    0,
    0,
    0,
    0,
    0,
    0,
    0,
    0,
    0,
    0,
    0,
    0,
    0,
    0,
    0,
    0,
    0,
    0,
    0,
    0,
    0,
    0,
    0,
    0,
    0,
    0,
    0,
    0,
    0,
    0,
    0,
    0,
    0,
    0,
    0,
    0,
    0,
    0,
    0,
    0,
    0,
    0,
    0,
    0,
    0,
    0,
    0,
    0,
    0,
    0,
    0,
    0,
    0,
    0,
    0,
    0,
    0,
    0,
    0,
    0,
    0,
    0,
    0,
    0,
    0,
    0,
    0,
    0,
    0,
    0,
    0,
    0,
    0,
    0,
    0,
    0,
    0,
    0,
    0,
    0,
    0,
    0,
    0,
    0,
    0,
    0,
    0,
    0,
    0,
    0,
    0,
    0,
    0,
    0,
    0,
    0,
    0,
    0,
    0,
    0,
    0,
    0,
    0,
    0,
    0,
    0,
    0,
    0,
    0,
    0,
    0,
    0,
    0,
    0,
    0,
    0,
    0,
    0,
    0,
    0,
    0,
    0,
    0,
    0,
    0,
    0,
    0,
    0,
    0,
    0,
    0,
    0,
    0,
    0,
    0,
    0,
    0,
    0,
    0,
    0,
    0,
    0,
    0,
    0,
    0,
    0,
    0,
    0,
    0,
    0,
    0,
    0,
    0,
    0,
    0,
    0,
    0,
    0,
    0,
    0,
    0,
    0,
    0,
    0,
    0,
    0,
    0,
    0,
    0,
    0,
    0,
    0,
    0,
    0,
    0,
    0,
    0,
    0,
    0,
    0,
    0,
    0,
    0,
    0,
    0,
    0,
    0,
    0,
    0,
    0,
    0,
    0,
    0,
    0,
    0,
    0,
    0,
    0,
    0,
    0,
    0,
    0,
    0,
    0,
    0,
    0,
    0,
    0,
    0,
    0,
    0,
    0,
    0,
    0,
    0,
    0,
    0,
    0,
    0,
    0,
    0,
    0,
    0,
    0,
    0,
    0,
    0,
    0,
    0,
    0,
    0,
    0,
    0,
    0,
    0,
    0,
    0,
    0,
    0,
    0,
    0,
    0,
    0,
    0,
    0,
    0,
    0,
    0,
    0,
    0,
    0,
    0,
    0,
    0,
    0,
    0,
    0,
    0,
    0,
    0,
    0,
    0,
    0,
    0,
    0,
    0,
    0,
    0,
    0,
    0,
    0,
    0,
    0,
    0,
    0,
    0,
    0,
    0,
    0,
    0,
    0,
    0,
    0,
    0,
    0,
    0,
    0,
    0,
    0,
    0,
    0,
    0,
    0,
    0,
    0,
    0,
    0,
    0,
    0,
    0,
    0,
    0,
    0,
    0,
    0,
    0,
    0,
    0,
    0,
    0,
    0,
    0,
    0,
    0,
    0,
    0,
    0,
    0,
    0,
    0,
    0,
    0,
    0,
    0,
    0,
    0,
    0,
    0,
    0,
    0,
    0,
    0,
    0,
    0,
    0,
    0,
    0,
    0,
    0,
    0,
    0,
    0,
    0,
    0,
    0,
    0,
    0,
    0,
    0,
    0,
    0,
    0,
    0,
    0,
    0,
    0,
    0,
    0,
    0,
    0,
    0,
    0,
    0,
    0,
    0,
    0,
    0,
    0,
    0,
    0,
    0,
    0,
    0,
    0,
    0,
    0,
    0,
    0,
    0,
    0,
    0,
    0,
    0,
    0,
    0,
    0,
    0,
    0,
    0,
    0,
    0,
    0,
    0,
    0,
    0,
    0,
    0,
    0,
    0,
    0,
    0,
    0,
    0,
    0,
    0,
    0,
    0,
    0,
    0,
    0,
    0,
    0,
    0,
    0,
    0,
    0,
    0,
    0,
    0,
    0,
    0,
    0,
    0,
    0,
    0,
    0,
    0,
    0,
    0,
    0,
    0,
    0,
    0,
    0,
    0,
    0,
    0,
    0,
    0,
    0,
    0,
    0,
    0,
    0,
    0,
    0,
    0,
    0,
    0,
    0,
    0,
    0,
    0,
    0,
    0,
    0,
    0,
    0,
    0,
    0,
    0,
    0,
    0,
    0,
    0,
    0,
    0,
    0,
    0,
    0,
    0,
    0,
    0,
    0,
    0,
    0,
    0,
    0,
    0,
    0,
    0,
    0,
    0,
    0,
    0,
    0,
    0,
    0,
    0,
    0,
    0,
    0,
    0,
    0,
    0,
    0,
    0,
    0,
    0,
    0,
    0,
    0,
    0,
    0,
    0,
    0,
    0,
    0,
    0,
    0,
    0,
    0,
    0,
    0,
    0,
    0,
    0,
    0,
    0,
    0,
    0,
    0,
    0,
    0,
    0,
    0,
    0,
    0,
    0,
    0,
    0,
    0,
    0,
    0,
    0,
    0,
    0,
    0,
    0,
    0,
    0,
    0,
    0,
    0,
    0,
    0,
    0,
    0,
    0,
    0,
    0,
    0,
    0,
    0,
    0,
    0,
    0,
    0,
    0,
    0,
    0,
    0,
    0,
    0,
    0,
    0,
    0,
    0,
    0,
    0,
    0,
    0,
    0,
    0,
    0,
    0,
    0,
    0,
    0,
    0,
    0,
    0,
    0,
    0,
    0,
    0,
    0,
    0,
    0,
    0,
    0,
    0,
    0,
    0,
    0,
    0,
    0,
    0,
    0,
    0,
    0,
    0,
    0,
    0,
    0,
    0,
    0,
    0,
    0,
    0,
    0,
    0,
    0,
    0,
    0,
    0,
    0,
    0,
    0,
    0,
    0,
    0,
    0,
    0,
    0,
    0,
    0,
    0,
    0,
    0,
    0,
    0,
    0,
    0,
    0,
    0,
    0,
    0,
    0,
    0,
    0,
    0,
    0,
    0,
    0,
    0,
    0,
    0,
    0,
    0,
    0,
    0,
    0,
    0,
    0,
    0,
    0,
    0,
    0,
    0,
    0,
    0,
    0,
    0,
    0,
    0,
    0,
    0,
    0,
    0,
    0,
    0,
    0,
    0,
    0,
    0,
    0,
    0,
    0,
    0,
    0,
    0,
    0,
    0,
    0,
    0,
    0,
    0,
    0,
    0,
    0,
    0,
    0,
    0,
    0,
    0,
    0,
    0,
    0,
    0,
    0,
    0,
    0,
    0,
    0,
    0,
    0,
    0,
    0,
    0,
    0,
    0,
    0,
    0,
    0,
    0,
    0,
    0,
    0,
    0,
    0,
    0,
    0,
    0,
    0,
    0,
    0,
    0,
    0,
    0,
    0,
    0,
    0,
    0,
    0,
    0,
    0,
    0,
    0,
    0,
    0,
    0,
    0,
    0,
    0,
    0,
    0,
    0,
    0,
    0,
    0,
    0,
    0,
    0,
    0,
    0,
    0,
    0,
    0,
    0,
    0,
    0,
    0,
    0,
    0,
    0,
    0,
    0,
    0,
    0,
    0,
    0,
    0,
    0,
    0,
    0,
    0,
    0,
    0,
    0,
    0,
    0,
    0,
    0,
    0,
    0,
    0,
    0,
    0,
    0,
    0,
    0,
    0,
    0,
    0,
    0,
    0,
    0,
    0,
    0,
    0,
    0,
    0,
    0,
    0,
    0,
    0,
    0,
    0,
    0,
    0,
    0,
    0,
    0,
    0,
    0,
    0,
    0,
    0,
    0,
    0,
    0,
    0,
    0,
    0,
    0,
    0,
    0,
    0,
    0,
    0,
    0,
    0,
    0,
    0,
    0,
    0,
    0,
    0,
    0,
    0,
    0,
    0,
    0,
    0,
    0,
    0,
    0,
    0,
    0,
    0,
    0,
    0,
    0,
    0,
    0,
    0,
    0,
    0,
    0,
    0,
    0,
    0,
    0,
    0,
    0,
    0,
    0,
    0,
    0,
    0,
    0,
    0,
    0,
    0,
    0,
    0,
    0,
    0,
    0,
    0,
    0,
    0,
    0,
    0,
    0,
    0,
    0,
    0,
    0,
    0,
    0,
    0,
    0,
    0,
    0,
    0,
    0,
    0,
    0,
    0,
    0,
    0,
    0,
    0,
    0,
    0,
    0,
    0,
    0,
    0,
    0,
    0,
    0,
    0,
    0,
    0,
    0,
    0,
    0,
    0,
    0,
    0,
    0,
    0,
    0,
    0,
    0,
    0,
    0,
    0,
    0,
    0,
    0,
    0,
    0,
    0,
    0,
    0,
    0,
    0,
    0,
    0,
    0,
    0,
    0,
    0,
    0,
    0,
    0,
    0,
    0,
    0,
    0,
    0,
    0,
    0,
    0,
    0,
    0,
    0,
    0,
    0,
    0,
    0,
    0,
    0,
    0,
    0,
    0,
    0,
    0,
    0,
    0,
    0,
    0,
    0,
    0,
    0,
    0,
    0,
    0,
    0,
    0,
    0,
    0,
    0,
    0,
    0,
    0,
    0,
    0,
    0,
    0,
    0,
    0,
    0,
    0,
    0,
    0,
    0,
    0,
    0,
    0,
    0,
    0,
    0,
    0,
    0,
    0,
    0,
    0,
    0,
    0,
    0,
    0,
    0,
    0,
    0,
    0,
    0,
    0,
    0,
    0,
    0,
    0,
    0,
    0,
    0,
    0,
    0,
    0,
    0,
    0,
    0,
    0,
    0,
    0,
    0,
    0,
    0,
    0,
    0,
    0,
    0,
    0,
    0,
    0,
    0,
    0,
    0,
    0,
    0,
    0,
    0,
    0,
    0,
    0,
    0,
    0,
    0,
    0,
    0,
    0,
    0,
    0,
    0,
    0,
    0,
    0,
    0,
    0,
    0,
    0,
    0,
    0,
    0,
    0,
    0,
    0,
    0,
    0,
    0,
    0,
    0,
    0,
    0,
    0,
    0,
    0,
    0,
    0,
    0,
    0,
    0,
    0,
    0,
    0,
    0,
    0,
    0,
    0,
    0,
    0,
    0,
    0,
    0,
    0,
    0,
    0,
    0,
    0,
    0,
    0,
    0,
    0,
    0,
    0,
    0,
    0,
    0,
    0,
    0,
    0,
    0,
    0,
    0,
    0,
    0,
    0,
    0,
    0,
    0,
    0,
    0,
    0,
    0,
    0,
    0,
    0,
    0,
    0,
    0,
    0,
    0,
    0,
    0,
    0,
    0,
    0,
    0,
    0,
    0,
    0,
    0,
    0,
    0,
    0,
    0,
    0,
    0,
    0,
    0,
    0,
    0,
    0,
    0,
    0,
    0,
    0,
    0,
    0,
    0,
    0,
    0,
    0,
    0,
    0,
    0,
    0,
    0,
    0,
    0,
    0,
    0,
    0,
    0,
    0,
    0,
    0,
    0,
    0,
    0,
    0,
    0,
    0,
    0,
    0,
    0,
    0,
    0,
    0,
    0,
    0,
    0,
    0,
    0,
    0,
    0,
    0,
    0,
    0,
    0,
    0,
    0,
    0,
    0,
    0,
    0,
    0,
    0,
    0,
    0,
    0,
    0,
    0,
    0,
    0,
    0,
    0,
    0,
    0,
    0,
    0,
    0,
    0,
    0,
    0,
    0,
    0,
    0,
    0,
    0,
    0,
    0,
    0,
    0,
    0,
    0,
    0,
    0,
    0,
    0,
    0,
    0,
    0,
    0,
    0,
    0,
    0,
    0,
    0,
    0,
    0,
    0,
    0,
    0,
    0,
    0,
    0,
    0,
    0,
    0,
    0,
    0,
    0,
    0,
    0,
    0,
    0,
    0,
    0,
    0,
    0,
    0,
    0,
    0,
    0,
    0,
    0,
    0,
    0,
    0,
    0,
    0,
    0,
    0,
    0,
    0,
    0,
    0,
    0,
    0,
    0,
    0,
    0,
    0,
    0,
    0,
    0,
    0,
    0,
    0,
    0,
    0,
    0,
    0,
    0,
    0,
    0,
    0,
    0,
    0,
    0,
    0,
    0,
    0,
    0,
    0,
    0,
    0,
    0,
    0,
    0,
    0,
    0,
    0,
    0,
    0,
    0,
    0,
    0,
    0,
    0,
    0,
    0,
    0,
    0,
    0,
    0,
    0,
    0,
    0,
    0,
    0,
    0,
    0,
    0,
    0,
    0,
    0,
    0,
    0,
    0,
    0,
    0,
    0,
    0,
    0,
    0,
    0,
    0,
    0,
    0,
    0,
    0,
    0,
    0,
    0,
    0,
    0,
    0,
    0,
    0,
    0,
    0,
    0,
    0,
    0,
    0,
    0,
    0,
    0,
    0,
    0,
    0,
    0,
    0,
    0,
    0,
    0,
    0,
    0,
    0,
    0,
    0,
    0,
    0,
    0,
    0,
    0,
    0,
    0,
    0,
    0,
    0,
    0,
    0,
    0,
    0,
    0,
    0,
    0,
    0,
    0,
    0,
    0,
    0,
    0,
    0,
    0,
    0,
    0,
    0,
    0,
    0,
    0,
    0,
    0,
    0,
    0,
    0,
    0,
    0,
    0,
    0,
    0,
    0,
    0,
    0,
    0,
    0,
    0,
    0,
    0,
    0,
    0,
    0,
    0,
    0,
    0,
    0,
    0,
    0,
    0,
    0,
    0,
    0,
    0,
    0,
    0,
    0,
    0,
    0,
    0,
    0,
    0,
    0,
    0,
    0,
    0,
    0,
    0,
    0,
    0,
    0,
    0,
    0,
    0,
    0,
    0,
    0,
    0,
    0,
    0,
    0,
    0,
    0,
    0,
    0,
    0,
    0,
    0,
    0,
    0,
    0,
    0,
    0,
    0,
    0,
    0,
    0,
    0,
    0,
    0,
    0,
    0,
    0,
    0,
    0,
    0,
    0,
    0,
    0,
    0,
    0,
    0,
    0,
    0,
    0,
    0,
    0,
    0,
    0,
    0,
    0,
    0,
    0,
    0,
    0,
    0,
    0,
    0,
    0,
    0,
    0,
    0,
    0,
    0,
    0,
    0,
    0,
    0,
    0,
    0,
    0,
    0,
    0,
    0,
    0,
    0,
    0,
    0,
    0,
    0,
    0,
    0,
    0,
    0,
    0,
    0,
    0,
    0,
    0,
    0,
    0,
    0,
    0,
    0,
    0,
    0,
    0,
    0,
    0,
    0,
    0,
    0,
    0,
    0,
    0,
    0,
    0,
    0,
    0,
    0,
    0,
    0,
    0,
    0,
    0,
    0,
    0,
    0,
    0,
    0,
    0,
    0,
    0,
    0,
    0,
    0,
    0,
    0,
    0,
    0,
    0,
    0,
    0,
    0,
    0,
    0,
    0,
    0,
    0,
    0,
    0,
    0,
    0,
    0,
    0,
    0,
    0,
    0,
    0,
    0,
    0,
    0,
    0,
    0,
    0,
    0,
    0,
    0,
    0,
    0,
    0,
    0,
    0,
    0,
    0,
    0,
    0,
    0,
    0,
    0,
    0,
    0,
    0,
    0,
    0,
    0,
    0,
    0,
    0,
    0,
    0,
    0,
    0,
    0,
    0,
    0,
    0,
    0,
    0,
    0,
    0,
    0,
    0,
    0,
    0,
    0,
    0,
    0,
    0,
    0,
    0,
    0,
    0,
    0,
    0,
    0,
    0,
    0,
    0,
    0,
    0,
    0,
    0,
    0,
    0,
    0,
    0,
    0,
    0,
    0,
    0,
    0,
    0,
    0,
    0,
    0,
    0,
    0,
    0,
    0,
    0,
    0,
    0,
    0,
    0,
    0,
    0,
    0,
    0,
    0,
    0,
    0,
    0,
    0,
    0,
    0,
    0,
    0,
    0,
    0,
    0,
    0,
    0,
    0,
    0,
    0,
    0,
    0,
    0,
    0,
    0,
    0,
    0,
    0,
    0,
    0,
    0,
    0,
    0,
    0,
    0,
    0,
    0,
    0,
    0,
    0,
    0,
    0,
    0,
    0,
    0,
    0,
    0,
    0,
    0,
    0,
    0,
    0,
    0,
    0,
    0,
    0,
    0,
    0,
    0,
    0,
    0,
    0,
    0,
    0,
    0,
    0,
    0,
    0,
    0,
    0,
    0,
    0,
    0,
    0,
    0,
    0,
    0,
    0,
    0,
    0,
    0,
    0,
    0,
    0,
    0,
    0,
    0,
    0,
    0,
    0,
    0,
    0,
    0,
    0,
    0,
    0,
    0,
    0,
    0,
    0,
    0,
    0,
    0,
    0,
    0,
    0,
    0,
    0,
    0,
    0,
    0,
    0,
    0,
    0,
    0,
    0,
    0,
    0,
    0,
    0,
    0,
    0,
    0,
    0,
    0,
    0,
    0,
    0,
    0,
    0,
    0,
    0,
    0,
    0,
    0,
    0,
    0,
    0,
    0,
    0,
    0,
    0,
    0,
    0,
    0,
    0,
    0,
    0,
    0,
    0,
    0,
    0,
    0,
    0,
    0,
    0,
    0,
    0,
    0,
    0,
    0,
    0,
    0,
    0,
    0,
    0,
    0,
    0,
    0,
    0,
    0,
    0,
    0,
    0,
    0,
    0,
    0,
    0,
    0,
    0,
    0,
    0,
    0,
    0,
    0,
    0,
    0,
    0,
    0,
    0,
    0,
    0,
    0,
    0,
    0,
    0,
    0,
    0,
    0,
    0,
    0,
    0,
    0,
    0,
    0,
    0,
    0,
    0,
    0,
    0,
    0,
    0,
    0,
    0,
    0,
    0,
    0,
    0,
    0,
    0,
    0,
    0,
    0,
    0,
    0,
    0,
    0,
    0,
    0,
    0,
    0,
    0,
    0,
    0,
    0,
    0,
    0,
    0,
    0,
    0,
    0,
    0,
    0,
    0,
    0,
    0,
    0,
    0,
    0,
    0,
    0,
    0,
    0,
    0,
    0,
    0,
    0,
    0,
    0,
    0,
    0,
    0,
    0,
    0,
    0,
    0,
    0,
    0,
    0,
    0,
    0,
    0,
    0,
    0,
    0,
    0,
    0,
    0,
    0,
    0,
    0,
    0,
    0,
    0,
    0,
    0,
    0,
    0,
    0,
    0,
    0,
    0,
    0,
    0,
    0,
    0,
    0,
    0,
    0,
    0,
    0,
    0,
    0,
    0,
    0,
    0,
    0,
    0,
    0,
    0,
    0,
    0,
    0,
    0,
    0,
    0,
    0,
    0,
    0,
    0,
    0,
    0,
    0,
    0,
    0,
    0,
    0,
    0,
    0,
    0,
    0,
    0,
    0,
    0,
    0,
    0,
    0,
    0,
    0,
    0,
    0,
    0,
    0,
    0,
    0,
    0,
    0,
    0,
    0,
    0,
    0,
    0,
    0,
    0,
    0,
    0,
    0,
    0,
    0,
    0,
    0,
    0,
    0,
    0,
    0,
    0,
    0,
    0,
    0,
    0,
    0,
    0,
    0,
    0,
    0,
    0,
    0,
    0,
    0,
    0,
    0,
    0,
    0,
    0,
    0,
    0,
    0,
    0,
    0,
    0,
    0,
    0,
    0,
    0,
    0,
    0,
    0,
    0,
    0,
    0,
    0,
    0,
    0,
    0,
    0,
    0,
    0,
    0,
    0,
    0,
    0,
    0,
    0,
    0,
    0,
    0,
    0,
    0,
    0,
    0,
    0,
    0,
    0,
    0,
    0,
    0,
    0,
    0,
    0,
    0,
    0,
    0,
    0,
    0,
    0,
    0,
    0,
    0,
    0,
    0,
    0,
    0,
    0,
    0,
    0,
    0,
    0,
    0,
    0,
    0,
    0,
    0,
    0,
    0,
    0,
    0,
    0,
    0,
    0,
    0,
    0,
    0,
    0,
    0,
    0,
    0,
    0,
    0,
    0,
    0,
    0,
    0,
    0,
    0,
    0,
    0,
    0,
    0,
    0,
    0,
    0,
    0,
    0,
    0,
    0,
    0,
    0,
    0,
    0,
    0,
    0,
    0,
    0,
    0,
    0,
    0,
    0,
    0,
    0,
    0,
    0,
    0,
    0,
    0,
    0,
    0,
    0,
    0,
    0,
    0,
    0,
    0,
    0,
    0,
    0,
    0,
    0,
    0,
    0,
    0,
    0,
    0,
    0,
    0,
    0,
    0,
    0,
    0,
    0,
    0,
    0,
    0,
    0,
    0,
    0,
    0,
    0,
    0,
    0,
    0,
    0,
    0,
    0,
    0,
    0,
    0,
    0,
    0,
    0,
    0,
    0,
    0,
    0,
    0,
    0,
    0,
    0,
    0,
    0,
    0,
    0,
    0,
    0,
    0,
    0,
    0,
    0,
    0,
    0,
    0,
    0,
    0,
    0,
    0,
    0,
    0,
    0,
    0,
    0,
    0,
    0,
    0,
    0,
    0,
    0,
    0,
    0,
    0,
    0,
    0,
    0,
    0,
    0,
    0,
    0,
    0,
    0,
    0,
    0,
    0,
    0,
    0,
    0,
    0,
    0,
    0,
    0,
    0,
    0,
    0,
    0,
    0,
    0,
    0,
    0,
    0,
    0,
    0,
    0,
    0,
    0,
    0,
    0,
    0,
    0,
    0,
    0,
    0,
    0,
    0,
    0,
    0,
    0,
    0,
    0,
    0,
    0,
    0,
    0,
    0,
    0,
    0,
    0,
    0,
    0,
    0,
    0,
    0,
    0,
    0,
    0,
    0,
    0,
    0,
    0,
    0,
    0,
    0,
    0,
    0,
    0,
    0,
    0,
    0,
    0,
    0,
    0,
    0,
    0,
    0,
    0,
    0,
    0,
    0,
    0,
    0,
    0,
    0,
    0,
    0,
    0,
    0,
    0,
    0,
    0,
    0,
    0,
    0,
    0,
    0,
    0,
    0,
    0,
    0,
    0,
    0,
    0,
    0,
    0,
    0,
    0,
    0,
    0,
    0,
    0,
    0,
    0,
    0,
    0,
    0,
    0,
    0,
    0,
    0,
    0,
    0,
    0,
    0,
    0,
    0,
    0,
    0,
    0,
    0,
    0,
    0,
    0,
    0,
    0,
    0,
    0,
    0,
    0,
    0,
    0,
    0,
    0,
    0,
    0,
    0,
    0,
    0,
    0,
    0,
    0,
    0,
    0,
    0,
    0,
    0,
    0,
    0,
    0,
    0,
    0,
    0,
    0,
    0,
    0,
    0,
    0,
    0,
    0,
    0,
    0,
    0,
    0,
    0,
    0,
    0,
    0,
    0,
    0,
    0,
    0,
    0,
    0,
    0,
    0,
    0,
    0,
    0,
    0,
    0,
    0,
    0,
    0,
    0,
    0,
    0,
    0,
    0,
    0,
    0,
    0,
    0,
    0,
    0,
    0,
    0,
    0,
    0,
    0,
    0,
    0,
    0,
    0,
    0,
    0,
    0,
    0,
    0,
    0,
    0,
    0,
    0,
    0,
    0,
    0,
    0,
    0,
    0,
    0,
    0,
    0,
    0,
    0,
    0,
    0,
    0,
    0,
    0,
    0,
    0,
    0,
    0,
    0,
    0,
    0,
    0,
    0,
    0,
    0,
    0,
    0,
    0,
    0,
    0,
    0,
    0,
    0,
    0,
    0,
    0,
    0,
    0,
    0,
    0,
    0,
    0,
    0,
    0,
    0,
    0,
    0,
    0,
    0,
    0,
    0,
    0,
    0,
    0,
    0,
    0,
    0,
    0,
    0,
    0,
    0,
    0,
    0,
    0,
    0,
    0,
    0,
    0,
    0,
    0,
    0,
    0,
    0,
    0,
    0,
    0,
    0,
    0,
    0,
    0,
    0,
    0,
    0,
    0,
    0,
    0,
    0,
    0,
    0,
    0,
    0,
    0,
    0,
    0,
    0,
    0,
    0,
    0,
    0,
    0,
    0,
    0,
    0,
    0,
    0,
    0,
    0,
    0,
    0,
    0,
    0,
    0,
    0,
    0,
    0,
    0,
    0,
    0,
    0,
    0,
    0,
    0,
    0,
    0,
    0,
    0,
    0,
    0,
    0,
    0,
    0,
    0,
    0,
    0,
    0,
    0,
    0,
    0,
    0,
    0,
    0,
    0,
    0,
    0,
    0,
    0,
    0,
    0,
    0,
    0,
    0,
    0,
    0,
    0,
    0,
    0,
    0,
    0,
    0,
    0,
    0,
    0,
    0,
    0,
    0,
    0,
    0,
    0,
    0,
    0,
    0,
    0,
    0,
    0,
    0,
    0,
    0,
    0,
    0,
    0,
    0,
    0,
    0,
    0,
    0,
    0,
    0,
    0,
    0,
    0,
    0,
    0,
    0,
    0,
    0,
    0,
    0,
    0,
    0,
    0,
    0,
    0,
    0,
    0,
    0,
    0,
    0,
    0,
    0,
    0,
    0,
    0,
    0,
    0,
    0,
    0,
    0,
    0,
    0,
    0,
    0,
    0,
    0,
    0,
    0,
    0,
    0,
    0,
    0,
    0,
    0,
    0,
    0,
    0,
    0,
    0,
    0,
    0,
    0,
    0,
    0,
    0,
    0,
    0,
    0,
    0,
    0,
    0,
    0,
    0,
    0,
    0,
    0,
    0,
    0,
    0,
    0,
    0,
    0,
    0,
    0,
    0,
    0,
    0,
    0,
    0,
    0,
    0,
    0,
    0,
    0,
    0,
    0,
    0,
    0,
    0,
    0,
    0,
    0,
    0,
    0,
    0,
    0,
    0,
    0,
    0,
    0,
    0,
    0,
    0,
    0,
    0,
    0,
    0,
    0,
    0,
    0,
    0,
    0,
    0,
    0,
    0,
    0,
    0,
    0,
    0,
    0,
    0,
    0,
    0,
    0,
    0,
    0,
    0,
    0,
    0,
    0,
    0,
    0,
    0,
    0,
    0,
    0,
    0,
    0,
    0,
    0,
    0,
    0,
    0,
    0,
    0,
    0,
    0,
    0,
    0,
    0,
    0,
    0,
    0,
    0,
    0,
    0,
    0,
    0,
    0,
    0,
    0,
    0,
    0,
    0,
    0,
    0,
    0,
    0,
    0,
    0,
    0,
    0,
    0,
    0,
    0,
    0,
    0,
    0,
    0,
    0,
    0,
    0,
    0,
    0,
    0,
    0,
    0,
    0,
    0,
    0,
    0,
    0,
    0,
    0,
    0,
    0,
    0,
    0,
    0,
    0,
    0,
    0,
    0,
    0,
    0,
    0,
    0,
    0,
    0,
    0,
    0,
    0,
    0,
    0,
    0,
    0,
    0,
    0,
    0,
    0,
    0,
    0,
    0,
    0,
    0,
    0,
    0,
    0,
    0,
    0,
    0,
    0,
    0,
    0,
    0,
    0,
    0,
    0,
    0,
    0,
    0,
    0,
    0,
    0,
    0,
    0,
    0,
    0,
    0,
    0,
    0,
    0,
    0,
    0,
    0,
    0,
    0,
    0,
    0,
    0,
    0,
    0,
    0,
    0,
    0,
    0,
    0,
    0,
    0,
    0,
    0,
    0,
    0,
    0,
    0,
    0,
    0,
    0,
    0,
    0,
    0,
    0,
    0,
    0,
    0,
    0,
    0,
    0,
    0,
    0,
    0,
    0,
    0,
    0,
    0,
    0,
    0,
    0,
    0,
    0,
    0,
    0,
    0,
    0,
    0,
    0,
    0,
    0,
    0,
    0,
    0,
    0,
    0,
    0,
    0,
    0,
    0,
    0,
    0,
    0,
    0,
    0,
    0,
    0,
    0,
    0,
    0,
    0,
    0,
    0,
    0,
    0,
    0,
    0,
    0,
    0,
    0,
    0,
    0,
    0,
    0,
    0,
    0,
    0,
    0,
    0,
    0,
    0,
    0,
    0,
    0,
    0,
    0,
    0,
    0,
    0,
    0,
    0,
    0,
    0,
    0,
    0,
    0,
    0,
    0,
    0,
    0,
    0,
    0,
    0,
    0,
    0,
    0,
    0,
    0,
    0,
    0,
    0,
    0,
    0,
    0,
    0,
    0,
    0,
    0,
    0,
    0,
    0,
    0,
    0,
    0,
    0,
    0,
    0,
    0,
    0,
    0,
    0,
    0,
    0,
    0,
    0,
    0,
    0,
    0,
    0,
    0,
    0,
    0,
    0,
    0,
    0,
    0,
    0,
    0,
    0,
    0,
    0,
    0,
    0,
    0,
    0,
    0,
    0,
    0,
    0,
    0,
    0,
    0,
    0,
    0,
    0,
    0,
    0,
    0,
    0,
    0,
    0,
    0,
    0,
    0,
    0,
    0,
    0,
    0,
    0,
    0,
    0,
    0,
    0,
    0,
    0,
    0,
    0,
    0,
    0,
    0,
    0,
    0,
    0,
    0,
    0,
    0,
    0,
    0,
    0,
    0,
    0,
    0,
    0,
    0,
    0,
    0,
    0,
    0,
    0,
    0,
    0,
    0,
    0,
    0,
    0,
    0,
    0,
    0,
    0,
    0,
    0,
    0,
    0,
    0,
    0,
    0,
    0,
    0,
    0,
    0,
    0,
    0,
    0,
    0,
    0,
    0,
    0,
    0,
    0,
    0,
    0,
    0,
    0,
    0,
    0,
    0,
    0,
    0,
    0,
    0,
    0,
    0,
    0,
    0,
    0,
    0,
    0,
    0,
    0,
    0,
    0,
    0,
    0,
    0,
    0,
    0,
    0,
    0,
    0,
    0,
    0,
    0,
    0,
    0,
    0,
    0,
    0,
    0,
    0,
    0,
    0,
    0,
    0,
    0,
    0,
    0,
    0,
    0,
    0,
    0,
    0,
    0,
    0,
    0,
    0,
    0,
    0,
    0,
    0,
    0,
    0,
    0,
    0,
    0,
    0,
    0,
    0,
    0,
    0,
    0,
    0,
    0,
    0,
    0,
    0,
    0,
    0,
    0,
    0,
    0,
    0,
    0,
    0,
    0,
    0,
    0,
    0,
    0,
    0,
    0,
    0,
    0,
    0,
    0,
    0,
    0,
    0,
    0,
    0,
    0,
    0,
    0,
    0,
    0,
    0,
    0,
    0,
    0,
    0,
    0,
    0,
    0,
    0,
    0,
    0,
    0,
    0,
    0,
    0,
    0,
    0,
    0,
    0,
    0,
    0,
    0,
    0,
    0,
    0,
    0,
    0,
    0,
    0,
    0,
    0,
    0,
    0,
    0,
    0,
    0,
    0,
    0,
    0,
    0,
    0,
    0,
    0,
    0,
    0,
    0,
    0,
    0,
    0,
    0,
    0,
    0,
    0,
    0,
    0,
    0,
    0,
    0,
    0,
    0,
    0,
    0,
    0,
    0,
    0,
    0,
    0,
    0,
    0,
    0,
    0,
    0,
    0,
    0,
    0,
    0,
    0,
    0,
    0,
    0,
    0,
    0,
    0,
    0,
    0,
    0,
    0,
    0,
    0,
    0,
    0,
    0,
    0,
    0,
    0,
    0,
    0,
    0,
    0,
    0,
    0,
    0,
    0,
    0,
    0,
    0,
    0,
    0,
    0,
    0,
    0,
    0,
    0,
    0,
    0,
    0,
    0,
    0,
    0,
    0,
    0,
    0,
    0,
    0,
    0,
    0,
    0,
    0,
    0,
    0,
    0,
    0,
    0,
    0,
    0,
    0,
    0,
    0,
    0,
    0,
    0,
    0,
    0,
    0,
    0,
    0,
    0,
    0,
    0,
    0,
    0,
    0,
    0,
    0,
    0,
    0,
    0,
    0,
    0,
    0,
    0,
    0,
    0,
    0,
    0,
    0,
    0,
    0,
    0,
    0,
    0,
    0,
    0,
    0,
    0,
    0,
    0,
    0,
    0,
    0,
    0,
    0,
    0,
    0,
    0,
    0,
    0,
    0,
    0,
    0,
    0,
    0,
    0,
    0,
    0,
    0,
    0,
    0,
    0,
    0,
    0,
    0,
    0,
    0,
    0,
    0,
    0,
    0,
    0,
    0,
    0,
    0,
    0,
    0,
    0,
    0,
    0,
    0,
    0,
    0,
    0,
    0,
    0,
    0,
    0,
    0,
    0,
    0,
    0,
    0,
    0,
    0,
    0,
    0,
    0,
    0,
    0,
    0,
    0,
    0,
    0,
    0,
    0,
    0,
    0,
    0,
    0,
    0,
    0,
    0,
    0,
    0,
    0,
    0,
    0,
    0,
    0,
    0,
    0,
    0,
    0,
    0,
    0,
    0,
    0,
    0,
    0,
    0,
    0,
    0,
    0,
    0,
    0,
    0,
    0,
    0,
    0,
    0,
    0,
    0,
    0,
    0,
    0,
    0,
    0,
    0,
    0,
    0,
    0,
    0,
    0,
    0,
    0,
    0,
    0,
    0,
    0,
    0,
    0,
    0,
    0,
    0,
    0,
    0,
    0,
    0,
    0,
    0,
    0,
    0,
    0,
    0,
    0,
    0,
    0,
    0,
    0,
    0,
    0,
    0,
    0,
    0,
    0,
    0,
    0,
    0,
    0,
    0,
    0,
    0,
    0,
    0,
    0,
    0,
    0,
    0,
    0,
    0,
    0,
    0,
    0,
    0,
    0,
    0,
    0,
    0,
    0,
    0,
    0,
    0,
    0,
    0,
    0,
    0,
    0,
    0,
    0,
    0,
    0,
    0,
    0,
    0,
    0,
    0,
    0,
    0,
    0,
    0,
    0,
    0,
    0,
    0,
    0,
    0,
    0,
    0,
    0,
    0,
    0,
    0,
    0,
    0,
    0,
    0,
    0,
    0,
    0,
    0,
    0,
    0,
    0,
    0,
    0,
    0,
    0,
    0,
    0,
    0,
    0,
    0,
    0,
    0,
    0,
    0,
    0,
    0,
    0,
    0,
    0,
    0,
    0,
    0,
    0,
    0,
    0,
    0,
    0,
    0,
    0,
    0,
    0,
    0,
    0,
    0,
    0,
    0,
    0,
    0,
    0,
    0,
    0,
    0,
    0,
    0,
    0,
    0,
    0,
    0,
    0,
    0,
    0,
    0,
    0,
    0,
    0,
    0,
    0,
    0,
    0,
    0,
    0,
    0,
    0,
    0,
    0,
    0,
    0,
    0,
    0,
    0,
    0,
    0,
    0,
    0,
    0,
    0,
    0,
    0,
    0,
    0,
    0,
    0,
    0,
    0,
    0,
    0,
    0,
    0,
    0,
    0,
    0,
    0,
    0,
    0,
    0,
    0,
    0,
    0,
    0,
    0,
    0,
    0,
    0,
    0,
    0,
    0,
    0,
    0,
    0,
    0,
    0,
    0,
    0,
    0,
    0,
    0,
    0,
    0,
    0,
    0,
    0,
    0,
    0,
    0,
    0,
    0,
    0,
    0,
    0,
    0,
    0,
    0,
    0,
    0,
    0,
    0,
    0,
    0,
    0,
    0,
    0,
    0,
    0,
    0,
    0,
    0,
    0,
    0,
    0,
    0,
    0,
    0,
    0,
    0,
    0,
    0,
    0,
    0,
    0,
    0,
    0,
    0,
    0,
    0,
    0,
    0,
    0,
    0,
    0,
    0,
    0,
    0,
    0,
    0,
    0,
    0,
    0,
    0,
    0,
    0,
    0,
    0,
    0,
    0,
    0,
    0,
    0,
    0,
    0,
    0,
    0,
    0,
    0,
    0,
    0,
    0,
    0,
    0,
    0,
    0,
    0,
    0,
    0,
    0,
    0,
    0,
    0,
    0,
    0,
    0,
    0,
    0,
    0,
    0,
    0,
    0,
    0,
    0,
    0,
    0,
    0,
    0,
    0,
    0,
    0,
    0,
    0,
    0,
    0,
    0,
    0,
    0,
    0,
    0,
    0,
    0,
    0,
    0,
    0,
    0,
    0,
    0,
    0,
    0,
    0,
    0,
    0,
    0,
    0,
    0,
    0,
    0,
    0,
    0,
    0,
    0,
    0,
    0,
    0,
    0,
    0,
    0,
    0,
    0,
    0,
    0,
    0,
    0,
    0,
    0,
    0,
    0,
    0,
    0,
    0,
    0,
    0,
    0,
    0,
    0,
    0,
    0,
    0,
    0,
    0,
    0,
    0,
    0,
    0,
    0,
    0,
    0,
    0,
    0,
    0,
    0,
    0,
    0,
    0,
    0,
    0,
    0,
    0,
    0,
    0,
    0,
    0,
    0,
    0,
    0,
    0,
    0,
    0,
    0,
    0,
    0,
    0,
    0,
    0,
    0,
    0,
    0,
    0,
    0,
    0,
    0,
    0,
    0,
    0,
    0,
    0,
    0,
    0,
    0,
    0,
    0,
    0,
    0,
    0,
    0,
    0,
    0,
    0,
    0,
    0,
    0,
    0,
    0,
    0,
    0,
    0,
    0,
    0,
    0,
    0,
    0,
    0,
    0,
    0,
    0,
    0,
    0,
    0,
    0,
    0,
    0,
    0,
    0,
    0,
    0,
    0,
    0,
    0,
    0,
    0,
    0,
    0,
    0,
    0,
    0,
    0,
    0,
    0,
    0,
    0,
    0,
    0,
    0,
    0,
    0,
    0,
    0,
    0,
    0,
    0,
    0,
    0,
    0,
    0,
    0,
    0,
    0,
    0,
    0,
    0,
    0,
    0,
    0,
    0,
    0,
    0,
    0,
    0,
    0,
    0,
    0,
    0,
    0,
    0,
    0,
    0,
    0,
    0,
    0,
    0,
    0,
    0,
    0,
    0,
    0,
    0,
    0,
    0,
    0,
    0,
    0,
    0,
    0,
    0,
    0,
    0,
    0,
    0,
    0,
    0,
    0,
    0,
    0,
    0,
    0,
    0,
    0,
    0,
    0,
    0,
    0,
    0,
    0,
    0,
    0,
    0,
    0,
    0,
    0,
    0,
    0,
    0,
    0,
    0,
    0,
    0,
    0,
    0,
    0,
    0,
    0,
    0,
    0,
    0,
    0,
    0,
    0,
    0,
    0,
    0,
    0,
    0,
    0,
    0,
    0,
    0,
    0,
    0,
    0,
    0,
    0,
    0,
    0,
    0,
    0,
    0,
    0,
    0,
    0,
    0,
    0,
    0,
    0,
    0,
    0,
    0,
    0,
    0,
    0,
    0,
    0,
    0,
    0,
    0,
    0,
    0,
    0,
    0,
    0,
    0,
    0,
    0,
    0,
    0,
    0,
    0,
    0,
    0,
    0,
    0,
    0,
    0,
    0,
    0,
    0,
    0,
    0,
    0,
    0,
    0,
    0,
    0,
    0,
    0,
    0,
    0,
    0,
    0,
    0,
    0,
    0,
    0,
    0,
    0,
    0,
    0,
    0,
    0,
    0,
    0,
    0,
    0,
    0,
    0,
    0,
    0,
    0,
    0,
    0,
    0,
    0,
    0,
    0,
    0,
    0,
    0,
    0,
    0,
    0,
    0,
    0,
    0,
    0,
    0,
    0,
    0,
    0,
    0,
    0,
    0,
    0,
    0,
    0,
    0,
    0,
    0,
    0,
    0,
    0,
    0,
    0,
    0,
    0,
    0,
    0,
    0,
    0,
    0,
    0,
    0,
    0,
    0,
    0,
    0,
    0,
    0,
    0,
    0,
    0,
    0,
    0,
    0,
    0,
    0,
    0,
    0,
    0,
    0,
    0,
    0,
    0,
    0,
    0,
    0,
    0,
    0,
    0,
    0,
    0,
    0,
    0,
    0,
    0,
    0,
    0,
    0,
    0,
    0,
    0,
    0,
    0,
    0,
    0,
    0,
    0,
    0,
    0,
    0,
    0,
    0,
    0,
    0,
    0,
    0,
    0,
    0,
    0,
    0,
    0,
    0,
    0,
    0,
    0,
    0,
    0,
    0,
    0,
    0,
    0,
    0,
    0,
    0,
    0,
    0,
    0,
    0,
    0,
    0,
    0,
    0,
    0,
    0,
    0,
    0,
    0,
    0,
    0,
    0,
    0,
    0,
    0,
    0,
    0,
    0,
    0,
    0,
    0,
    0,
    0,
    0,
    0,
    0,
    0,
    0,
    0,
    0,
    0,
    0,
    0,
    0,
    0,
    0,
    0,
    0,
    0,
    0,
    0,
    0,
    0,
    0,
    0,
    0,
    0,
    0,
    0,
    0,
    0,
    0,
    0,
    0,
    0,
    0,
    0,
    0,
    0,
    0,
    0,
    0,
    0,
    0,
    0,
    0,
    0,
    0,
    0,
    0,
    0,
    0,
    0,
    0,
    0,
    0,
    0,
    0,
    0,
    0,
    0,
    0,
    0,
    0,
    0,
    0,
    0,
    0,
    0,
    0,
    0,
    0,
    0,
    0,
    0,
    0,
    0,
    0,
    0,
    0,
    0,
    0,
    0,
    0,
    0,
    0,
    0,
    0,
    0,
    0,
    0,
    0,
    0,
    0,
    0,
    0,
    0,
    0,
    0,
    0,
    0,
    0,
    0,
    0,
    0,
    0,
    0,
    0,
    0,
    0,
    0,
    0,
    0,
    0,
    0,
    0,
    0,
    0,
    0,
    0,
    0,
    0,
    0,
    0,
    0,
    0,
    0,
    0,
    0,
    0,
    0,
    0,
    0,
    0,
    0,
    0,
    0,
    0,
    0,
    0,
    0,
    0,
    0,
    0,
    0,
    0,
    0,
    0,
    0,
    0,
    0,
    0,
    0,
    0,
    0,
    0,
    0,
    0,
    0,
    0,
    0,
    0,
    0,
    0,
    0,
    0,
    0,
    0,
    0,
    0,
    0,
    0,
    0,
    0,
    0,
    0,
    0,
    0,
    0,
    0,
    0,
    0,
    0,
    0,
    0,
    0,
    0,
    0,
    0,
    0,
    0,
    0,
    0,
    0,
    0,
    0,
    0,
    0,
    0,
    0,
    0,
    0,
    0,
    0,
    0,
    0,
    0,
    0,
    0,
    0,
    0,
    0,
    0,
    0,
    0,
    0,
    0,
    0,
    0,
    0,
    0,
    0,
    0,
    0,
    0,
    0,
    0,
    0,
    0,
    0,
    0,
    0,
    0,
    0,
    0,
    0,
    0,
    0,
    0,
    0,
    0,
    0,
    0,
    0,
    0,
    0,
    0,
    0,
    0,
    0,
    0,
    0,
    0,
    0,
    0,
    0,
    0,
    0,
    0,
    0,
    0,
    0,
    0,
    0,
    0,
    0,
    0,
    0,
    0,
    0,
    0,
    0,
    0,
    0,
    0,
    0,
    0,
    0,
    0,
    0,
    0,
    0,
    0,
    0,
    0,
    0,
    0,
    0,
    0,
    0,
    0,
    0,
    0,
    0,
    0,
    0,
    0,
    0,
    0,
    0,
    0,
    0,
    0,
    0,
    0,
    0,
    0,
    0,
    0,
    0,
    0,
    0,
    0,
    0,
    0,
    0,
    0,
    0,
    0,
    0,
    0,
    0,
    0,
    0,
    0,
    0,
    0,
    0,
    0,
    0,
    0,
    0,
    0,
    0,
    0,
    0,
    0,
    0,
    0,
    0,
    0,
    0,
    0,
    0,
    0,
    0,
    0,
    0,
    0,
    0,
    0,
    0,
    0,
    0,
    0,
    0,
    0,
    0,
    0,
    0,
    0,
    0,
    0,
    0,
    0,
    0,
    0,
    0,
    0,
    0,
    0,
    0,
    0,
    0,
    0,
    0,
    0,
    0,
    0,
    0,
    0,
    0,
    0,
    0,
    0,
    0,
    0,
    0,
    0,
    0,
    0,
    0,
    0,
    0,
    0,
    0,
    0,
    0,
    0,
    0,
    0,
    0,
    0,
    0,
    0,
    0,
    0,
    0,
    0,
    0,
    0,
    0,
    0,
    0,
    0,
    0,
    0,
    0,
    0,
    0,
    0,
    0,
    0,
    0,
    0,
    0,
    0,
    0,
    0,
    0,
    0,
    0,
    0,
    0,
    0,
    0,
    0,
    0,
    0,
    0,
    0,
    0,
    0,
    0,
    0,
    0,
    0,
    0,
    0,
    0,
    0,
    0,
    0,
    0,
    0,
    0,
    0,
    0,
    0,
    0,
    0,
    0,
    0,
    0,
    0,
    0,
    0,
    0,
    0,
    0,
    0,
    0,
    0,
    0,
    0,
    0,
    0,
    0,
    0,
    0,
    0,
    0,
    0,
    0,
    0,
    0,
    0,
    0,
    0,
    0,
    0,
    0,
    0,
    0,
    0,
    0,
    0,
    0,
    0,
    0,
    0,
    0,
    0,
    0,
    0,
    0,
    0,
    0,
    0,
    0,
    0,
    0,
    0,
    0,
    0,
    0,
    0,
    0,
    0,
    0,
    0,
    0,
    0,
    0,
    0,
    0,
    0,
    0,
    0,
    0,
    0,
    0,
    0,
    0,
    0,
    0,
    0,
    0,
    0,
    0,
    0,
    0,
    0,
    0,
    0,
    0,
    0,
    0,
    0,
    0,
    0,
    0,
    0,
    0,
    0,
    0,
    0,
    0,
    0,
    0,
    0,
    0,
    0,
    0,
    0,
    0,
    0,
    0,
    0,
    0,
    0,
    0,
    0,
    0,
    0,
    0,
    0,
    0,
    0,
    0,
    0,
    0,
    0,
    0,
    0,
    0,
    0,
    0,
    0,
    0,
    0,
    0,
    0,
    0,
    0,
    0,
    0,
    0,
    0,
    0,
    0,
    0,
    0,
    0,
    0,
    0,
    0,
    0,
    0,
    0,
    0,
    0,
    0,
    0,
    0,
    0,
    0,
    0,
    0,
    0,
    0,
    0,
    0,
    0,
    0,
    0,
    0,
    0,
    0,
    0,
    0,
    0,
    0,
    0,
    0,
    0,
    0,
    0,
    0,
    0,
    0,
    0,
    0,
    0,
    0,
    0,
    0,
    0,
    0,
    0,
    0,
    0,
    0,
    0,
    0,
    0,
    0,
    0,
    0,
    0,
    0,
    0,
    0,
    0,
    0,
    0,
    0,
    0,
    0,
    0,
    0,
    0,
    0,
    0,
    0,
    0,
    0,
    0,
    0,
    0,
    0,
    0,
    0,
    0,
    0,
    0,
    0,
    0,
    0,
    0,
    0,
    0,
    0,
    0,
    0,
    0,
    0,
    0,
    0,
    0,
    0,
    0,
    0,
    0,
    0,
    0,
    0,
    0,
    0,
    0,
    0,
    0,
    0,
    0,
    0,
    0,
    0,
    0,
    0,
    0,
    0,
    0,
    0,
    0,
    0,
    0,
    0,
    0,
    0,
    0,
    0,
    0,
    0,
    0,
    0,
    0,
    0,
    0,
    0,
    0,
    0,
    0,
    0,
    0,
    0,
    0,
    0,
    0,
    0,
    0,
    0,
    0,
    0,
    0,
    0,
    0,
    0,
    0,
    0,
    0,
    0,
    0,
    0,
    0,
    0,
    0,
    0,
    0,
    0,
    0,
    0,
    0,
    0,
    0,
    0,
    0,
    0,
    0,
    0,
    0,
    0,
    0,
    0,
    0,
    0,
    0,
    0,
    0,
    0,
    0,
    0,
    0,
    0,
    0,
    0,
    0,
    0,
    0,
    0,
    0,
    0,
    0,
    0,
    0,
    0,
    0,
    0,
    0,
    0,
    0,
    0,
    0,
    0,
    0,
    0,
    0,
    0,
    0,
    0,
    0,
    0,
    0,
    0,
    0,
    0,
    0,
    0,
    0,
    0,
    0,
    0,
    0,
    0,
    0,
    0,
    0,
    0,
    0,
    0,
    0,
    0,
    0,
    0,
    0,
    0,
    0,
    0,
    0,
    0,
    0,
    0,
    0,
    0,
    0,
    0,
    0,
    0,
    0,
    0,
    0,
    0,
    0,
    0,
    0,
    0,
    0,
    0,
    0,
    0,
    0,
    0,
    0,
    0,
    0,
    0,
    0,
    0,
    0,
    0,
    0,
    0,
    0,
    0,
    0,
    0,
    0,
    0,
    0,
    0,
    0,
    0,
    0,
    0,
    0,
    0,
    0,
    0,
    0,
    0,
    0,
    0,
    0,
    0,
    0,
    0,
    0,
    0,
    0,
    0,
    0,
    0,
    0,
    0,
    0,
    0,
    0,
    0,
    0,
    0,
    0,
    0,
    0,
    0,
    0,
    0,
    0,
    0,
    0,
    0,
    0,
    0,
    0,
    0,
    0,
    0,
    0,
    0,
    0,
    0,
    0,
    0,
    0,
    0,
    0,
    0,
    0,
    0,
    0,
    0,
    0,
    0,
    0,
    0,
    0,
    0,
    0,
    0,
    0,
    0,
    0,
    0,
    0,
    0,
    0,
    0,
    0,
    0,
    0,
    0,
    0,
    0,
    0,
    0,
    0,
    0,
    0,
    0,
    0,
    0,
    0,
    0,
    0,
    0,
    0,
    0,
    0,
    0,
    0,
    0,
    0,
    0,
    0,
    0,
    0,
    0,
    0,
    0,
    0,
    0,
    0,
    0,
    0,
    0,
    0,
    0,
    0,
    0,
    0,
    0,
    0,
    0,
    0,
    0,
    0,
    0,
    0,
    0,
    0,
    0,
    0,
    0,
    0,
    0,
    0,
    0,
    0,
    0,
    0,
    0,
    0,
    0,
    0,
    0,
    0,
    0,
    0,
    0,
    0,
    0,
    0,
    0,
    0,
    0,
    0,
    0,
    0,
    0,
    0,
    0,
    0,
    0,
    0,
    0,
    0,
    0,
    0,
    0,
    0,
    0,
    0,
    0,
    0,
    0,
    0,
    0,
    0,
    0,
    0,
    0,
    0,
    0,
    0,
    0,
    0,
    0,
    0,
    0,
    0,
    0,
    0,
    0,
    0,
    0,
    0,
    0,
    0,
    0,
    0,
    0,
    0,
    0,
    0,
    0,
    0,
    0,
    0,
    0,
    0,
    0,
    0,
    0,
    0,
    0,
    0,
    0,
    0,
    0,
    0,
    0,
    0,
    0,
    0,
    0,
    0,
    0,
    0,
    0,
    0,
    0,
    0,
    0,
    0,
    0,
    0,
    0,
    0,
    0,
    0,
    0,
    0,
    0,
    0,
    0,
    0,
    0,
    0,
    0,
    0,
    0,
    0,
    0,
    0,
    0,
    0,
    0,
    0,
    37122,
    37121,
    37122,
    37121,
    37122,
    37121,
    37122,
    37121,
    37122,
    37123,
    37126,
    0,
    0,
    0,
    0,
    0,
    0,
    0,
    0,
    0,
    0,
    0,
    0,
    0,
    0,
    0,
    0,
    0,
    0,
    0,
    0,
    0,
    0,
    0,
    0,
    0,
    0,
    0,
    0,
    0,
    0,
    0,
    0,
    0,
    0,
    0,
    0,
    0,
    0,
    0,
    0,
    0,
    0,
    0,
    0,
    0,
    0,
    0,
    0,
    0,
    0,
    0,
    0,
    0,
    0,
    0,
    0,
    0,
    0,
    0,
    0,
    0,
    0,
    0,
    0,
    0,
    0,
    0,
    0,
    0,
    0,
    0,
    0,
    0,
    0,
    0,
    0,
    0,
    0,
    0,
    0,
    0,
    0,
    0,
    0,
    0,
    0,
    0,
    0,
    0,
    0,
    0,
    0,
    0,
    0,
    0,
    0,
    0,
    0,
    0,
    0,
    0,
    0,
    0,
    0,
    0,
    0,
    0,
    0,
    0,
    0,
    0,
    0,
    0,
    0,
    0,
    0,
    0,
    0,
    0,
    0,
    0,
    0,
    0,
    0,
    0,
    0,
    0,
    0,
    0,
    0,
    0,
    0,
    0,
    0,
    0,
    0,
    0,
    0,
    0,
    0,
    0,
    37122,
    37123,
    37122,
    37122,
    37122,
    37122,
    37122,
    37123,
    37122,
    37123,
    37126,
    0,
    0,
    0,
    0,
    0,
    0,
    0,
    0,
    0,
    0,
    0,
    0,
    0,
    0,
    0,
    0,
    0,
    0,
    0,
    0,
    0,
    0,
    0,
    0,
    0,
    0,
    0,
    0,
    0,
    0,
    0,
    0,
    0,
    0,
    0,
    0,
    0,
    0,
    0,
    0,
    0,
    0,
    0,
    0,
    0,
    0,
    0,
    0,
    0,
    0,
    0,
    0,
    0,
    0,
    0,
    0,
    0,
    0,
    0,
    0,
    0,
    0,
    0,
    0,
    0,
    0,
    0,
    0,
    0,
    0,
    0,
    0,
    0,
    0,
    0,
    0,
    0,
    0,
    0,
    0,
    0,
    0,
    0,
    0,
    0,
    0,
    0,
    0,
    0,
    0,
    0,
    0,
    0,
    0,
    0,
    0,
    0,
    0,
    0,
    0,
    0,
    0,
    0,
    0,
    0,
    0,
    0,
    0,
    0,
    0,
    0,
    0,
    0,
    0,
    0,
    0,
    0,
    0,
    0,
    0,
    0,
    0,
    0,
    0,
    0,
    0,
    0,
    0,
    0,
    0,
    0,
    0,
    0,
    0,
    0,
    0,
    0,
    0,
    0,
    0,
    0,
    37122,
    37123,
    37122,
    2147522481,
    37122,
    2147522481,
    37122,
    37123,
    37122,
    2147522473,
    2147522472,
    0,
    0,
    0,
    0,
    0,
    0,
    0,
    0,
    0,
    0,
    0,
    0,
    0,
    0,
    0,
    0,
    0,
    0,
    0,
    0,
    0,
    0,
    0,
    0,
    0,
    0,
    0,
    0,
    0,
    0,
    0,
    0,
    0,
    0,
    0,
    0,
    0,
    0,
    0,
    0,
    0,
    0,
    0,
    0,
    0,
    0,
    0,
    0,
    0,
    0,
    0,
    0,
    0,
    0,
    0,
    0,
    0,
    0,
    0,
    0,
    0,
    0,
    0,
    0,
    0,
    0,
    0,
    0,
    0,
    0,
    0,
    0,
    0,
    0,
    0,
    0,
    0,
    0,
    0,
    0,
    0,
    0,
    0,
    0,
    0,
    0,
    0,
    0,
    0,
    0,
    0,
    0,
    0,
    0,
    0,
    0,
    0,
    0,
    0,
    0,
    0,
    0,
    0,
    0,
    0,
    0,
    0,
    0,
    0,
    0,
    0,
    0,
    0,
    0,
    0,
    0,
    0,
    0,
    0,
    0,
    0,
    0,
    0,
    0,
    0,
    0,
    0,
    0,
    0,
    0,
    0,
    0,
    0,
    0,
    0,
    0,
    0,
    0,
    0,
    0,
    0,
    2147522512,
    2147522511,
    2147522510,
    2147522513,
    2147522510,
    2147522513,
    2147522512,
    2147522511,
    2147522506,
    2147522505,
    2147522504,
    0,
    0,
    0,
    0,
    0,
    0,
    0,
    0,
    0,
    0,
    0,
    0,
    0,
    0,
    0,
    0,
    0,
    0,
    0,
    0,
    0,
    0,
    0,
    0,
    0,
    0,
    0,
    0,
    0,
    0,
    0,
    0,
    0,
    0,
    0,
    0,
    0,
    0,
    0,
    0,
    0,
    0,
    0,
    0,
    0,
    0,
    0,
    0,
    0,
    0,
    0,
    0,
    0,
    0,
    0,
    0,
    0,
    0,
    0,
    0,
    0,
    0,
    0,
    0,
    0,
    0,
    0,
    0,
    0,
    0,
    0,
    0,
    0,
    0,
    0,
    0,
    0,
    0,
    0,
    0,
    0,
    0,
    0,
    0,
    0,
    0,
    0,
    0,
    0,
    0,
    0,
    0,
    0,
    0,
    0,
    0,
    0,
    0,
    0,
    0,
    0,
    0,
    0,
    0,
    0,
    0,
    0,
    0,
    0,
    0,
    0,
    0,
    0,
    0,
    0,
    0,
    0,
    0,
    0,
    0,
    0,
    0,
    0,
    0,
    0,
    0,
    0,
    0,
    0,
    0,
    0,
    0,
    0,
    0,
    0,
    0,
    0,
    0,
    0,
    0,
    0,
    2147522540,
    2147522539,
    2147522542,
    2147522541,
    2147522542,
    2147522541,
    2147522540,
    2147522539,
    2147522538,
    2147522537,
    2147522536,
    0,
    0,
    0,
    0,
    0,
    0,
    0,
    0,
    0,
    0,
    0,
    0,
    0,
    0,
    0,
    0,
    0,
    0,
    0,
    0,
    0,
    0,
    0,
    0,
    0,
    0,
    0,
    0,
    0,
    0,
    0,
    0,
    0,
    0,
    0,
    0,
    0,
    0,
    0,
    0,
    0,
    0,
    0,
    0,
    0,
    0,
    0,
    0,
    0,
    0,
    0,
    0,
    0,
    0,
    0,
    0,
    0,
    0,
    0,
    0,
    0,
    0,
    0,
    0,
    0,
    0,
    0,
    0,
    0,
    0,
    0,
    0,
    0,
    0,
    0,
    0,
    0,
    0,
    0,
    0,
    0,
    0,
    0,
    0,
    0,
    0,
    0,
    0,
    0,
    0,
    0,
    0,
    0,
    0,
    0,
    0,
    0,
    0,
    0,
    0,
    0,
    0,
    0,
    0,
    0,
    0,
    0,
    0,
    0,
    0,
    0,
    0,
    0,
    0,
    0,
    0,
    0,
    0,
    0,
    0,
    0,
    0,
    0,
    0,
    0,
    0,
    0,
    0,
    0,
    0,
    0,
    0,
    0,
    0,
    0,
    0,
    0,
    0,
    0,
    0,
    0,
    2147522572,
    2147522571,
    2147522574,
    2147522573,
    2147522574,
    2147522573,
    2147522572,
    2147522571,
    2147522570,
    2147522569,
    2147522568,
    0,
    0,
    0,
    0,
    0,
    0,
    0,
    0,
    0,
    0,
    0,
    0,
    0,
    0,
    0,
    0,
    0,
    0,
    0,
    0,
    0,
    0,
    0,
    0,
    0,
    0,
    0,
    0,
    0,
    0,
    0,
    0,
    0,
    0,
    0,
    0,
    0,
    0,
    0,
    0,
    0,
    0,
    0,
    0,
    0,
    0,
    0,
    0,
    0,
    0,
    0,
    0,
    0,
    0,
    0,
    0,
    0,
    0,
    0,
    0,
    0,
    0,
    0,
    0,
    0,
    0,
    0,
    0,
    0,
    0,
    0,
    0,
    0,
    0,
    0,
    0,
    0,
    0,
    0,
    0,
    0,
    0,
    0,
    0,
    0,
    0,
    0,
    0,
    0,
    0,
    0,
    0,
    0,
    0,
    0,
    0,
    0,
    0,
    0,
    0,
    0,
    0,
    0,
    0,
    0,
    0,
    0,
    0,
    0,
    0,
    0,
    0,
    0,
    0,
    0,
    0,
    0,
    0,
    0,
    0,
    0,
    0,
    0,
    0,
    0,
    0,
    0,
    0,
    0,
    0,
    0,
    0,
    0,
    0,
    0,
    0,
    0,
    0,
    0,
    0,
    0,
    2147522604,
    2147522603,
    2147522606,
    2147522605,
    2147522606,
    2147522605,
    2147522604,
    2147522603,
    2147522602,
    2147522601,
    2147522600,
    0,
    0,
    0,
    0,
    0,
    0,
    0,
    0,
    0,
    0,
    0,
    0,
    0,
    0,
    0,
    0,
    0,
    0,
    0,
    0,
    0,
    0,
    0,
    0,
    0,
    0,
    0,
    0,
    0,
    0,
    0,
    0,
    0,
    0,
    0,
    0,
    0,
    0,
    0,
    0,
    0,
    0,
    0,
    0,
    0,
    0,
    0,
    0,
    0,
    0,
    0,
    0,
    0,
    0,
    0,
    0,
    0,
    0,
    0,
    0,
    0,
    0,
    0,
    0,
    0,
    0,
    0,
    0,
    0,
    0,
    0,
    0,
    0,
    0,
    0,
    0,
    0,
    0,
    0,
    0,
    0,
    0,
    0,
    0,
    0,
    0,
    0,
    0,
    0,
    0,
    0,
    0,
    0,
    0,
    0,
    0,
    0,
    0,
    0,
    0,
    0,
    0,
    0,
    0,
    0,
    0,
    0,
    0,
    0,
    0,
    0,
    0,
    0,
    0,
    0,
    0,
    0,
    0,
    0,
    0,
    0,
    0,
    0,
    0,
    0,
    0,
    0,
    0,
    0,
    0,
    0,
    0,
    0,
    0,
    0,
    0,
    0,
    0,
    0,
    0,
    0,
    2147522636,
    2147522635,
    2147522638,
    2147522637,
    2147522638,
    2147522637,
    2147522636,
    2147522635,
    2147522634,
    2147522633,
    2147522632,
    0,
    0,
    0,
    0,
    0,
    0,
    0,
    0,
    0,
    0,
    0,
    0,
    0,
    0,
    0,
    0,
    0,
    0,
    0,
    0,
    0,
    0,
    0,
    0,
    0,
    0,
    0,
    0,
    0,
    0,
    0,
    0,
    0,
    0,
    0,
    0,
    0,
    0,
    0,
    0,
    0,
    0,
    0,
    0,
    0,
    0,
    0,
    0,
    0,
    0,
    0,
    0,
    0,
    0,
    0,
    0,
    0,
    0,
    0,
    0,
    0,
    0,
    0,
    0,
    0,
    0,
    0,
    0,
    0,
    0,
    0,
    0,
    0,
    0,
    0,
    0,
    0,
    0,
    0,
    0,
    0,
    0,
    0,
    37022,
    37027,
    37026,
    37025,
    37026,
    37025,
    37026,
    37026,
    37025,
    37026,
    37026,
    37025,
    37026,
    37025,
    37026,
    37026,
    37025,
    37025,
    37026,
    37026,
    37025,
    37026,
    37026,
    38648,
    38649,
    38650,
    2147522298,
    2147522297,
    2147522296,
    37025,
    37026,
    37025,
    37026,
    37025,
    37026,
    37025,
    37026,
    37027,
    37030,
    0,
    0,
    0,
    0,
    0,
    0,
    0,
    0,
    0,
    0,
    0,
    0,
    0,
    0,
    0,
    0,
    0,
    0,
    0,
    2147522668,
    2147522667,
    2147522670,
    2147522669,
    2147522670,
    2147522669,
    2147522668,
    2147522667,
    2147522666,
    2147522665,
    2147522664,
    0,
    0,
    0,
    0,
    0,
    0,
    0,
    0,
    0,
    0,
    0,
    0,
    0,
    0,
    0,
    0,
    0,
    0,
    0,
    0,
    0,
    0,
    0,
    0,
    0,
    0,
    0,
    0,
    0,
    0,
    0,
    0,
    0,
    0,
    0,
    0,
    0,
    0,
    0,
    0,
    0,
    0,
    0,
    0,
    0,
    0,
    0,
    0,
    0,
    0,
    0,
    0,
    0,
    0,
    0,
    0,
    0,
    0,
    0,
    0,
    0,
    0,
    0,
    0,
    0,
    0,
    0,
    0,
    0,
    0,
    0,
    0,
    0,
    0,
    0,
    0,
    0,
    0,
    0,
    0,
    0,
    0,
    0,
    37054,
    37059,
    37058,
    37057,
    37058,
    37057,
    37058,
    37058,
    37057,
    37058,
    37058,
    37057,
    37058,
    37057,
    37058,
    37058,
    37057,
    37057,
    37058,
    37058,
    37057,
    37058,
    37058,
    38680,
    38681,
    38682,
    2147522330,
    2147522329,
    2147522328,
    37057,
    37058,
    37057,
    37058,
    37057,
    37058,
    37057,
    37058,
    37059,
    37062,
    0,
    0,
    0,
    0,
    0,
    0,
    0,
    0,
    0,
    0,
    0,
    0,
    0,
    0,
    0,
    0,
    0,
    0,
    0,
    2147522700,
    2147522699,
    2147522702,
    2147522701,
    2147522702,
    2147522701,
    2147522700,
    2147522699,
    2147522698,
    2147522697,
    2147522696,
    0,
    0,
    0,
    0,
    0,
    0,
    0,
    0,
    0,
    0,
    0,
    0,
    0,
    0,
    0,
    0,
    0,
    0,
    0,
    0,
    0,
    0,
    0,
    0,
    0,
    0,
    0,
    0,
    0,
    0,
    0,
    0,
    0,
    0,
    0,
    0,
    0,
    0,
    0,
    0,
    0,
    0,
    0,
    0,
    0,
    0,
    0,
    0,
    0,
    0,
    0,
    0,
    0,
    0,
    0,
    0,
    0,
    0,
    0,
    0,
    0,
    0,
    0,
    0,
    0,
    0,
    0,
    0,
    0,
    0,
    0,
    0,
    0,
    0,
    0,
    0,
    0,
    0,
    0,
    0,
    0,
    0,
    0,
    37086,
    37091,
    37090,
    37089,
    37090,
    37089,
    37090,
    37090,
    37089,
    37090,
    37090,
    37089,
    37090,
    37089,
    37090,
    37090,
    37089,
    37089,
    37090,
    37090,
    37089,
    37090,
    37090,
    38712,
    38713,
    38714,
    2147522362,
    2147522361,
    2147522360,
    37089,
    37090,
    37089,
    37090,
    37089,
    37090,
    37089,
    37090,
    37091,
    37094,
    0,
    0,
    0,
    0,
    0,
    0,
    0,
    0,
    0,
    0,
    0,
    0,
    0,
    0,
    0,
    0,
    0,
    0,
    0,
    2147522732,
    2147522731,
    2147522734,
    2147522733,
    2147522734,
    2147522733,
    2147522732,
    2147522731,
    2147522730,
    2147522729,
    2147522728,
    0,
    0,
    0,
    0,
    0,
    0,
    0,
    0,
    0,
    0,
    0,
    0,
    0,
    0,
    0,
    0,
    0,
    0,
    0,
    0,
    0,
    0,
    0,
    0,
    0,
    0,
    0,
    0,
    0,
    0,
    0,
    0,
    0,
    0,
    0,
    0,
    0,
    0,
    0,
    0,
    0,
    0,
    0,
    0,
    0,
    0,
    0,
    0,
    0,
    0,
    0,
    0,
    0,
    0,
    0,
    0,
    0,
    0,
    0,
    0,
    0,
    0,
    0,
    0,
    0,
    0,
    0,
    0,
    0,
    0,
    0,
    0,
    0,
    0,
    0,
    0,
    0,
    0,
    0,
    0,
    0,
    0,
    0,
    37118,
    37123,
    37122,
    37121,
    37122,
    37121,
    37122,
    37122,
    37121,
    37122,
    37122,
    37121,
    37122,
    37121,
    37122,
    37122,
    37121,
    37121,
    37122,
    37122,
    38773,
    38774,
    38775,
    38776,
    38777,
    38778,
    2147522426,
    2147522425,
    2147522424,
    2147522423,
    2147522422,
    2147522421,
    37122,
    37121,
    37122,
    37121,
    37122,
    37123,
    37126,
    0,
    0,
    0,
    0,
    0,
    0,
    0,
    0,
    0,
    0,
    0,
    0,
    0,
    0,
    0,
    0,
    0,
    0,
    0,
    2147522762,
    2147522762,
    39113,
    39114,
    39113,
    39114,
    2147522762,
    2147522762,
    2147522762,
    39122,
    39096,
    0,
    0,
    0,
    0,
    0,
    0,
    0,
    0,
    0,
    0,
    0,
    0,
    0,
    0,
    0,
    0,
    0,
    0,
    0,
    0,
    0,
    0,
    0,
    0,
    0,
    0,
    0,
    0,
    0,
    0,
    0,
    0,
    0,
    0,
    0,
    0,
    0,
    0,
    0,
    0,
    0,
    0,
    0,
    0,
    0,
    0,
    0,
    0,
    0,
    0,
    0,
    0,
    0,
    0,
    0,
    0,
    0,
    0,
    0,
    0,
    0,
    0,
    0,
    0,
    0,
    0,
    0,
    0,
    0,
    0,
    0,
    0,
    0,
    0,
    0,
    0,
    0,
    0,
    0,
    0,
    0,
    0,
    0,
    37118,
    37123,
    37122,
    37121,
    37122,
    37121,
    37122,
    37122,
    37121,
    37122,
    37121,
    37122,
    37122,
    37123,
    37122,
    37121,
    37122,
    37121,
    37122,
    37122,
    38805,
    38806,
    38807,
    38808,
    38809,
    38810,
    2147522458,
    2147522457,
    2147522456,
    2147522455,
    2147522454,
    2147522453,
    37122,
    37121,
    37122,
    37121,
    37122,
    37123,
    37126,
    0,
    0,
    0,
    0,
    0,
    0,
    0,
    0,
    0,
    0,
    0,
    0,
    0,
    0,
    0,
    0,
    0,
    0,
    0,
    39147,
    39148,
    39145,
    39146,
    39145,
    39146,
    39147,
    39148,
    39153,
    39154,
    2147522792,
    0,
    0,
    0,
    0,
    0,
    0,
    0,
    0,
    0,
    0,
    0,
    0,
    0,
    0,
    0,
    0,
    0,
    0,
    0,
    0,
    0,
    0,
    0,
    0,
    0,
    0,
    0,
    0,
    0,
    0,
    0,
    0,
    0,
    0,
    0,
    0,
    0,
    0,
    0,
    0,
    0,
    0,
    0,
    0,
    0,
    0,
    0,
    0,
    0,
    0,
    0,
    0,
    0,
    0,
    0,
    0,
    0,
    0,
    0,
    0,
    0,
    0,
    0,
    0,
    0,
    0,
    0,
    0,
    0,
    0,
    0,
    0,
    0,
    0,
    0,
    0,
    0,
    0,
    0,
    0,
    0,
    0,
    0,
    37118,
    37123,
    37122,
    37121,
    37122,
    37121,
    37122,
    37122,
    37121,
    37122,
    37121,
    37122,
    37122,
    37123,
    37122,
    37121,
    37122,
    37121,
    37122,
    37122,
    38741,
    38742,
    38743,
    38744,
    38745,
    38746,
    2147522394,
    2147522393,
    2147522392,
    2147522391,
    2147522390,
    2147522389,
    37122,
    37121,
    37122,
    37121,
    37122,
    37123,
    37126,
    0,
    0,
    0,
    0,
    0,
    0,
    0,
    0,
    0,
    0,
    0,
    0,
    0,
    0,
    0,
    0,
    0,
    0,
    0,
    39179,
    39180,
    39177,
    39178,
    39177,
    39178,
    39179,
    39180,
    39185,
    39186,
    2147522824,
    0,
    0,
    0,
    0,
    0,
    0,
    0,
    0,
    0,
    0,
    0,
    0,
    0,
    0,
    0,
    0,
    0,
    0,
    0,
    0,
    0,
    0,
    0,
    0,
    0,
    0,
    0,
    0,
    0,
    0,
    0,
    0,
    0,
    0,
    0,
    0,
    0,
    0,
    0,
    0,
    0,
    0,
    0,
    0,
    0,
    0,
    0,
    0,
    0,
    0,
    0,
    0,
    0,
    0,
    0,
    0,
    0,
    0,
    0,
    0,
    0,
    0,
    0,
    0,
    0,
    0,
    0,
    0,
    0,
    0,
    0,
    0,
    0,
    0,
    0,
    0,
    0,
    0,
    0,
    0,
    0,
    0,
    0,
    37118,
    37123,
    37122,
    37121,
    37122,
    37121,
    37122,
    37122,
    37121,
    37122,
    37121,
    37122,
    37122,
    37123,
    37122,
    37121,
    37122,
    37121,
    37122,
    37122,
    38773,
    38774,
    38775,
    38776,
    38777,
    38778,
    2147522426,
    2147522425,
    2147522424,
    2147522423,
    2147522422,
    2147522421,
    37122,
    37121,
    37122,
    37121,
    37122,
    37123,
    37126,
    0,
    0,
    0,
    0,
    0,
    0,
    0,
    0,
    0,
    0,
    0,
    0,
    0,
    0,
    0,
    0,
    0,
    0,
    0,
    0,
    0,
    0,
    0,
    0,
    0,
    0,
    0,
    0,
    0,
    0,
    0,
    0,
    0,
    0,
    0,
    0,
    0,
    0,
    0,
    0,
    0,
    0,
    0,
    0,
    0,
    0,
    0,
    0,
    0,
    0,
    0,
    0,
    0,
    0,
    0,
    0,
    0,
    0,
    0,
    0,
    0,
    0,
    0,
    0,
    0,
    0,
    0,
    0,
    0,
    0,
    0,
    0,
    0,
    0,
    0,
    0,
    0,
    0,
    37022,
    37025,
    37026,
    37027,
    37026,
    37025,
    37026,
    37025,
    37026,
    37027,
    37030,
    0,
    0,
    0,
    0,
    0,
    0,
    0,
    0,
    0,
    0,
    0,
    0,
    0,
    0,
    0,
    0,
    0,
    0,
    0,
    0,
    0,
    0,
    0,
    0,
    37118,
    37123,
    37122,
    37121,
    37122,
    37121,
    37122,
    37122,
    37121,
    37122,
    37121,
    37122,
    37122,
    37123,
    37122,
    37121,
    37122,
    37121,
    37122,
    37122,
    38741,
    38742,
    38743,
    38744,
    38745,
    38746,
    2147522394,
    2147522393,
    2147522392,
    2147522391,
    2147522390,
    2147522389,
    37122,
    37121,
    37122,
    37121,
    37122,
    37123,
    37126,
    0,
    0,
    0,
    0,
    0,
    0,
    0,
    0,
    0,
    0,
    0,
    0,
    0,
    0,
    0,
    0,
    0,
    0,
    0,
    0,
    0,
    0,
    0,
    0,
    0,
    0,
    0,
    0,
    0,
    0,
    0,
    0,
    0,
    0,
    0,
    0,
    0,
    0,
    0,
    0,
    0,
    0,
    0,
    0,
    0,
    0,
    0,
    0,
    0,
    0,
    0,
    0,
    0,
    0,
    0,
    0,
    0,
    0,
    0,
    0,
    0,
    0,
    0,
    0,
    0,
    0,
    0,
    0,
    0,
    0,
    0,
    0,
    0,
    0,
    0,
    0,
    0,
    0,
    37054,
    37057,
    37058,
    37059,
    37058,
    37057,
    37058,
    37057,
    37058,
    37059,
    37062,
    0,
    0,
    0,
    0,
    0,
    0,
    0,
    0,
    0,
    0,
    0,
    0,
    0,
    0,
    0,
    0,
    0,
    0,
    0,
    0,
    0,
    0,
    0,
    0,
    37118,
    37123,
    37122,
    37121,
    37122,
    37121,
    37122,
    37122,
    37121,
    37122,
    37121,
    37122,
    37122,
    37123,
    37122,
    37121,
    37122,
    37122,
    37123,
    37122,
    38773,
    38774,
    38775,
    38776,
    38777,
    38778,
    2147522426,
    2147522425,
    2147522424,
    2147522423,
    2147522422,
    2147522421,
    37122,
    37121,
    37122,
    37121,
    37122,
    37123,
    37126,
    0,
    0,
    0,
    0,
    0,
    0,
    0,
    0,
    0,
    0,
    0,
    0,
    0,
    0,
    0,
    0,
    0,
    0,
    0,
    0,
    0,
    0,
    0,
    0,
    0,
    0,
    0,
    0,
    0,
    0,
    0,
    0,
    0,
    0,
    0,
    0,
    0,
    0,
    0,
    0,
    0,
    0,
    0,
    0,
    0,
    0,
    0,
    0,
    0,
    0,
    0,
    0,
    0,
    0,
    0,
    0,
    0,
    0,
    0,
    0,
    0,
    0,
    0,
    0,
    0,
    0,
    0,
    0,
    0,
    0,
    0,
    0,
    0,
    0,
    0,
    0,
    0,
    0,
    37086,
    37089,
    37090,
    37091,
    37090,
    37089,
    37090,
    37089,
    37090,
    37091,
    37094,
    0,
    0,
    0,
    0,
    0,
    0,
    0,
    0,
    0,
    0,
    0,
    0,
    0,
    0,
    0,
    0,
    0,
    0,
    0,
    0,
    0,
    0,
    0,
    0,
    37118,
    37123,
    37122,
    37121,
    37122,
    37121,
    37122,
    37122,
    37121,
    37122,
    37121,
    37122,
    37122,
    37123,
    37122,
    37121,
    37122,
    37122,
    37123,
    37122,
    38805,
    38806,
    38807,
    38808,
    38809,
    38810,
    2147522458,
    2147522457,
    2147522456,
    2147522455,
    2147522454,
    2147522453,
    37122,
    37122,
    37122,
    37123,
    37122,
    37123,
    37126,
    0,
    0,
    0,
    0,
    0,
    0,
    0,
    0,
    0,
    0,
    0,
    0,
    0,
    0,
    0,
    0,
    0,
    0,
    0,
    0,
    0,
    0,
    0,
    0,
    0,
    0,
    0,
    0,
    0,
    0,
    0,
    0,
    0,
    0,
    0,
    0,
    0,
    0,
    0,
    0,
    0,
    0,
    0,
    0,
    0,
    0,
    0,
    0,
    0,
    0,
    0,
    0,
    0,
    0,
    0,
    0,
    0,
    0,
    0,
    0,
    0,
    0,
    0,
    0,
    0,
    0,
    0,
    0,
    0,
    0,
    0,
    0,
    0,
    0,
    0,
    0,
    0,
    0,
    37118,
    37121,
    37122,
    37123,
    37122,
    37121,
    37122,
    37121,
    37122,
    37123,
    37126,
    0,
    0,
    0,
    0,
    0,
    0,
    0,
    0,
    0,
    0,
    0,
    0,
    0,
    0,
    0,
    0,
    0,
    0,
    0,
    0,
    0,
    0,
    0,
    0,
    37118,
    37123,
    37122,
    37121,
    37122,
    37121,
    37122,
    37122,
    37121,
    37122,
    37121,
    37122,
    37122,
    37123,
    2147522483,
    2147522482,
    2147522481,
    37122,
    37123,
    37122,
    38837,
    38838,
    38839,
    38840,
    38841,
    38842,
    2147522490,
    2147522489,
    2147522488,
    2147522487,
    2147522486,
    2147522485,
    37122,
    2147522481,
    37122,
    37123,
    37122,
    2147522473,
    2147522472,
    0,
    0,
    0,
    0,
    0,
    0,
    0,
    0,
    0,
    0,
    0,
    0,
    0,
    0,
    0,
    0,
    0,
    0,
    0,
    0,
    0,
    0,
    0,
    0,
    0,
    0,
    0,
    0,
    0,
    0,
    0,
    0,
    0,
    0,
    0,
    0,
    0,
    0,
    0,
    0,
    0,
    0,
    0,
    0,
    0,
    0,
    0,
    0,
    0,
    0,
    0,
    0,
    0,
    0,
    0,
    0,
    0,
    0,
    0,
    0,
    0,
    0,
    0,
    0,
    0,
    0,
    0,
    0,
    0,
    0,
    0,
    0,
    0,
    0,
    0,
    0,
    0,
    0,
    37118,
    37121,
    37122,
    37123,
    37122,
    37121,
    37122,
    37121,
    37122,
    37123,
    37126,
    0,
    0,
    0,
    0,
    0,
    0,
    0,
    0,
    0,
    0,
    0,
    0,
    0,
    0,
    0,
    0,
    0,
    0,
    0,
    0,
    0,
    0,
    0,
    0,
    37118,
    37123,
    37122,
    37121,
    37122,
    37121,
    37122,
    37122,
    37121,
    37122,
    37121,
    37122,
    37123,
    37126,
    2147522515,
    2147522514,
    2147522513,
    2147522512,
    2147522511,
    2147522510,
    38869,
    38870,
    38871,
    38872,
    38873,
    38872,
    38873,
    2147522521,
    2147522520,
    2147522519,
    2147522518,
    2147522517,
    2147522510,
    2147522513,
    2147522512,
    2147522511,
    2147522506,
    2147522505,
    2147522504,
    0,
    0,
    0,
    0,
    0,
    0,
    0,
    0,
    0,
    0,
    0,
    0,
    0,
    0,
    0,
    0,
    0,
    0,
    0,
    0,
    0,
    0,
    0,
    0,
    0,
    0,
    0,
    0,
    0,
    0,
    0,
    0,
    0,
    0,
    0,
    0,
    0,
    0,
    0,
    0,
    0,
    0,
    0,
    0,
    0,
    0,
    0,
    0,
    0,
    0,
    0,
    0,
    0,
    0,
    0,
    0,
    0,
    0,
    0,
    0,
    0,
    0,
    0,
    0,
    0,
    0,
    0,
    0,
    0,
    0,
    0,
    0,
    0,
    0,
    0,
    0,
    0,
    0,
    37118,
    37121,
    37122,
    37123,
    37122,
    37121,
    37122,
    37121,
    37122,
    37123,
    37126,
    0,
    0,
    0,
    0,
    0,
    0,
    0,
    0,
    0,
    0,
    0,
    0,
    0,
    0,
    0,
    0,
    0,
    0,
    0,
    0,
    0,
    0,
    0,
    0,
    37118,
    37123,
    37122,
    37121,
    37122,
    37121,
    37122,
    37122,
    37121,
    37122,
    37121,
    37122,
    37123,
    37126,
    2147522547,
    2147522546,
    2147522545,
    2147522544,
    2147522543,
    2147522542,
    38901,
    38902,
    38903,
    38904,
    38905,
    38906,
    2147522554,
    2147522553,
    2147522552,
    2147522551,
    2147522550,
    2147522549,
    2147522542,
    2147522541,
    2147522540,
    2147522539,
    2147522538,
    2147522537,
    2147522536,
    0,
    0,
    0,
    0,
    0,
    0,
    0,
    0,
    0,
    0,
    0,
    0,
    0,
    0,
    0,
    0,
    0,
    0,
    0,
    0,
    0,
    0,
    0,
    0,
    0,
    0,
    0,
    0,
    0,
    0,
    0,
    0,
    0,
    0,
    0,
    0,
    0,
    0,
    0,
    0,
    0,
    0,
    0,
    0,
    0,
    0,
    0,
    0,
    0,
    0,
    0,
    0,
    0,
    0,
    0,
    0,
    0,
    0,
    0,
    0,
    0,
    0,
    0,
    0,
    0,
    0,
    0,
    0,
    0,
    0,
    0,
    0,
    0,
    0,
    0,
    0,
    0,
    0,
    37118,
    37121,
    37122,
    37123,
    37122,
    37121,
    37122,
    37121,
    37122,
    37123,
    37126,
    0,
    0,
    0,
    0,
    0,
    0,
    0,
    0,
    0,
    0,
    0,
    0,
    0,
    0,
    0,
    0,
    0,
    0,
    0,
    0,
    0,
    0,
    0,
    0,
    37118,
    37123,
    37122,
    37121,
    37122,
    37121,
    37122,
    37122,
    37121,
    37122,
    37121,
    37122,
    37123,
    37126,
    2147522579,
    2147522578,
    2147522577,
    2147522576,
    2147522575,
    2147522570,
    2147522569,
    38934,
    38935,
    38936,
    38937,
    38938,
    2147522586,
    2147522585,
    2147522584,
    2147522583,
    2147522582,
    38921,
    38922,
    2147522573,
    2147522572,
    2147522571,
    2147522570,
    2147522569,
    2147522568,
    0,
    0,
    0,
    0,
    0,
    0,
    0,
    0,
    0,
    0,
    0,
    0,
    0,
    0,
    0,
    0,
    0,
    0,
    0,
    0,
    0,
    0,
    0,
    0,
    0,
    0,
    0,
    0,
    0,
    0,
    0,
    0,
    0,
    0,
    0,
    0,
    0,
    0,
    0,
    0,
    0,
    0,
    0,
    0,
    0,
    0,
    0,
    0,
    0,
    0,
    0,
    0,
    0,
    0,
    0,
    0,
    0,
    0,
    0,
    0,
    0,
    0,
    0,
    0,
    0,
    0,
    0,
    0,
    0,
    0,
    0,
    0,
    0,
    0,
    0,
    0,
    0,
    0,
    37118,
    37121,
    37122,
    37123,
    37122,
    37121,
    37122,
    37121,
    37122,
    37123,
    37126,
    0,
    0,
    0,
    0,
    0,
    0,
    0,
    0,
    0,
    0,
    0,
    0,
    0,
    0,
    0,
    0,
    0,
    0,
    0,
    0,
    0,
    0,
    0,
    0,
    37118,
    37123,
    37122,
    37121,
    37122,
    37121,
    37122,
    37122,
    37121,
    37122,
    37121,
    37122,
    37123,
    37126,
    2147522611,
    2147522610,
    2147522609,
    2147522608,
    2147522607,
    2147522602,
    2147522601,
    38966,
    38967,
    38968,
    38969,
    38970,
    2147522618,
    2147522617,
    2147522616,
    2147522615,
    2147522614,
    38953,
    38954,
    2147522605,
    2147522604,
    2147522603,
    2147522602,
    2147522601,
    2147522600,
    0,
    0,
    0,
    0,
    0,
    0,
    0,
    0,
    0,
    0,
    0,
    0,
    0,
    0,
    0,
    0,
    0,
    0,
    0,
    0,
    0,
    0,
    0,
    0,
    0,
    0,
    0,
    0,
    0,
    0,
    0,
    0,
    0,
    0,
    0,
    0,
    0,
    0,
    0,
    0,
    0,
    0,
    0,
    0,
    0,
    0,
    0,
    0,
    0,
    0,
    0,
    0,
    0,
    0,
    0,
    0,
    0,
    0,
    0,
    0,
    0,
    0,
    0,
    0,
    0,
    0,
    0,
    0,
    0,
    0,
    0,
    0,
    0,
    0,
    0,
    0,
    0,
    0,
    37118,
    37121,
    37122,
    37123,
    37122,
    37121,
    37122,
    37121,
    37122,
    37123,
    37126,
    0,
    0,
    0,
    0,
    0,
    0,
    0,
    0,
    0,
    0,
    0,
    0,
    0,
    0,
    0,
    0,
    0,
    0,
    0,
    0,
    0,
    0,
    0,
    0,
    37118,
    37123,
    37122,
    37121,
    37122,
    37121,
    37122,
    37122,
    37121,
    37122,
    37121,
    37122,
    37123,
    37126,
    2147522643,
    2147522642,
    2147522641,
    2147522640,
    2147522639,
    2147522634,
    2147522633,
    38998,
    38999,
    39000,
    39001,
    39002,
    2147522650,
    2147522649,
    2147522648,
    2147522647,
    2147522646,
    38985,
    38986,
    2147522637,
    2147522636,
    2147522635,
    2147522634,
    2147522633,
    2147522632,
    0,
    0,
    0,
    0,
    0,
    0,
    0,
    0,
    0,
    0,
    0,
    0,
    0,
    0,
    0,
    0,
    0,
    0,
    0,
    0,
    0,
    0,
    0,
    0,
    0,
    0,
    0,
    0,
    0,
    0,
    0,
    0,
    0,
    0,
    0,
    0,
    0,
    0,
    0,
    0,
    0,
    0,
    0,
    0,
    0,
    0,
    0,
    0,
    0,
    0,
    0,
    0,
    0,
    0,
    0,
    0,
    0,
    0,
    0,
    0,
    0,
    0,
    0,
    0,
    0,
    0,
    0,
    0,
    0,
    0,
    0,
    0,
    0,
    0,
    0,
    0,
    0,
    0,
    37118,
    37121,
    37122,
    37123,
    37122,
    37121,
    37122,
    37121,
    37122,
    37123,
    37126,
    0,
    0,
    0,
    0,
    0,
    0,
    0,
    0,
    0,
    0,
    0,
    0,
    0,
    0,
    0,
    0,
    0,
    0,
    0,
    0,
    0,
    0,
    0,
    0,
    37118,
    37123,
    37122,
    37121,
    37122,
    37121,
    37122,
    37122,
    37121,
    37122,
    37121,
    37122,
    37123,
    37126,
    2147522675,
    2147522674,
    2147522673,
    2147522672,
    2147522671,
    2147522670,
    39029,
    39030,
    39031,
    39032,
    39033,
    39034,
    2147522682,
    2147522681,
    2147522680,
    2147522679,
    2147522678,
    2147522677,
    2147522670,
    2147522669,
    2147522668,
    2147522667,
    2147522666,
    2147522665,
    2147522664,
    0,
    0,
    0,
    0,
    0,
    0,
    0,
    0,
    0,
    0,
    0,
    0,
    0,
    0,
    0,
    0,
    0,
    0,
    0,
    0,
    0,
    0,
    0,
    0,
    0,
    0,
    0,
    0,
    0,
    0,
    0,
    0,
    0,
    0,
    0,
    0,
    0,
    0,
    0,
    0,
    0,
    0,
    0,
    0,
    0,
    0,
    0,
    0,
    0,
    0,
    0,
    0,
    0,
    0,
    0,
    0,
    0,
    0,
    0,
    0,
    0,
    0,
    0,
    0,
    0,
    0,
    0,
    0,
    0,
    0,
    0,
    0,
    0,
    0,
    0,
    0,
    0,
    0,
    37118,
    37121,
    37122,
    37123,
    37122,
    37121,
    37122,
    37121,
    37122,
    37123,
    37126,
    0,
    0,
    0,
    0,
    0,
    0,
    0,
    0,
    0,
    0,
    0,
    0,
    0,
    0,
    0,
    0,
    0,
    0,
    0,
    0,
    0,
    0,
    0,
    0,
    37118,
    37123,
    37122,
    37121,
    37122,
    37121,
    37122,
    37122,
    37121,
    37122,
    37121,
    37122,
    37123,
    37126,
    2147522707,
    2147522706,
    2147522705,
    2147522704,
    2147522703,
    2147522702,
    39061,
    39062,
    39063,
    39064,
    39065,
    39066,
    2147522714,
    2147522713,
    2147522712,
    2147522711,
    2147522710,
    2147522709,
    2147522702,
    2147522701,
    2147522700,
    2147522699,
    2147522698,
    2147522697,
    2147522696,
    0,
    0,
    0,
    0,
    0,
    0,
    0,
    0,
    0,
    0,
    0,
    0,
    0,
    0,
    0,
    0,
    0,
    0,
    0,
    0,
    0,
    0,
    0,
    0,
    0,
    0,
    0,
    0,
    0,
    0,
    0,
    0,
    0,
    0,
    0,
    0,
    0,
    0,
    0,
    0,
    0,
    0,
    0,
    0,
    0,
    0,
    0,
    0,
    0,
    0,
    0,
    0,
    0,
    0,
    0,
    0,
    0,
    0,
    0,
    0,
    0,
    0,
    0,
    0,
    0,
    0,
    0,
    0,
    0,
    0,
    0,
    0,
    0,
    0,
    0,
    0,
    0,
    0,
    37118,
    37121,
    37122,
    37123,
    37122,
    37121,
    37122,
    37121,
    37122,
    37123,
    37126,
    0,
    0,
    0,
    0,
    0,
    0,
    0,
    0,
    0,
    0,
    0,
    0,
    0,
    0,
    0,
    0,
    0,
    0,
    0,
    0,
    0,
    0,
    0,
    0,
    37118,
    37123,
    37122,
    37121,
    37122,
    37121,
    37122,
    37122,
    37121,
    37122,
    37121,
    37122,
    37123,
    37126,
    2147522739,
    2147522738,
    2147522737,
    2147522736,
    2147522735,
    2147522734,
    39093,
    39094,
    39095,
    39096,
    39097,
    2147522762,
    2147522762,
    2147522745,
    2147522744,
    2147522743,
    2147522742,
    2147522741,
    2147522734,
    2147522733,
    2147522732,
    2147522731,
    2147522730,
    2147522729,
    2147522728,
    0,
    0,
    0,
    0,
    0,
    0,
    0,
    0,
    0,
    0,
    0,
    0,
    0,
    0,
    0,
    0,
    0,
    0,
    0,
    0,
    0,
    0,
    0,
    0,
    0,
    0,
    0,
    0,
    0,
    0,
    0,
    0,
    0,
    0,
    0,
    0,
    0,
    0,
    0,
    0,
    0,
    0,
    0,
    0,
    0,
    0,
    0,
    0,
    0,
    0,
    0,
    0,
    0,
    0,
    0,
    0,
    0,
    0,
    0,
    0,
    0,
    0,
    0,
    0,
    0,
    0,
    0,
    0,
    0,
    0,
    0,
    0,
    0,
    0,
    0,
    0,
    0,
    0,
    37118,
    37121,
    37122,
    37123,
    37122,
    37121,
    37122,
    37121,
    37122,
    37123,
    37126,
    0,
    0,
    0,
    0,
    0,
    0,
    0,
    0,
    0,
    0,
    0,
    0,
    0,
    0,
    0,
    0,
    0,
    0,
    0,
    0,
    0,
    0,
    0,
    0,
    37118,
    37123,
    37122,
    37121,
    37122,
    37121,
    37122,
    37122,
    37121,
    37122,
    37121,
    37122,
    37123,
    37126,
    2147522771,
    2147522770,
    2147522762,
    39096,
    39096,
    39113,
    39125,
    39126,
    39127,
    39128,
    2147522799,
    2147522798,
    2147522798,
    2147522797,
    2147522776,
    2147522775,
    2147522774,
    2147522773,
    39113,
    39114,
    2147522762,
    2147522762,
    2147522762,
    39122,
    39096,
    0,
    0,
    0,
    0,
    0,
    0,
    0,
    0,
    0,
    0,
    0,
    0,
    0,
    0,
    0,
    0,
    0,
    0,
    0,
    0,
    0,
    0,
    0,
    0,
    0,
    0,
    0,
    0,
    0,
    0,
    0,
    0,
    0,
    0,
    0,
    0,
    0,
    0,
    0,
    0,
    0,
    0,
    0,
    0,
    0,
    0,
    0,
    0,
    0,
    0,
    0,
    0,
    0,
    0,
    0,
    0,
    0,
    0,
    0,
    0,
    0,
    0,
    0,
    0,
    0,
    0,
    0,
    0,
    0,
    0,
    0,
    0,
    0,
    0,
    0,
    0,
    0,
    0,
    37118,
    37121,
    37122,
    37123,
    37122,
    37121,
    37122,
    37121,
    37122,
    37123,
    37126,
    0,
    0,
    0,
    0,
    0,
    0,
    0,
    0,
    0,
    0,
    0,
    0,
    0,
    0,
    0,
    0,
    0,
    0,
    0,
    0,
    0,
    0,
    0,
    0,
    37118,
    37123,
    37122,
    37121,
    37122,
    37121,
    37122,
    37122,
    37121,
    37122,
    37121,
    37122,
    37123,
    37126,
    2147522803,
    2147522802,
    2147522801,
    39147,
    39147,
    39145,
    39157,
    39158,
    39159,
    39160,
    2147522831,
    2147522830,
    2147522830,
    2147522829,
    2147522808,
    2147522807,
    2147522806,
    2147522805,
    39145,
    39146,
    39147,
    39148,
    39153,
    39154,
    2147522792,
    0,
    0,
    0,
    0,
    0,
    0,
    0,
    0,
    0,
    0,
    0,
    0,
    0,
    0,
    0,
    0,
    0,
    0,
    0,
    0,
    0,
    0,
    0,
    0,
    0,
    0,
    0,
    0,
    0,
    0,
    0,
    0,
    0,
    0,
    0,
    0,
    0,
    0,
    0,
    0,
    0,
    0,
    0,
    0,
    0,
    0,
    0,
    0,
    0,
    0,
    0,
    0,
    0,
    0,
    0,
    0,
    0,
    0,
    0,
    0,
    0,
    0,
    0,
    0,
    0,
    0,
    0,
    0,
    0,
    0,
    0,
    0,
    0,
    0,
    0,
    0,
    0,
    0,
    37118,
    37121,
    37122,
    37123,
    37122,
    37121,
    37122,
    37121,
    37122,
    37123,
    37126,
    0,
    0,
    0,
    0,
    0,
    0,
    0,
    0,
    0,
    0,
    0,
    0,
    0,
    0,
    0,
    0,
    0,
    0,
    0,
    0,
    0,
    0,
    0,
    0,
    37118,
    37123,
    37122,
    37121,
    37122,
    37121,
    37122,
    37122,
    37121,
    37122,
    37121,
    37122,
    37123,
    37126,
    2147522835,
    2147522834,
    2147522833,
    39179,
    39179,
    39177,
    39189,
    39190,
    39191,
    39192,
    39193,
    39194,
    2147522842,
    2147522841,
    2147522840,
    2147522839,
    2147522838,
    2147522837,
    39177,
    39178,
    39179,
    39180,
    39185,
    39186,
    2147522824,
    0,
    0,
    0,
    0,
    0,
    0,
    0,
    0,
    0,
    0,
    0,
    0,
    0,
    0,
    0,
    0,
    0,
    0,
    0,
    0,
    0,
    0,
    0,
    0,
    0,
    0,
    0,
    0,
    0,
    0,
    0,
    0,
    0,
    0,
    0,
    0,
    0,
    0,
    0,
    0,
    0,
    0,
    0,
    0,
    0,
    0,
    0,
    0,
    0,
    0,
    0,
    0,
    0,
    0,
    0,
    0,
    0,
    0,
    0,
    0,
    0,
    0,
    0,
    0,
    0,
    0,
    0,
    0,
    0,
    0,
    0,
    0,
    0,
    0,
    0,
    0,
    0,
    0,
    37118,
    37121,
    37122,
    37123,
    37122,
    37121,
    37122,
    37121,
    37122,
    37123,
    37126,
    0,
    0,
    0,
    0,
    0,
    0,
    0,
    0,
    0,
    0,
    0,
    0,
    0,
    0,
    0,
    0,
    0,
    0,
    0,
    0,
    0,
    0,
    0,
    0,
    37118,
    37123,
    37122,
    37121,
    37122,
    37121,
    37122,
    37122,
    37121,
    37122,
    37121,
    37122,
    37123,
    37126,
    0,
    0,
    0,
    0,
    0,
    0,
    0,
    0,
    0,
    0,
    0,
    0,
    0,
    0,
    0,
    0,
    0,
    0,
    0,
    0,
    0,
    0,
    0,
    0,
    0,
    0,
    0,
    0,
    0,
    0,
    0,
    0,
    0,
    0,
    0,
    0,
    0,
    0,
    0,
    0,
    0,
    0,
    0,
    0,
    0,
    0,
    0,
    0,
    0,
    0,
    0,
    0,
    0,
    0,
    0,
    0,
    0,
    0,
    0,
    0,
    0,
    0,
    0,
    0,
    0,
    0,
    0,
    0,
    0,
    0,
    0,
    0,
    0,
    0,
    0,
    0,
    0,
    0,
    0,
    0,
    0,
    0,
    0,
    0,
    0,
    0,
    0,
    0,
    0,
    0,
    0,
    0,
    0,
    0,
    0,
    0,
    0,
    0,
    0,
    0,
    0,
    0,
    0,
    37118,
    37121,
    37122,
    37123,
    37122,
    37121,
    37122,
    37121,
    37122,
    37123,
    37126,
    0,
    0,
    0,
    0,
    0,
    0,
    0,
    0,
    0,
    0,
    0,
    0,
    0,
    0,
    0,
    0,
    0,
    0,
    0,
    0,
    0,
    0,
    0,
    0,
    37118,
    37123,
    37122,
    37121,
    37122,
    37121,
    37122,
    37122,
    37121,
    37122,
    37121,
    37122,
    37123,
    37126,
    0,
    0,
    0,
    0,
    0,
    0,
    0,
    0,
    0,
    0,
    0,
    0,
    0,
    0,
    0,
    0,
    0,
    0,
    0,
    0,
    0,
    0,
    0,
    0,
    0,
    0,
    0,
    0,
    0,
    0,
    0,
    0,
    0,
    0,
    0,
    0,
    0,
    0,
    0,
    0,
    0,
    0,
    0,
    0,
    0,
    0,
    0,
    0,
    0,
    0,
    0,
    0,
    0,
    0,
    0,
    0,
    0,
    0,
    0,
    0,
    0,
    0,
    0,
    0,
    0,
    0,
    0,
    0,
    0,
    0,
    0,
    0,
    0,
    0,
    0,
    0,
    0,
    0,
    0,
    0,
    0,
    0,
    0,
    0,
    0,
    0,
    0,
    0,
    0,
    0,
    0,
    0,
    0,
    0,
    0,
    0,
    0,
    0,
    0,
    0,
    0,
    0,
    0,
    37118,
    37121,
    37122,
    37123,
    37122,
    37121,
    37122,
    37121,
    37122,
    37123,
    37126,
    0,
    0,
    0,
    0,
    0,
    0,
    0,
    0,
    0,
    0,
    0,
    0,
    0,
    0,
    0,
    0,
    0,
    0,
    0,
    0,
    0,
    0,
    0,
    0,
    37118,
    37123,
    37122,
    37121,
    37122,
    37121,
    37122,
    37122,
    37121,
    37122,
    37121,
    37122,
    37123,
    37126,
    0,
    0,
    0,
    0,
    0,
    0,
    0,
    0,
    0,
    0,
    0,
    0,
    0,
    0,
    0,
    0,
    0,
    0,
    0,
    0,
    0,
    0,
    0,
    0,
    0,
    0,
    0,
    0,
    0,
    0,
    0,
    0,
    0,
    0,
    0,
    0,
    0,
    0,
    0,
    0,
    0,
    0,
    0,
    0,
    0,
    0,
    0,
    0,
    0,
    0,
    0,
    0,
    0,
    0,
    0,
    0,
    0,
    0,
    0,
    0,
    0,
    0,
    0,
    0,
    0,
    0,
    0,
    0,
    0,
    0,
    0,
    0,
    0,
    0,
    0,
    0,
    0,
    0,
    0,
    0,
    0,
    0,
    0,
    0,
    0,
    0,
    0,
    0,
    0,
    0,
    0,
    0,
    0,
    0,
    0,
    0,
    0,
    0,
    0,
    0,
    0,
    0,
    2147522921,
    37150,
    37153,
    37154,
    37155,
    37154,
    37153,
    37154,
    37153,
    37154,
    37155,
    37158,
    38632,
    38633,
    38634,
    38635,
    38636,
    38637,
    38638,
    38639,
    38640,
    38641,
    38642,
    38643,
    38644,
    38645,
    38646,
    38647,
    38648,
    38649,
    38650,
    2147522298,
    2147522297,
    2147522296,
    2147522295,
    2147522294,
    37150,
    37155,
    37154,
    37153,
    37154,
    37153,
    37154,
    37154,
    37153,
    37154,
    37153,
    37154,
    37155,
    37158,
    0,
    0,
    0,
    0,
    0,
    0,
    0,
    0,
    0,
    0,
    0,
    0,
    0,
    0,
    0,
    0,
    0,
    0,
    0,
    0,
    0,
    0,
    0,
    0,
    0,
    0,
    0,
    0,
    0,
    0,
    0,
    0,
    0,
    0,
    0,
    0,
    0,
    0,
    0,
    0,
    0,
    0,
    0,
    0,
    0,
    0,
    0,
    0,
    0,
    0,
    0,
    0,
    0,
    0,
    0,
    0,
    0,
    0,
    0,
    0,
    0,
    0,
    0,
    0,
    0,
    0,
    0,
    0,
    0,
    0,
    0,
    0,
    0,
    0,
    0,
    0,
    0,
    0,
    0,
    0,
    0,
    0,
    0,
    0,
    0,
    0,
    0,
    0,
    0,
    0,
    0,
    0,
    0,
    0,
    0,
    0,
    0,
    0,
    0,
    0,
    0,
    0,
    2147522953,
    2147522952,
    2147522951,
    2147522950,
    2147522949,
    2147522948,
    2147522947,
    2147522946,
    2147522945,
    2147522944,
    2147522943,
    2147522942,
    38664,
    38665,
    38666,
    38667,
    38668,
    38669,
    38670,
    38671,
    38672,
    38673,
    38674,
    38675,
    38676,
    38677,
    38678,
    38679,
    38680,
    38681,
    38682,
    2147522330,
    2147522329,
    2147522328,
    2147522327,
    2147522326,
    2147522325,
    2147522324,
    2147522323,
    2147522322,
    2147522321,
    2147522320,
    2147522319,
    2147522318,
    2147522317,
    2147522316,
    2147522315,
    2147522314,
    2147522313,
    2147522312,
    38664,
    38665,
    38666,
    38667,
    38668,
    38669,
    38670,
    2147522318,
    2147522317,
    2147522316,
    2147522315,
    2147522314,
    2147522313,
    2147522312,
    0,
    0,
    0,
    0,
    0,
    0,
    0,
    0,
    0,
    0,
    0,
    0,
    0,
    0,
    0,
    0,
    0,
    0,
    0,
    0,
    0,
    0,
    0,
    0,
    0,
    0,
    0,
    0,
    0,
    0,
    0,
    0,
    0,
    0,
    0,
    0,
    0,
    0,
    0,
    0,
    0,
    0,
    0,
    0,
    0,
    0,
    0,
    0,
    0,
    0,
    0,
    0,
    0,
    0,
    0,
    0,
    0,
    0,
    0,
    0,
    0,
    0,
    0,
    0,
    0,
    0,
    0,
    0,
    0,
    0,
    0,
    0,
    0,
    0,
    0,
    0,
    0,
    0,
    0,
    0,
    0,
    0,
    0,
    0,
    0,
    0,
    0,
    0,
    2147522985,
    2147522984,
    2147522983,
    2147522982,
    2147522981,
    2147522980,
    2147522979,
    2147522978,
    2147522977,
    2147522976,
    2147522975,
    2147522974,
    38696,
    38697,
    38698,
    38699,
    38700,
    38701,
    38702,
    38703,
    38704,
    38705,
    38706,
    38707,
    38708,
    38709,
    38710,
    38711,
    38712,
    38713,
    38714,
    2147522362,
    2147522361,
    2147522360,
    2147522359,
    2147522358,
    2147522357,
    2147522356,
    2147522355,
    2147522354,
    2147522353,
    2147522352,
    2147522351,
    2147522350,
    2147522349,
    2147522348,
    2147522347,
    2147522346,
    2147522345,
    2147522344,
    38696,
    38697,
    38698,
    38699,
    38700,
    38701,
    38702,
    2147522350,
    2147522349,
    2147522348,
    2147522347,
    2147522346,
    2147522345,
    2147522344,
    0,
    0,
    0,
    0,
    0,
    0,
    0,
    0,
    0,
    0,
    0,
    0,
    0,
    0,
    0,
    0,
    0,
    0,
    0,
    0,
    0,
    0,
    0,
    0,
    0,
    0,
    0,
    0,
    0,
    0,
    0,
    0,
    0,
    0,
    0,
    0,
    0,
    0,
    0,
    0,
    0,
    0,
    0,
    0,
    0,
    0,
    0,
    0,
    0,
    0,
    0,
    0,
    0,
    0,
    0,
    0,
    0,
    0,
    0,
    0,
    0,
    0,
    0,
    0,
    0,
    0,
    0,
    0,
    0,
    0,
    0,
    0,
    0,
    0,
    0,
    0,
    0,
    0,
    0,
    0,
    0,
    0,
    0,
    0,
    0,
    0,
    0,
    0,
    2147523017,
    2147523016,
    2147523015,
    2147523014,
    2147523013,
    2147523012,
    2147523011,
    2147523010,
    2147523009,
    2147523008,
    2147523007,
    2147523006,
    38728,
    38729,
    38730,
    38731,
    38732,
    38733,
    38734,
    38735,
    38736,
    38737,
    38738,
    38739,
    38740,
    38741,
    38742,
    38743,
    38744,
    38745,
    38746,
    2147522394,
    2147522393,
    2147522392,
    2147522391,
    2147522390,
    2147522389,
    2147522388,
    2147522387,
    2147522386,
    2147522385,
    2147522384,
    2147522383,
    2147522382,
    2147522381,
    2147522380,
    2147522379,
    2147522378,
    2147522377,
    2147522376,
    38728,
    38729,
    38730,
    38731,
    38732,
    38733,
    38734,
    2147522382,
    2147522381,
    2147522380,
    2147522379,
    2147522378,
    2147522377,
    2147522376,
    0,
    0,
    0,
    0,
    0,
    0,
    0,
    0,
    0,
    0,
    0,
    0,
    0,
    0,
    0,
    0,
    0,
    0,
    0,
    0,
    0,
    0,
    0,
    0,
    0,
    0,
    0,
    0,
    0,
    0,
    0,
    0,
    0,
    0,
    0,
    0,
    0,
    0,
    0,
    0,
    0,
    0,
    0,
    0,
    0,
    0,
    0,
    0,
    0,
    0,
    0,
    0,
    0,
    0,
    0,
    0,
    0,
    0,
    0,
    0,
    0,
    0,
    0,
    0,
    0,
    0,
    0,
    0,
    0,
    0,
    0,
    0,
    0,
    0,
    0,
    0,
    0,
    0,
    0,
    0,
    0,
    0,
    0,
    0,
    0,
    0,
    0,
    0,
    2147523049,
    2147523048,
    2147523047,
    2147523046,
    2147523045,
    2147523044,
    2147523043,
    2147523042,
    2147523041,
    2147523040,
    2147523039,
    2147523038,
    38760,
    38761,
    38762,
    38763,
    38764,
    38765,
    38766,
    38767,
    38768,
    38769,
    38770,
    38771,
    38772,
    38773,
    38774,
    38775,
    38776,
    38777,
    38778,
    2147522426,
    2147522425,
    2147522424,
    2147522423,
    2147522422,
    2147522421,
    2147522420,
    2147522419,
    2147522418,
    2147522417,
    2147522416,
    2147522415,
    2147522414,
    2147522413,
    2147522412,
    2147522411,
    2147522410,
    2147522409,
    2147522408,
    38760,
    38761,
    38762,
    38763,
    38764,
    38765,
    38766,
    2147522414,
    2147522413,
    2147522412,
    2147522411,
    2147522410,
    2147522409,
    2147522408,
    0,
    0,
    0,
    0,
    0,
    0,
    0,
    0,
    0,
    0,
    0,
    0,
    0,
    0,
    0,
    0,
    0,
    0,
    0,
    0,
    0,
    0,
    0,
    0,
    0,
    0,
    0,
    0,
    0,
    0,
    0,
    0,
    0,
    0,
    0,
    0,
    0,
    0,
    0,
    0,
    0,
    0,
    0,
    0,
    0,
    0,
    0,
    0,
    0,
    0,
    0,
    0,
    0,
    0,
    0,
    0,
    0,
    0,
    0,
    0,
    0,
    0,
    0,
    0,
    0,
    0,
    0,
    0,
    0,
    0,
    0,
    0,
    0,
    0,
    0,
    0,
    0,
    0,
    0,
    0,
    0,
    0,
    0,
    0,
    0,
    0,
    0,
    0,
    2147523081,
    2147523080,
    2147523079,
    2147523078,
    2147523077,
    2147523076,
    2147523075,
    2147523074,
    2147523073,
    2147523072,
    2147523071,
    2147523070,
    38792,
    38793,
    38794,
    38795,
    38796,
    38797,
    38798,
    38799,
    38800,
    38801,
    38802,
    38803,
    38804,
    38805,
    38806,
    38807,
    38808,
    38809,
    38810,
    2147522458,
    2147522457,
    2147522456,
    2147522455,
    2147522454,
    2147522453,
    2147522452,
    2147522451,
    2147522450,
    2147522449,
    2147522448,
    2147522447,
    2147522446,
    2147522445,
    2147522444,
    2147522443,
    2147522442,
    2147522441,
    2147522440,
    38792,
    38793,
    38794,
    38795,
    38796,
    38797,
    38798,
    2147522446,
    2147522445,
    2147522444,
    2147522443,
    2147522442,
    2147522441,
    2147522440,
    0,
    0,
    0,
    0,
    0,
    0,
    0,
    0,
    0,
    0,
    0,
    0,
    0,
    0,
    0,
    0,
    0,
    0,
    0,
    0,
    0,
    0,
    0,
    0,
    0,
    0,
    0,
    0,
    0,
    0,
    0,
    0,
    0,
    0,
    0,
    0,
    0,
    0,
    0,
    0,
    0,
    0,
    0,
    0,
    0,
    0,
    0,
    0,
    0,
    0,
    0,
    0,
    0,
    0,
    0,
    0,
    0,
    0,
    0,
    0,
    0,
    0,
    0,
    0,
    0,
    0,
    0,
    0,
    0,
    0,
    0,
    0,
    0,
    0,
    0,
    0,
    0,
    0,
    0,
    0,
    0,
    0,
    0,
    0,
    0,
    0,
    0,
    0,
    2147523113,
    2147523112,
    2147523111,
    2147523110,
    2147523109,
    2147523108,
    2147523107,
    2147523106,
    2147523105,
    2147523104,
    2147523103,
    2147523102,
    38824,
    38825,
    38826,
    38827,
    38828,
    38829,
    38830,
    38831,
    38832,
    38833,
    38834,
    38835,
    38836,
    38837,
    38838,
    38839,
    38840,
    38841,
    38842,
    2147522490,
    2147522489,
    2147522488,
    2147522487,
    2147522486,
    2147522485,
    2147522484,
    2147522483,
    2147522482,
    2147522481,
    2147522480,
    2147522479,
    2147522478,
    2147522477,
    2147522476,
    2147522475,
    2147522474,
    2147522473,
    2147522472,
    38824,
    38825,
    38826,
    38827,
    38828,
    38829,
    38830,
    2147522478,
    2147522477,
    2147522476,
    2147522475,
    2147522474,
    2147522473,
    2147522472,
    0,
    0,
    0,
    0,
    0,
    0,
    0,
    0,
    0,
    0,
    0,
    0,
    0,
    0,
    0,
    0,
    0,
    0,
    0,
    0,
    0,
    0,
    0,
    0,
    0,
    0,
    0,
    0,
    0,
    0,
    0,
    0,
    0,
    0,
    0,
    0,
    0,
    0,
    0,
    0,
    0,
    0,
    0,
    0,
    0,
    0,
    0,
    0,
    0,
    0,
    0,
    0,
    0,
    0,
    0,
    0,
    0,
    0,
    0,
    0,
    0,
    0,
    0,
    0,
    0,
    0,
    0,
    0,
    0,
    0,
    0,
    0,
    0,
    0,
    0,
    0,
    0,
    0,
    0,
    0,
    0,
    0,
    0,
    0,
    0,
    0,
    0,
    0,
    2147523145,
    2147523144,
    2147523143,
    2147523142,
    2147523141,
    2147523140,
    2147523139,
    2147523138,
    2147523137,
    2147523136,
    2147523135,
    2147523134,
    38856,
    38857,
    38858,
    38859,
    38860,
    38861,
    38862,
    38863,
    38864,
    38865,
    38866,
    38867,
    38868,
    38869,
    38870,
    38871,
    38872,
    38873,
    38872,
    38873,
    2147522521,
    2147522520,
    2147522519,
    2147522518,
    2147522517,
    2147522516,
    2147522515,
    2147522514,
    2147522513,
    2147522512,
    2147522511,
    2147522510,
    2147522509,
    2147522508,
    2147522507,
    2147522506,
    2147522505,
    2147522504,
    38856,
    38857,
    38858,
    38859,
    38860,
    38861,
    38862,
    2147522510,
    2147522509,
    2147522508,
    2147522507,
    2147522506,
    2147522505,
    2147522504,
    0,
    0,
    0,
    0,
    0,
    0,
    0,
    0,
    0,
    0,
    0,
    0,
    0,
    0,
    0,
    0,
    0,
    0,
    0,
    0,
    0,
    0,
    0,
    0,
    0,
    0,
    0,
    0,
    0,
    0,
    0,
    0,
    0,
    0,
    0,
    0,
    0,
    0,
    0,
    0,
    0,
    0,
    0,
    0,
    0,
    0,
    0,
    0,
    0,
    0,
    0,
    0,
    0,
    0,
    0,
    0,
    0,
    0,
    0,
    0,
    0,
    0,
    0,
    0,
    0,
    0,
    0,
    0,
    0,
    0,
    0,
    0,
    0,
    0,
    0,
    0,
    0,
    0,
    0,
    0,
    0,
    0,
    0,
    0,
    0,
    0,
    0,
    0,
    2147523177,
    2147523176,
    2147523175,
    2147523174,
    2147523173,
    2147523172,
    2147523171,
    2147523170,
    2147523169,
    2147523168,
    2147523167,
    2147523166,
    38888,
    38889,
    38890,
    38891,
    38892,
    38893,
    38894,
    38895,
    38896,
    38897,
    38898,
    38899,
    38900,
    38901,
    38902,
    38903,
    38904,
    38905,
    38906,
    2147522554,
    2147522553,
    2147522552,
    2147522551,
    2147522550,
    2147522549,
    2147522548,
    2147522547,
    2147522546,
    2147522545,
    2147522544,
    2147522543,
    2147522542,
    2147522541,
    2147522540,
    2147522539,
    2147522538,
    2147522537,
    2147522536,
    38888,
    38889,
    38890,
    38891,
    38892,
    38893,
    38894,
    2147522542,
    2147522541,
    2147522540,
    2147522539,
    2147522538,
    2147522537,
    2147522536,
    0,
    0,
    0,
    0,
    0,
    0,
    0,
    0,
    0,
    0,
    0,
    0,
    0,
    0,
    0,
    0,
    0,
    0,
    0,
    0,
    0,
    0,
    0,
    0,
    0,
    0,
    0,
    0,
    0,
    0,
    0,
    0,
    0,
    0,
    0,
    0,
    0,
    0,
    0,
    0,
    0,
    0,
    0,
    0,
    0,
    0,
    0,
    0,
    0,
    0,
    0,
    0,
    0,
    0,
    0,
    0,
    0,
    0,
    0,
    0,
    0,
    0,
    0,
    0,
    0,
    0,
    0,
    0,
    0,
    0,
    0,
    0,
    0,
    0,
    0,
    0,
    0,
    0,
    0,
    0,
    0,
    0,
    0,
    0,
    0,
    0,
    0,
    0,
    2147523209,
    2147523208,
    2147523207,
    2147523206,
    2147523205,
    2147523204,
    2147523203,
    2147523202,
    2147523201,
    2147523200,
    2147523199,
    2147523198,
    38920,
    38921,
    38922,
    38923,
    38924,
    38925,
    38926,
    38927,
    38928,
    38929,
    38930,
    38931,
    38932,
    38933,
    38934,
    38935,
    38936,
    38937,
    38938,
    2147522586,
    2147522585,
    2147522584,
    2147522583,
    2147522582,
    2147522581,
    2147522580,
    2147522579,
    2147522578,
    2147522577,
    2147522576,
    2147522575,
    2147522574,
    2147522573,
    2147522572,
    2147522571,
    2147522570,
    2147522569,
    2147522568,
    38920,
    38921,
    38922,
    38923,
    38924,
    38925,
    38926,
    2147522574,
    2147522573,
    2147522572,
    2147522571,
    2147522570,
    2147522569,
    2147522568,
    0,
    0,
    0,
    0,
    0,
    0,
    0,
    0,
    0,
    0,
    0,
    0,
    0,
    0,
    0,
    0,
    0,
    0,
    0,
    0,
    0,
    0,
    0,
    0,
    0,
    0,
    0,
    0,
    0,
    0,
    0,
    0,
    0,
    0,
    0,
    0,
    0,
    0,
    0,
    0,
    0,
    0,
    0,
    0,
    0,
    0,
    0,
    0,
    0,
    0,
    0,
    0,
    0,
    0,
    0,
    0,
    0,
    0,
    0,
    0,
    0,
    0,
    0,
    0,
    0,
    0,
    0,
    0,
    0,
    0,
    0,
    0,
    0,
    0,
    0,
    0,
    0,
    0,
    0,
    0,
    0,
    0,
    0,
    0,
    0,
    0,
    0,
    0,
    2147523241,
    2147523240,
    2147523239,
    2147523238,
    2147523237,
    2147523236,
    2147523235,
    2147523234,
    2147523233,
    2147523232,
    2147523231,
    2147523230,
    38952,
    38953,
    38954,
    38955,
    38956,
    38957,
    38958,
    38959,
    38960,
    38961,
    38962,
    38963,
    38964,
    38965,
    38966,
    38967,
    38968,
    38969,
    38970,
    2147522618,
    2147522617,
    2147522616,
    2147522615,
    2147522614,
    2147522613,
    2147522612,
    2147522611,
    2147522610,
    2147522609,
    2147522608,
    2147522607,
    2147522606,
    2147522605,
    2147522604,
    2147522603,
    2147522602,
    2147522601,
    2147522600,
    38952,
    38953,
    38954,
    38955,
    38956,
    38957,
    38958,
    2147522606,
    2147522605,
    2147522604,
    2147522603,
    2147522602,
    2147522601,
    2147522600,
    0,
    0,
    0,
    0,
    0,
    0,
    0,
    0,
    0,
    38664,
    38665,
    38665,
    38665,
    38665,
    38666,
    38667,
    38668,
    38669,
    38670,
    2147522318,
    2147522317,
    2147522316,
    2147522315,
    2147522314,
    0,
    0,
    0,
    0,
    0,
    0,
    0,
    0,
    0,
    0,
    0,
    0,
    0,
    0,
    0,
    0,
    0,
    0,
    0,
    0,
    0,
    0,
    0,
    0,
    0,
    0,
    0,
    0,
    0,
    0,
    0,
    0,
    0,
    0,
    0,
    0,
    0,
    0,
    0,
    0,
    0,
    0,
    0,
    0,
    0,
    0,
    0,
    0,
    0,
    0,
    0,
    0,
    0,
    0,
    0,
    0,
    0,
    0,
    0,
    0,
    0,
    0,
    0,
    0,
    2147523273,
    2147523272,
    2147523271,
    2147523270,
    2147523269,
    2147523268,
    2147523267,
    2147523266,
    2147523265,
    2147523264,
    2147523263,
    2147523262,
    38984,
    38985,
    38986,
    38987,
    38988,
    38989,
    38990,
    38991,
    38992,
    38993,
    38994,
    38995,
    38996,
    38997,
    38998,
    38999,
    39000,
    39001,
    39002,
    2147522650,
    2147522649,
    2147522648,
    2147522647,
    2147522646,
    2147522645,
    2147522644,
    2147522643,
    2147522642,
    2147522641,
    2147522640,
    2147522639,
    2147522638,
    2147522637,
    2147522636,
    2147522635,
    2147522634,
    2147522633,
    2147522632,
    38984,
    38985,
    38986,
    38987,
    38988,
    38989,
    38990,
    2147522638,
    2147522637,
    2147522636,
    2147522635,
    2147522634,
    2147522633,
    2147522632,
    0,
    0,
    0,
    0,
    0,
    0,
    0,
    0,
    0,
    38696,
    38697,
    38697,
    38697,
    38697,
    38698,
    38699,
    38700,
    38701,
    38702,
    2147522350,
    2147522349,
    2147522348,
    2147522347,
    2147522346,
    0,
    0,
    0,
    0,
    0,
    0,
    0,
    0,
    0,
    0,
    0,
    0,
    0,
    0,
    0,
    0,
    0,
    0,
    0,
    0,
    0,
    0,
    0,
    0,
    0,
    0,
    0,
    0,
    0,
    0,
    0,
    0,
    0,
    0,
    0,
    0,
    0,
    0,
    0,
    0,
    0,
    0,
    0,
    0,
    0,
    0,
    0,
    0,
    0,
    0,
    0,
    0,
    0,
    0,
    0,
    0,
    0,
    0,
    0,
    0,
    0,
    0,
    0,
    0,
    2147523305,
    2147523304,
    2147523303,
    2147523302,
    2147523301,
    2147523300,
    2147523299,
    2147523298,
    2147523297,
    2147523296,
    2147523295,
    2147523294,
    39016,
    39017,
    39018,
    39019,
    39020,
    39021,
    39022,
    39023,
    39024,
    39025,
    39026,
    39027,
    39028,
    39029,
    39030,
    39031,
    39032,
    39033,
    39034,
    2147522682,
    2147522681,
    2147522680,
    2147522679,
    2147522678,
    2147522677,
    2147522676,
    2147522675,
    2147522674,
    2147522673,
    2147522672,
    2147522671,
    2147522670,
    2147522669,
    2147522668,
    2147522667,
    2147522666,
    2147522665,
    2147522664,
    39016,
    39017,
    39018,
    39019,
    39020,
    39021,
    39022,
    2147522670,
    2147522669,
    2147522668,
    2147522667,
    2147522666,
    2147522665,
    2147522664,
    0,
    0,
    0,
    0,
    0,
    0,
    0,
    0,
    0,
    38728,
    38729,
    38729,
    38729,
    38729,
    38730,
    38731,
    38732,
    38733,
    38734,
    2147522382,
    2147522381,
    2147522380,
    2147522379,
    2147522378,
    0,
    0,
    0,
    0,
    0,
    0,
    0,
    0,
    0,
    0,
    0,
    0,
    0,
    0,
    0,
    0,
    0,
    0,
    0,
    0,
    0,
    0,
    0,
    0,
    0,
    0,
    0,
    0,
    0,
    0,
    0,
    0,
    0,
    0,
    0,
    0,
    0,
    0,
    0,
    0,
    0,
    0,
    0,
    0,
    0,
    0,
    0,
    0,
    0,
    0,
    0,
    0,
    0,
    0,
    0,
    0,
    0,
    0,
    0,
    0,
    0,
    0,
    0,
    0,
    2147523337,
    2147523336,
    2147523335,
    2147523334,
    2147523333,
    2147523332,
    2147523331,
    2147523330,
    2147523329,
    2147523328,
    2147523327,
    2147523326,
    39048,
    39049,
    39050,
    39051,
    39052,
    39053,
    39054,
    39055,
    39056,
    39057,
    39058,
    39059,
    39060,
    39061,
    39062,
    39063,
    39064,
    39065,
    39066,
    2147522714,
    2147522713,
    2147522712,
    2147522711,
    2147522710,
    2147522709,
    2147522708,
    2147522707,
    2147522706,
    2147522705,
    2147522704,
    2147522703,
    2147522702,
    2147522701,
    2147522700,
    2147522699,
    2147522698,
    2147522697,
    2147522696,
    39048,
    39049,
    39050,
    39051,
    39052,
    39053,
    39054,
    2147522702,
    2147522701,
    2147522700,
    2147522699,
    2147522698,
    2147522697,
    2147522696,
    0,
    0,
    0,
    0,
    0,
    0,
    0,
    0,
    0,
    38760,
    38761,
    38761,
    38761,
    38761,
    38762,
    38763,
    38764,
    38765,
    38766,
    2147522414,
    2147522413,
    2147522412,
    2147522411,
    2147522410,
    0,
    0,
    0,
    0,
    0,
    0,
    0,
    0,
    0,
    0,
    0,
    0,
    0,
    0,
    0,
    0,
    0,
    0,
    0,
    0,
    0,
    0,
    0,
    0,
    0,
    0,
    0,
    0,
    0,
    0,
    0,
    0,
    0,
    0,
    0,
    0,
    0,
    0,
    0,
    0,
    0,
    0,
    0,
    0,
    0,
    0,
    0,
    0,
    0,
    0,
    0,
    0,
    0,
    0,
    0,
    0,
    0,
    0,
    0,
    0,
    0,
    0,
    0,
    0,
    2147523369,
    2147523368,
    2147523367,
    2147523366,
    2147523365,
    2147523364,
    2147523363,
    2147523362,
    2147523361,
    2147523360,
    2147523359,
    2147523358,
    39080,
    39081,
    39082,
    39083,
    39084,
    39085,
    39086,
    39087,
    39088,
    39089,
    39090,
    39091,
    39092,
    39093,
    39094,
    39095,
    39096,
    39097,
    2147522762,
    2147522762,
    2147522745,
    2147522744,
    2147522743,
    2147522742,
    2147522741,
    2147522740,
    2147522739,
    2147522738,
    2147522737,
    2147522736,
    2147522735,
    2147522734,
    2147522733,
    2147522732,
    2147522731,
    2147522730,
    2147522729,
    2147522728,
    39080,
    39081,
    39082,
    39083,
    39084,
    39085,
    39086,
    2147522734,
    2147522733,
    2147522732,
    2147522731,
    2147522730,
    2147522729,
    2147522728,
    0,
    0,
    0,
    0,
    0,
    0,
    0,
    0,
    0,
    38792,
    38793,
    38793,
    38793,
    38793,
    38794,
    38795,
    38796,
    38797,
    38798,
    2147522446,
    2147522445,
    2147522444,
    2147522443,
    2147522442,
    0,
    0,
    0,
    0,
    0,
    0,
    0,
    0,
    0,
    0,
    0,
    0,
    0,
    0,
    0,
    0,
    0,
    0,
    0,
    0,
    0,
    0,
    0,
    0,
    0,
    0,
    0,
    0,
    0,
    0,
    0,
    0,
    0,
    0,
    0,
    0,
    0,
    0,
    0,
    0,
    0,
    0,
    0,
    0,
    0,
    0,
    0,
    0,
    0,
    0,
    0,
    0,
    0,
    0,
    0,
    0,
    0,
    0,
    0,
    0,
    0,
    0,
    0,
    0,
    2147523401,
    2147523400,
    2147523399,
    2147523398,
    2147523397,
    2147523396,
    2147523395,
    2147523394,
    2147523393,
    2147523392,
    2147523391,
    2147523390,
    39096,
    39113,
    39114,
    39096,
    39096,
    39113,
    39114,
    2147522762,
    2147522762,
    2147522762,
    39122,
    39123,
    39124,
    39125,
    39126,
    39127,
    39128,
    2147522799,
    2147522798,
    2147522798,
    2147522797,
    2147522776,
    2147522775,
    2147522774,
    2147522773,
    2147522772,
    2147522771,
    2147522770,
    2147522762,
    39096,
    39096,
    39113,
    39114,
    2147522762,
    2147522762,
    2147522762,
    39122,
    39096,
    2147522744,
    2147522770,
    39114,
    39114,
    39114,
    2147522762,
    2147522761,
    39113,
    39114,
    2147522762,
    2147522762,
    2147522762,
    39122,
    39096,
    0,
    0,
    0,
    0,
    0,
    0,
    0,
    0,
    0,
    38824,
    38825,
    38825,
    38825,
    38825,
    38826,
    38827,
    38828,
    38829,
    38830,
    2147522478,
    2147522477,
    2147522476,
    2147522475,
    2147522474,
    0,
    0,
    0,
    0,
    0,
    0,
    0,
    0,
    0,
    0,
    0,
    0,
    0,
    0,
    0,
    0,
    0,
    0,
    0,
    0,
    0,
    0,
    0,
    0,
    0,
    0,
    0,
    0,
    0,
    0,
    0,
    0,
    0,
    0,
    0,
    0,
    0,
    0,
    0,
    0,
    0,
    0,
    0,
    0,
    0,
    0,
    0,
    0,
    0,
    0,
    0,
    0,
    0,
    0,
    0,
    0,
    0,
    0,
    0,
    0,
    0,
    0,
    0,
    0,
    2147523433,
    2147523432,
    2147523431,
    2147523430,
    2147523429,
    2147523428,
    2147523427,
    2147523426,
    2147523425,
    2147523424,
    2147523423,
    2147523422,
    39144,
    39145,
    39146,
    39147,
    39147,
    39145,
    39146,
    39147,
    39148,
    39153,
    39154,
    39155,
    39156,
    39157,
    39158,
    39159,
    39160,
    2147522831,
    2147522830,
    2147522830,
    2147522829,
    2147522808,
    2147522807,
    2147522806,
    2147522805,
    2147522804,
    2147522803,
    2147522802,
    2147522801,
    39147,
    39147,
    39145,
    39146,
    39147,
    39148,
    39153,
    39154,
    2147522792,
    39144,
    2147522802,
    2147522801,
    2147522796,
    2147522795,
    2147522794,
    2147522793,
    39145,
    39146,
    39147,
    39148,
    39153,
    39154,
    2147522792,
    0,
    0,
    0,
    0,
    0,
    0,
    0,
    0,
    0,
    38856,
    38857,
    38857,
    38857,
    38857,
    38858,
    38859,
    38860,
    38861,
    38862,
    2147522510,
    2147522509,
    2147522508,
    2147522507,
    2147522506,
    0,
    0,
    0,
    0,
    0,
    0,
    0,
    0,
    0,
    0,
    0,
    0,
    0,
    0,
    0,
    0,
    0,
    0,
    0,
    0,
    0,
    0,
    0,
    0,
    0,
    0,
    0,
    0,
    0,
    0,
    0,
    0,
    0,
    0,
    0,
    0,
    0,
    0,
    0,
    0,
    0,
    0,
    0,
    0,
    0,
    0,
    0,
    0,
    0,
    0,
    0,
    0,
    0,
    0,
    0,
    0,
    0,
    0,
    0,
    0,
    0,
    0,
    0,
    0,
    2147523465,
    2147523464,
    2147523463,
    2147523462,
    2147523461,
    2147523460,
    2147523459,
    2147523458,
    2147523457,
    2147523456,
    2147523455,
    2147523454,
    39176,
    39177,
    39178,
    39179,
    39179,
    39177,
    39178,
    39179,
    39180,
    39185,
    39186,
    39187,
    39188,
    39189,
    39190,
    39191,
    39192,
    39193,
    39194,
    2147522842,
    2147522841,
    2147522840,
    2147522839,
    2147522838,
    2147522837,
    2147522836,
    2147522835,
    2147522834,
    2147522833,
    39179,
    39179,
    39177,
    39178,
    39179,
    39180,
    39185,
    39186,
    2147522824,
    39176,
    2147522834,
    2147522833,
    2147522828,
    2147522827,
    2147522826,
    2147522825,
    39177,
    39178,
    39179,
    39180,
    39185,
    39186,
    2147522824,
    0,
    0,
    0,
    0,
    0,
    0,
    0,
    0,
    0,
    38888,
    38889,
    38889,
    38889,
    38889,
    38890,
    38891,
    38892,
    38893,
    38894,
    2147522542,
    2147522541,
    2147522540,
    2147522539,
    2147522538,
    0,
    0,
    0,
    0,
    0,
    0,
    0,
    0,
    0,
    0,
    0,
    0,
    0,
    0,
    0,
    0,
    0,
    0,
    0,
    0,
    0,
    0,
    0,
    0,
    0,
    0,
    0,
    0,
    0,
    0,
    0,
    0,
    0,
    0,
    0,
    0,
    0,
    0,
    0,
    0,
    0,
    0,
    0,
    0,
    0,
    0,
    0,
    0,
    0,
    0,
    0,
    0,
    0,
    0,
    0,
    0,
    0,
    0,
    0,
    0,
    0,
    0,
    0,
    0,
    0,
    0,
    353,
    354,
    260,
    260,
    354,
    420,
    420,
    354,
    260,
    260,
    354,
    580,
    580,
    354,
    260,
    260,
    354,
    580,
    580,
    354,
    260,
    260,
    354,
    355,
    0,
    0,
    0,
    0,
    0,
    0,
    0,
    0,
    0,
    0,
    0,
    580,
    580,
    580,
    580,
    580,
    260,
    260,
    580,
    580,
    580,
    580,
    580,
    580,
    580,
    580,
    580,
    0,
    0,
    0,
    0,
    0,
    0,
    0,
    0,
    0,
    0,
    0,
    0,
    0,
    0,
    0,
    0,
    0,
    0,
    0,
    0,
    38920,
    38921,
    38921,
    38921,
    38921,
    38922,
    38923,
    38924,
    38925,
    38926,
    2147522574,
    2147522573,
    2147522572,
    2147522571,
    2147522570,
    0,
    0,
    0,
    0,
    0,
    0,
    0,
    0,
    0,
    0,
    0,
    0,
    0,
    0,
    0,
    0,
    0,
    0,
    0,
    0,
    0,
    0,
    0,
    0,
    0,
    0,
    0,
    0,
    0,
    0,
    0,
    0,
    0,
    0,
    0,
    0,
    0,
    0,
    0,
    0,
    0,
    0,
    0,
    0,
    0,
    0,
    0,
    0,
    0,
    0,
    0,
    0,
    0,
    0,
    0,
    0,
    0,
    0,
    0,
    0,
    0,
    0,
    0,
    0,
    0,
    0,
    385,
    386,
    260,
    260,
    386,
    420,
    420,
    386,
    260,
    260,
    386,
    580,
    580,
    386,
    260,
    260,
    386,
    580,
    580,
    386,
    260,
    260,
    386,
    387,
    0,
    0,
    0,
    0,
    0,
    0,
    0,
    0,
    0,
    0,
    0,
    580,
    580,
    580,
    580,
    386,
    260,
    420,
    420,
    420,
    420,
    386,
    260,
    260,
    386,
    580,
    580,
    0,
    0,
    0,
    0,
    0,
    0,
    0,
    0,
    0,
    0,
    0,
    0,
    0,
    0,
    0,
    0,
    0,
    0,
    0,
    0,
    38952,
    38953,
    38953,
    38953,
    38953,
    38954,
    38955,
    38956,
    38957,
    38958,
    2147522606,
    2147522605,
    2147522604,
    2147522603,
    2147522602,
    0,
    0,
    0,
    0,
    0,
    0,
    0,
    0,
    0,
    0,
    0,
    0,
    0,
    0,
    0,
    0,
    0,
    0,
    0,
    0,
    0,
    0,
    0,
    0,
    0,
    0,
    0,
    0,
    0,
    0,
    0,
    0,
    0,
    0,
    0,
    0,
    0,
    0,
    0,
    0,
    0,
    0,
    0,
    0,
    0,
    0,
    0,
    0,
    0,
    0,
    0,
    0,
    0,
    0,
    0,
    0,
    0,
    0,
    0,
    0,
    0,
    0,
    0,
    0,
    0,
    0,
    260,
    260,
    260,
    260,
    260,
    420,
    420,
    260,
    260,
    260,
    260,
    580,
    260,
    260,
    260,
    260,
    260,
    580,
    580,
    260,
    260,
    260,
    260,
    260,
    0,
    0,
    0,
    0,
    0,
    0,
    0,
    0,
    0,
    0,
    0,
    580,
    580,
    580,
    420,
    420,
    420,
    260,
    260,
    420,
    420,
    260,
    260,
    260,
    260,
    580,
    580,
    0,
    0,
    0,
    0,
    0,
    0,
    0,
    0,
    0,
    0,
    0,
    580,
    0,
    0,
    0,
    0,
    0,
    0,
    0,
    0,
    38984,
    38985,
    38985,
    38985,
    38985,
    38986,
    38987,
    38988,
    38989,
    38990,
    2147522638,
    2147522637,
    2147522636,
    2147522635,
    2147522634,
    0,
    0,
    0,
    0,
    0,
    0,
    0,
    0,
    0,
    0,
    0,
    0,
    0,
    0,
    0,
    0,
    0,
    0,
    0,
    0,
    0,
    0,
    0,
    0,
    0,
    0,
    0,
    0,
    0,
    0,
    0,
    0,
    0,
    0,
    0,
    0,
    0,
    0,
    0,
    0,
    0,
    0,
    0,
    0,
    0,
    0,
    0,
    0,
    0,
    0,
    0,
    0,
    0,
    0,
    0,
    0,
    0,
    0,
    0,
    0,
    0,
    0,
    0,
    0,
    0,
    0,
    260,
    260,
    260,
    260,
    260,
    420,
    420,
    260,
    260,
    260,
    260,
    580,
    260,
    260,
    260,
    260,
    260,
    260,
    580,
    260,
    260,
    260,
    260,
    260,
    0,
    0,
    0,
    0,
    0,
    0,
    0,
    0,
    0,
    0,
    0,
    580,
    420,
    420,
    260,
    260,
    260,
    260,
    260,
    580,
    420,
    420,
    420,
    260,
    260,
    580,
    580,
    0,
    0,
    0,
    0,
    0,
    0,
    0,
    0,
    0,
    0,
    0,
    580,
    0,
    0,
    0,
    0,
    0,
    0,
    0,
    0,
    39016,
    39017,
    39017,
    39017,
    39017,
    39018,
    39019,
    39020,
    39021,
    39022,
    2147522670,
    2147522669,
    2147522668,
    2147522667,
    2147522666,
    0,
    0,
    0,
    0,
    0,
    0,
    0,
    0,
    0,
    0,
    0,
    0,
    0,
    0,
    0,
    0,
    0,
    0,
    0,
    0,
    0,
    0,
    0,
    0,
    0,
    0,
    0,
    0,
    0,
    0,
    0,
    0,
    0,
    0,
    0,
    0,
    0,
    0,
    0,
    0,
    0,
    0,
    0,
    0,
    0,
    0,
    0,
    0,
    0,
    0,
    0,
    0,
    0,
    0,
    0,
    0,
    0,
    0,
    0,
    0,
    0,
    0,
    0,
    0,
    0,
    0,
    385,
    386,
    260,
    260,
    386,
    420,
    420,
    386,
    260,
    260,
    386,
    580,
    580,
    386,
    260,
    260,
    386,
    580,
    580,
    386,
    260,
    260,
    386,
    387,
    0,
    0,
    0,
    0,
    0,
    0,
    0,
    0,
    0,
    0,
    0,
    580,
    420,
    420,
    580,
    386,
    260,
    260,
    386,
    580,
    580,
    386,
    420,
    260,
    386,
    580,
    580,
    420,
    354,
    260,
    260,
    354,
    355,
    0,
    0,
    0,
    0,
    580,
    580,
    0,
    0,
    0,
    0,
    0,
    0,
    0,
    0,
    39048,
    39049,
    39049,
    39049,
    39049,
    39050,
    39051,
    39052,
    39053,
    39054,
    2147522702,
    2147522701,
    2147522700,
    2147522699,
    2147522698,
    0,
    0,
    0,
    0,
    0,
    0,
    0,
    0,
    0,
    0,
    0,
    0,
    0,
    0,
    0,
    0,
    0,
    0,
    0,
    0,
    0,
    0,
    0,
    0,
    0,
    0,
    0,
    0,
    0,
    0,
    0,
    0,
    0,
    0,
    0,
    0,
    0,
    0,
    0,
    0,
    0,
    0,
    0,
    0,
    0,
    0,
    0,
    0,
    0,
    0,
    0,
    0,
    0,
    0,
    0,
    0,
    0,
    0,
    0,
    0,
    0,
    0,
    0,
    0,
    0,
    0,
    417,
    418,
    260,
    260,
    418,
    420,
    420,
    418,
    260,
    260,
    418,
    580,
    580,
    418,
    260,
    260,
    418,
    580,
    580,
    418,
    260,
    260,
    418,
    419,
    0,
    0,
    0,
    0,
    0,
    0,
    0,
    0,
    0,
    0,
    0,
    385,
    386,
    260,
    580,
    580,
    260,
    260,
    580,
    580,
    580,
    580,
    260,
    420,
    420,
    420,
    420,
    420,
    420,
    420,
    420,
    420,
    420,
    420,
    420,
    420,
    420,
    580,
    580,
    0,
    0,
    0,
    0,
    0,
    0,
    0,
    0,
    39080,
    39081,
    39081,
    39081,
    39081,
    39082,
    39083,
    39084,
    39085,
    39086,
    2147522734,
    2147522733,
    2147522732,
    2147522731,
    2147522730,
    0,
    0,
    0,
    0,
    0,
    0,
    0,
    0,
    0,
    0,
    0,
    0,
    0,
    0,
    0,
    0,
    0,
    0,
    0,
    0,
    0,
    0,
    0,
    0,
    0,
    0,
    0,
    0,
    0,
    0,
    0,
    0,
    0,
    0,
    0,
    0,
    0,
    0,
    0,
    0,
    0,
    0,
    0,
    0,
    0,
    0,
    0,
    0,
    0,
    0,
    0,
    0,
    0,
    0,
    0,
    0,
    0,
    0,
    0,
    0,
    0,
    0,
    0,
    0,
    0,
    0,
    0,
    0,
    0,
    0,
    0,
    0,
    0,
    0,
    0,
    0,
    0,
    0,
    0,
    0,
    0,
    0,
    0,
    0,
    0,
    0,
    0,
    0,
    0,
    0,
    0,
    0,
    0,
    0,
    0,
    0,
    0,
    0,
    0,
    0,
    0,
    260,
    260,
    260,
    260,
    260,
    260,
    386,
    580,
    580,
    386,
    580,
    580,
    580,
    420,
    580,
    580,
    580,
    260,
    260,
    260,
    260,
    260,
    420,
    420,
    420,
    420,
    420,
    420,
    0,
    0,
    0,
    0,
    0,
    0,
    0,
    0,
    2147522744,
    2147522770,
    2147522770,
    2147522770,
    2147522770,
    39114,
    39114,
    39114,
    2147522762,
    2147522761,
    39113,
    39114,
    2147522762,
    2147522762,
    2147522762,
    0,
    0,
    0,
    0,
    0,
    0,
    0,
    0,
    0,
    0,
    0,
    0,
    0,
    0,
    0,
    0,
    0,
    0,
    0,
    0,
    0,
    0,
    0,
    0,
    0,
    0,
    0,
    0,
    0,
    0,
    0,
    0,
    0,
    0,
    0,
    0,
    0,
    0,
    0,
    0,
    0,
    0,
    0,
    0,
    0,
    0,
    0,
    0,
    0,
    0,
    0,
    0,
    0,
    0,
    0,
    0,
    0,
    0,
    0,
    0,
    0,
    0,
    0,
    0,
    0,
    0,
    0,
    0,
    0,
    0,
    0,
    0,
    0,
    0,
    0,
    0,
    0,
    0,
    0,
    0,
    0,
    0,
    0,
    0,
    0,
    0,
    0,
    0,
    0,
    0,
    0,
    0,
    0,
    0,
    0,
    0,
    0,
    0,
    0,
    0,
    0,
    260,
    260,
    260,
    260,
    260,
    260,
    260,
    260,
    260,
    260,
    260,
    386,
    260,
    260,
    386,
    580,
    580,
    260,
    260,
    260,
    260,
    580,
    580,
    580,
    580,
    260,
    420,
    420,
    0,
    0,
    0,
    0,
    0,
    0,
    0,
    0,
    39144,
    2147522802,
    2147522802,
    2147522802,
    2147522802,
    2147522801,
    2147522796,
    2147522795,
    2147522794,
    2147522793,
    39145,
    39146,
    39147,
    39148,
    39153,
    0,
    0,
    0,
    0,
    0,
    0,
    0,
    0,
    0,
    0,
    0,
    0,
    0,
    0,
    0,
    0,
    0,
    0,
    0,
    0,
    0,
    0,
    0,
    0,
    0,
    0,
    0,
    0,
    0,
    0,
    0,
    0,
    0,
    0,
    0,
    0,
    0,
    0,
    0,
    0,
    0,
    0,
    0,
    0,
    0,
    0,
    0,
    0,
    0,
    0,
    0,
    0,
    0,
    0,
    0,
    0,
    0,
    0,
    0,
    0,
    0,
    0,
    0,
    0,
    0,
    0,
    353,
    354,
    260,
    260,
    354,
    420,
    420,
    354,
    260,
    260,
    354,
    420,
    420,
    354,
    260,
    260,
    354,
    420,
    420,
    354,
    260,
    260,
    354,
    355,
    0,
    0,
    0,
    0,
    0,
    0,
    0,
    0,
    0,
    0,
    0,
    385,
    386,
    260,
    260,
    386,
    580,
    580,
    260,
    260,
    260,
    260,
    260,
    260,
    260,
    260,
    580,
    580,
    386,
    260,
    260,
    386,
    580,
    580,
    386,
    260,
    260,
    386,
    420,
    0,
    0,
    0,
    0,
    0,
    0,
    0,
    0,
    39176,
    2147522834,
    2147522834,
    2147522834,
    2147522834,
    2147522833,
    2147522828,
    2147522827,
    2147522826,
    2147522825,
    39177,
    39178,
    39179,
    39180,
    39185,
    0,
    0,
    0,
    0,
    0,
    0,
    0,
    0,
    0,
    0,
    0,
    0,
    0,
    0,
    0,
    0,
    0,
    0,
    0,
    0,
    0,
    0,
    0,
    0,
    0,
    0,
    0,
    0,
    0,
    0,
    0,
    0,
    0,
    0,
    0,
    0,
    0,
    0,
    0,
    0,
    0,
    0,
    0,
    0,
    0,
    0,
    0,
    0,
    0,
    0,
    0,
    0,
    0,
    0,
    0,
    0,
    0,
    0,
    0,
    0,
    0,
    0,
    0,
    0,
    0,
    0,
    385,
    386,
    260,
    260,
    386,
    420,
    420,
    386,
    260,
    260,
    386,
    420,
    420,
    386,
    260,
    260,
    386,
    420,
    420,
    386,
    260,
    260,
    386,
    387,
    0,
    0,
    0,
    0,
    0,
    0,
    0,
    0,
    0,
    0,
    0,
    417,
    418,
    260,
    260,
    418,
    580,
    580,
    260,
    260,
    386,
    580,
    580,
    580,
    580,
    260,
    260,
    580,
    418,
    260,
    260,
    418,
    419,
    260,
    260,
    260,
    260,
    260,
    260,
    0,
    0,
    0,
    0,
    0,
    0,
    0,
    0,
    0,
    0,
    0,
    0,
    0,
    0,
    0,
    0,
    0,
    0,
    0,
    0,
    0,
    0,
    0,
    0,
    0,
    0,
    0,
    0,
    0,
    0,
    0,
    0,
    0,
    0,
    0,
    0,
    0,
    0,
    0,
    0,
    0,
    0,
    0,
    0,
    0,
    0,
    0,
    0,
    0,
    0,
    0,
    0,
    0,
    0,
    0,
    0,
    0,
    0,
    0,
    0,
    0,
    0,
    0,
    0,
    0,
    0,
    0,
    0,
    0,
    0,
    0,
    0,
    0,
    0,
    0,
    0,
    0,
    0,
    0,
    0,
    0,
    0,
    0,
    0,
    0,
    0,
    0,
    0,
    0,
    260,
    260,
    260,
    260,
    260,
    420,
    260,
    260,
    260,
    260,
    260,
    420,
    420,
    260,
    260,
    420,
    420,
    420,
    420,
    260,
    260,
    260,
    260,
    260,
    0,
    0,
    0,
    0,
    0,
    0,
    0,
    0,
    0,
    0,
    0,
    0,
    0,
    0,
    0,
    0,
    417,
    418,
    260,
    260,
    418,
    580,
    580,
    260,
    260,
    386,
    387,
    0,
    0,
    0,
    0,
    0,
    0,
    260,
    260,
    260,
    260,
    260,
    260,
    0,
    0,
    0,
    0,
    0,
    0,
    0,
    0,
    0,
    0,
    0,
    0,
    0,
    0,
    0,
    0,
    0,
    0,
    0,
    0,
    0,
    0,
    0,
    0,
    0,
    0,
    0,
    0,
    0,
    0,
    0,
    0,
    0,
    0,
    0,
    0,
    0,
    0,
    0,
    0,
    0,
    0,
    0,
    0,
    0,
    0,
    0,
    0,
    0,
    0,
    0,
    0,
    0,
    0,
    0,
    0,
    0,
    0,
    0,
    0,
    0,
    0,
    0,
    0,
    0,
    0,
    0,
    0,
    0,
    0,
    0,
    0,
    0,
    0,
    0,
    0,
    0,
    0,
    0,
    0,
    0,
    0,
    0,
    0,
    0,
    0,
    0,
    0,
    0,
    260,
    260,
    260,
    260,
    260,
    420,
    420,
    420,
    420,
    420,
    420,
    420,
    420,
    420,
    420,
    420,
    420,
    420,
    420,
    260,
    260,
    260,
    260,
    260,
    0,
    0,
    0,
    0,
    0,
    0,
    0,
    0,
    0,
    0,
    0,
    0,
    0,
    0,
    0,
    0,
    0,
    0,
    0,
    0,
    0,
    417,
    418,
    260,
    260,
    418,
    419,
    0,
    0,
    0,
    0,
    0,
    0,
    385,
    386,
    260,
    260,
    386,
    387,
    0,
    0,
    0,
    0,
    0,
    0,
    0,
    0,
    0,
    0,
    0,
    0,
    0,
    0,
    0,
    0,
    0,
    0,
    0,
    0,
    0,
    0,
    0,
    0,
    0,
    0,
    0,
    0,
    0,
    0,
    0,
    0,
    0,
    0,
    0,
    0,
    0,
    0,
    0,
    0,
    0,
    0,
    0,
    0,
    0,
    0,
    0,
    0,
    0,
    0,
    0,
    0,
    0,
    0,
    0,
    0,
    0,
    0,
    0,
    0,
    0,
    0,
    0,
    0,
    0,
    0,
    0,
    0,
    0,
    0,
    0,
    0,
    0,
    0,
    0,
    0,
    0,
    0,
    0,
    0,
    0,
    0,
    0,
    0,
    0,
    0,
    0,
    260,
    420,
    260,
    386,
    260,
    260,
    420,
    260,
    420,
    386,
    420,
    420,
    260,
    420,
    260,
    260,
    420,
    260,
    386,
    420,
    260,
    420,
    260,
    260,
    386,
    387,
    0,
    0,
    0,
    0,
    0,
    0,
    0,
    0,
    0,
    0,
    0,
    0,
    0,
    0,
    0,
    0,
    0,
    0,
    0,
    0,
    0,
    0,
    0,
    0,
    0,
    0,
    0,
    0,
    0,
    0,
    0,
    0,
    0,
    417,
    418,
    260,
    260,
    418,
    419,
    0,
    0,
    0,
    0,
    0,
    0,
    0,
    0,
    0,
    0,
    0,
    0,
    0,
    0,
    0,
    0,
    0,
    0,
    0,
    0,
    0,
    0,
    0,
    0,
    0,
    0,
    0,
    0,
    0,
    0,
    0,
    0,
    0,
    0,
    0,
    0,
    0,
    0,
    0,
    0,
    0,
    0,
    0,
    0,
    0,
    0,
    0,
    0,
    0,
    0,
    0,
    0,
    0,
    0,
    0,
    0,
    0,
    0,
    0,
    0,
    0,
    0,
    0,
    0,
    0,
    0,
    0,
    0,
    0,
    0,
    0,
    0,
    0,
    0,
    0,
    0,
    0,
    0,
    0,
    0,
    0,
    0,
    0,
    0,
    0,
    0,
    0,
    260,
    420,
    420,
    418,
    260,
    260,
    420,
    420,
    420,
    418,
    260,
    260,
    260,
    420,
    420,
    260,
    420,
    420,
    418,
    420,
    260,
    420,
    420,
    260,
    420,
    260,
    0,
    0,
    0,
    0,
    0,
    0,
    0,
    0,
    0,
    0,
    0,
    353,
    354,
    260,
    260,
    354,
    355,
    0,
    0,
    0,
    0,
    0,
    0,
    0,
    0,
    0,
    0,
    0,
    0,
    0,
    0,
    0,
    0,
    0,
    0,
    0,
    0,
    0,
    0,
    0,
    0,
    0,
    0,
    0,
    0,
    0,
    0,
    0,
    0,
    0,
    0,
    0,
    0,
    0,
    0,
    0,
    0,
    0,
    0,
    0,
    0,
    0,
    0,
    0,
    0,
    0,
    0,
    0,
    0,
    0,
    0,
    0,
    0,
    0,
    0,
    0,
    0,
    0,
    0,
    0,
    0,
    0,
    0,
    0,
    0,
    0,
    0,
    0,
    0,
    0,
    0,
    0,
    0,
    0,
    0,
    0,
    0,
    0,
    0,
    0,
    0,
    0,
    0,
    0,
    0,
    0,
    0,
    0,
    0,
    0,
    0,
    0,
    0,
    0,
    0,
    0,
    0,
    0,
    0,
    0,
    0,
    0,
    0,
    0,
    0,
    0,
    386,
    420,
    420,
    260,
    260,
    386,
    420,
    420,
    386,
    260,
    260,
    386,
    386,
    420,
    420,
    386,
    420,
    420,
    420,
    420,
    386,
    420,
    420,
    260,
    420,
    420,
    0,
    0,
    0,
    0,
    0,
    0,
    0,
    0,
    0,
    0,
    0,
    385,
    386,
    260,
    260,
    386,
    580,
    354,
    260,
    260,
    354,
    355,
    0,
    0,
    0,
    0,
    0,
    0,
    0,
    0,
    0,
    0,
    0,
    0,
    0,
    0,
    0,
    0,
    0,
    0,
    0,
    0,
    0,
    0,
    0,
    0,
    0,
    0,
    0,
    0,
    0,
    0,
    0,
    0,
    0,
    0,
    0,
    0,
    0,
    0,
    0,
    0,
    0,
    0,
    0,
    0,
    0,
    0,
    0,
    0,
    0,
    0,
    0,
    0,
    0,
    0,
    0,
    0,
    0,
    0,
    0,
    0,
    0,
    0,
    0,
    0,
    0,
    0,
    0,
    0,
    0,
    0,
    0,
    0,
    0,
    0,
    0,
    0,
    0,
    0,
    0,
    0,
    0,
    0,
    0,
    0,
    0,
    0,
    0,
    0,
    0,
    0,
    0,
    0,
    0,
    0,
    0,
    0,
    0,
    0,
    0,
    0,
    0,
    0,
    0,
    0,
    0,
    260,
    260,
    260,
    260,
    260,
    420,
    260,
    260,
    260,
    260,
    260,
    420,
    420,
    260,
    260,
    420,
    420,
    420,
    420,
    260,
    260,
    260,
    386,
    420,
    420,
    0,
    0,
    0,
    0,
    0,
    0,
    0,
    0,
    0,
    0,
    0,
    260,
    260,
    260,
    260,
    580,
    580,
    386,
    260,
    260,
    386,
    387,
    0,
    0,
    0,
    0,
    0,
    0,
    0,
    0,
    0,
    0,
    0,
    0,
    0,
    0,
    0,
    0,
    0,
    0,
    0,
    0,
    0,
    0,
    0,
    0,
    0,
    0,
    0,
    0,
    0,
    0,
    0,
    0,
    0,
    0,
    0,
    0,
    0,
    0,
    0,
    0,
    0,
    0,
    0,
    0,
    0,
    0,
    0,
    0,
    0,
    0,
    0,
    0,
    0,
    0,
    0,
    0,
    0,
    0,
    0,
    0,
    0,
    0,
    0,
    0,
    0,
    0,
    0,
    0,
    0,
    0,
    0,
    0,
    0,
    0,
    0,
    0,
    0,
    0,
    0,
    0,
    0,
    0,
    0,
    0,
    0,
    0,
    0,
    0,
    0,
    0,
    0,
    0,
    0,
    0,
    0,
    0,
    0,
    0,
    0,
    0,
    0,
    0,
    0,
    0,
    0,
    260,
    260,
    260,
    260,
    260,
    420,
    420,
    420,
    420,
    420,
    420,
    420,
    420,
    420,
    420,
    420,
    420,
    420,
    420,
    260,
    260,
    260,
    260,
    420,
    260,
    0,
    0,
    0,
    0,
    0,
    0,
    0,
    0,
    0,
    0,
    0,
    260,
    260,
    260,
    260,
    580,
    580,
    260,
    260,
    260,
    580,
    580,
    354,
    260,
    260,
    420,
    420,
    354,
    355,
    420,
    420,
    354,
    355,
    353,
    354,
    355,
    0,
    0,
    0,
    0,
    0,
    0,
    0,
    0,
    0,
    0,
    0,
    0,
    0,
    0,
    0,
    0,
    0,
    0,
    0,
    0,
    0,
    0,
    0,
    0,
    0,
    0,
    0,
    0,
    0,
    0,
    0,
    0,
    0,
    0,
    0,
    0,
    0,
    0,
    0,
    0,
    0,
    0,
    0,
    0,
    0,
    0,
    0,
    0,
    0,
    0,
    0,
    0,
    0,
    0,
    0,
    0,
    0,
    0,
    0,
    0,
    0,
    0,
    0,
    0,
    0,
    0,
    0,
    0,
    0,
    0,
    0,
    0,
    0,
    0,
    0,
    0,
    0,
    0,
    0,
    0,
    0,
    0,
    0,
    0,
    0,
    0,
    0,
    0,
    0,
    0,
    0,
    385,
    260,
    420,
    260,
    386,
    420,
    260,
    420,
    260,
    420,
    260,
    420,
    260,
    386,
    260,
    260,
    386,
    420,
    420,
    386,
    260,
    420,
    260,
    420,
    420,
    0,
    0,
    0,
    0,
    0,
    0,
    0,
    0,
    0,
    0,
    0,
    385,
    386,
    260,
    260,
    580,
    580,
    580,
    580,
    580,
    580,
    580,
    386,
    260,
    260,
    420,
    420,
    420,
    420,
    420,
    420,
    420,
    420,
    420,
    420,
    420,
    354,
    260,
    260,
    354,
    355,
    0,
    0,
    0,
    353,
    354,
    260,
    260,
    354,
    355,
    0,
    0,
    0,
    0,
    0,
    0,
    0,
    0,
    0,
    0,
    0,
    0,
    0,
    0,
    0,
    0,
    0,
    0,
    0,
    0,
    0,
    0,
    0,
    0,
    0,
    0,
    0,
    0,
    0,
    0,
    0,
    0,
    0,
    0,
    0,
    0,
    0,
    0,
    0,
    0,
    0,
    0,
    0,
    0,
    0,
    0,
    0,
    0,
    0,
    0,
    0,
    0,
    0,
    0,
    0,
    0,
    0,
    0,
    0,
    0,
    0,
    0,
    0,
    0,
    0,
    0,
    0,
    0,
    0,
    0,
    0,
    0,
    0,
    0,
    0,
    0,
    0,
    417,
    260,
    420,
    420,
    260,
    420,
    260,
    420,
    420,
    260,
    260,
    420,
    420,
    260,
    420,
    260,
    260,
    420,
    260,
    420,
    260,
    420,
    386,
    420,
    420,
    0,
    0,
    0,
    0,
    0,
    0,
    0,
    0,
    0,
    0,
    0,
    417,
    418,
    260,
    580,
    580,
    580,
    386,
    260,
    260,
    386,
    260,
    260,
    260,
    260,
    420,
    420,
    420,
    420,
    420,
    420,
    420,
    420,
    420,
    420,
    420,
    386,
    260,
    260,
    386,
    387,
    0,
    0,
    0,
    385,
    386,
    260,
    260,
    386,
    387,
    0,
    0,
    0,
    0,
    0,
    0,
    0,
    0,
    0,
    0,
    0,
    0,
    0,
    0,
    0,
    0,
    0,
    0,
    0,
    0,
    0,
    0,
    0,
    0,
    0,
    0,
    0,
    0,
    0,
    0,
    0,
    0,
    0,
    0,
    0,
    0,
    0,
    0,
    0,
    0,
    0,
    0,
    0,
    0,
    0,
    0,
    0,
    0,
    0,
    0,
    0,
    0,
    0,
    0,
    0,
    0,
    0,
    0,
    0,
    0,
    0,
    0,
    0,
    0,
    0,
    0,
    0,
    0,
    0,
    0,
    0,
    0,
    0,
    0,
    0,
    0,
    0,
    0,
    386,
    420,
    420,
    260,
    420,
    420,
    420,
    420,
    260,
    386,
    420,
    420,
    260,
    420,
    420,
    260,
    420,
    260,
    420,
    420,
    420,
    260,
    420,
    420,
    0,
    0,
    0,
    0,
    0,
    0,
    0,
    0,
    0,
    0,
    0,
    0,
    0,
    580,
    580,
    580,
    580,
    580,
    580,
    580,
    580,
    580,
    260,
    260,
    420,
    420,
    420,
    420,
    420,
    420,
    420,
    420,
    420,
    420,
    420,
    420,
    260,
    260,
    260,
    260,
    260,
    0,
    0,
    0,
    260,
    260,
    260,
    260,
    260,
    260,
    0,
    0,
    0,
    0,
    0,
    0,
    0,
    0,
    0,
    0,
    0,
    0,
    0,
    0,
    0,
    0,
    0,
    0,
    0,
    0,
    0,
    0,
    0,
    0,
    0,
    0,
    0,
    0,
    0,
    0,
    0,
    0,
    0,
    0,
    0,
    0,
    0,
    0,
    0,
    0,
    0,
    0,
    0,
    0,
    0,
    0,
    0,
    0,
    0,
    0,
    0,
    0,
    0,
    0,
    0,
    0,
    0,
    0,
    0,
    0,
    0,
    0,
    0,
    0,
    0,
    0,
    0,
    0,
    0,
    0,
    0,
    0,
    0,
    0,
    0,
    0,
    0,
    0,
    0,
    260,
    260,
    386,
    420,
    420,
    420,
    260,
    260,
    260,
    260,
    580,
    386,
    420,
    420,
    386,
    420,
    386,
    420,
    420,
    260,
    386,
    420,
    420,
    0,
    0,
    0,
    0,
    0,
    0,
    0,
    0,
    0,
    0,
    0,
    0,
    0,
    385,
    386,
    260,
    260,
    386,
    420,
    420,
    420,
    420,
    420,
    420,
    420,
    420,
    420,
    420,
    420,
    260,
    260,
    386,
    420,
    420,
    580,
    260,
    260,
    260,
    260,
    260,
    260,
    0,
    0,
    0,
    260,
    260,
    260,
    260,
    260,
    260,
    0,
    0,
    0,
    0,
    0,
    0,
    0,
    0,
    0,
    0,
    0,
    0,
    0,
    0,
    0,
    0,
    0,
    0,
    0,
    0,
    0,
    0,
    0,
    0,
    0,
    0,
    0,
    0,
    0,
    0,
    0,
    0,
    0,
    0,
    0,
    0,
    0,
    0,
    0,
    0,
    0,
    0,
    0,
    0,
    0,
    0,
    0,
    0,
    0,
    0,
    0,
    0,
    0,
    0,
    0,
    0,
    0,
    0,
    0,
    0,
    0,
    0,
    0,
    0,
    0,
    0,
    0,
    0,
    0,
    0,
    0,
    0,
    0,
    0,
    0,
    0,
    0,
    0,
    0,
    260,
    260,
    260,
    260,
    420,
    420,
    260,
    260,
    260,
    260,
    580,
    260,
    260,
    260,
    260,
    260,
    260,
    580,
    260,
    260,
    260,
    260,
    260,
    0,
    0,
    0,
    0,
    0,
    0,
    0,
    0,
    0,
    0,
    0,
    0,
    0,
    260,
    260,
    260,
    260,
    260,
    420,
    420,
    420,
    420,
    580,
    580,
    580,
    580,
    580,
    580,
    260,
    260,
    260,
    260,
    580,
    580,
    580,
    580,
    386,
    260,
    260,
    386,
    387,
    0,
    0,
    0,
    385,
    386,
    260,
    260,
    386,
    387,
    0,
    0,
    0,
    0,
    0,
    0,
    0,
    0,
    0,
    0,
    0,
    0,
    0,
    0,
    0,
    0,
    0,
    0,
    0,
    0,
    0,
    0,
    0,
    0,
    0,
    0,
    0,
    0,
    0,
    0,
    0,
    0,
    0,
    0,
    0,
    0,
    0,
    0,
    0,
    0,
    0,
    0,
    0,
    0,
    0,
    0,
    0,
    0,
    0,
    0,
    0,
    0,
    0,
    0,
    0,
    0,
    0,
    0,
    0,
    0,
    0,
    0,
    0,
    0,
    0,
    0,
    0,
    0,
    0,
    0,
    0,
    0,
    0,
    0,
    0,
    0,
    0,
    0,
    0,
    386,
    260,
    260,
    386,
    420,
    420,
    386,
    260,
    260,
    386,
    580,
    580,
    386,
    260,
    260,
    386,
    580,
    580,
    386,
    260,
    260,
    386,
    387,
    0,
    0,
    0,
    0,
    0,
    0,
    0,
    0,
    0,
    0,
    0,
    0,
    0,
    260,
    260,
    260,
    260,
    260,
    260,
    580,
    260,
    580,
    580,
    580,
    260,
    260,
    580,
    260,
    260,
    260,
    260,
    260,
    580,
    580,
    580,
    580,
    580,
    260,
    260,
    418,
    419,
    0,
    0,
    0,
    0,
    0,
    0,
    0,
    0,
    0,
    0,
    0,
    0,
    0,
    0,
    0,
    0,
    0,
    0,
    0,
    0,
    0,
    0,
    0,
    0,
    0,
    0,
    0,
    0,
    0,
    0,
    0,
    0,
    0,
    0,
    0,
    0,
    0,
    0,
    0,
    0,
    0,
    0,
    0,
    0,
    0,
    0,
    0,
    0,
    0,
    0,
    0,
    0,
    0,
    0,
    0,
    0,
    0,
    0,
    0,
    0,
    0,
    0,
    0,
    0,
    0,
    0,
    0,
    0,
    0,
    0,
    0,
    0,
    0,
    0,
    0,
    0,
    0,
    0,
    0,
    0,
    0,
    0,
    0,
    0,
    0,
    0,
    0,
    0,
    418,
    260,
    260,
    418,
    420,
    420,
    418,
    260,
    260,
    418,
    580,
    580,
    418,
    260,
    260,
    418,
    580,
    580,
    418,
    260,
    260,
    418,
    419,
    0,
    0,
    0,
    0,
    0,
    0,
    0,
    0,
    0,
    0,
    0,
    0,
    0,
    385,
    386,
    260,
    260,
    386,
    580,
    580,
    580,
    386,
    260,
    260,
    386,
    580,
    580,
    580,
    386,
    260,
    260,
    386,
    387,
    385,
    386,
    260,
    260,
    386,
    387,
    0,
    0,
    0,
    0,
    0,
    0,
    0,
    0,
    0,
    0,
    0,
    0,
    0,
    0,
    0,
    0,
    0,
    0,
    0,
    0,
    0,
    0,
    0,
    0,
    0,
    0,
    0,
    0,
    0,
    0,
    0,
    0,
    0,
    0,
    0,
    0,
    0,
    0,
    0,
    0,
    0,
    0,
    0,
    0,
    0,
    0,
    0,
    0,
    0,
    0,
    0,
    0,
    0,
    0,
    0,
    0,
    0,
    0,
    0,
    0,
    0,
    0,
    0,
    0,
    0,
    0,
    0,
    0,
    0,
    0,
    0,
    0,
    0,
    0,
    0,
    0,
    0,
    0,
    0,
    0,
    0,
    0,
    0,
    0,
    0,
    0,
    0,
    0,
    0,
    0,
    0,
    0,
    0,
    0,
    0,
    0,
    0,
    0,
    0,
    0,
    0,
    0,
    0,
    0,
    0,
    0,
    0,
    0,
    0,
    0,
    0,
    0,
    0,
    0,
    0,
    0,
    0,
    0,
    1015,
    0,
    0,
    0,
    0,
    0,
    0,
    0,
    417,
    418,
    260,
    260,
    418,
    580,
    580,
    580,
    418,
    260,
    260,
    418,
    419,
    580,
    580,
    418,
    260,
    260,
    418,
    419,
    260,
    260,
    260,
    260,
    260,
    260,
    0,
    0,
    0,
    0,
    0,
    0,
    0,
    0,
    0,
    0,
    0,
    0,
    0,
    0,
    0,
    0,
    0,
    0,
    0,
    0,
    0,
    0,
    0,
    0,
    0,
    0,
    0,
    0,
    0,
    0,
    0,
    0,
    0,
    0,
    0,
    0,
    0,
    0,
    0,
    0,
    0,
    0,
    0,
    0,
    0,
    0,
    0,
    0,
    0,
    0,
    0,
    0,
    0,
    0,
    0,
    0,
    0,
    0,
    0,
    0,
    0,
    0,
    0,
    0,
    0,
    0,
    0,
    0,
    0,
    0,
    0,
    0,
    0,
    0,
    0,
    0,
    0,
    0,
    0,
    0,
    0,
    0,
    0,
    0,
    0,
    0,
    0,
    0,
    0,
    0,
    0,
    0,
    0,
    0,
    0,
    0,
    0,
    0,
    0,
    0,
    0,
    0,
    0,
    0,
    0,
    0,
    0,
    0,
    0,
    0,
    0,
    0,
    0,
    0,
    0,
    0,
    0,
    1015,
    1047,
    0,
    0,
    0,
    0,
    0,
    0,
    0,
    0,
    0,
    0,
    0,
    0,
    0,
    0,
    0,
    0,
    0,
    0,
    0,
    0,
    0,
    0,
    0,
    0,
    0,
    0,
    0,
    260,
    260,
    260,
    260,
    260,
    260,
    0,
    0,
    0,
    0,
    0,
    0,
    0,
    0,
    0,
    0,
    0,
    0,
    0,
    0,
    0,
    0,
    0,
    0,
    0,
    0,
    0,
    0,
    0,
    0,
    0,
    0,
    0,
    0,
    0,
    0,
    0,
    0,
    0,
    0,
    0,
    0,
    0,
    0,
    0,
    0,
    0,
    0,
    0,
    0,
    0,
    0,
    0,
    0,
    0,
    0,
    0,
    0,
    0,
    0,
    0,
    0,
    0,
    0,
    0,
    0,
    0,
    0,
    0,
    0,
    0,
    0,
    0,
    0,
    0,
    0,
    0,
    0,
    0,
    0,
    0,
    0,
    0,
    0,
    0,
    0,
    0,
    0,
    0,
    0,
    0,
    0,
    0,
    0,
    0,
    0,
    0,
    0,
    0,
    0,
    0,
    0,
    0,
    0,
    0,
    0,
    0,
    0,
    0,
    0,
    0,
    0,
    0,
    0,
    0,
    0,
    0,
    0,
    0,
    0,
    0,
    0,
    0,
    1047,
    1079,
    0,
    0,
    0,
    0,
    0,
    0,
    0,
    0,
    0,
    0,
    0,
    0,
    0,
    0,
    0,
    0,
    0,
    0,
    0,
    0,
    0,
    0,
    0,
    0,
    0,
    0,
    0,
    385,
    386,
    260,
    260,
    386,
    387,
    0,
    0,
    0,
    0,
    0,
    0,
    0,
    0,
    0,
    0,
    0,
    0,
    0,
    0,
    0,
    0,
    0,
    0,
    0,
    0,
    0,
    0,
    0,
    0,
    0,
    0,
    0,
    0,
    0,
    0,
    0,
    0,
    0,
    0,
    0,
    0,
    0,
    0,
    0,
    0,
    0,
    0,
    0,
    0,
    0,
    0,
    0,
    0,
    0,
    0,
    0,
    0,
    0,
    0,
    0,
    0,
    0,
    0,
    0,
    0,
    0,
    0,
    0,
    0,
    0,
    0,
    0,
    0,
    0,
    0,
    0,
    0,
    0,
    0,
    0,
    0,
    0,
    0,
    0,
    0,
    0,
    0,
    0,
    0,
    0,
    0,
    0,
    0,
    0,
    0,
    0,
    0,
    0,
    0,
    0,
    0,
    0,
    0,
    0,
    0,
    0,
    0,
    0,
    0,
    0,
    0,
    0,
    0,
    0,
    0,
    0,
    0,
    0,
    0,
    0,
    0,
    0,
    1079,
    0,
    0,
    0,
    0,
    0,
    0,
    0,
    0,
    0,
    0,
    0,
    0,
    0,
    0,
    0,
    0,
    0,
    0,
    0,
    0,
    0,
    0,
    0,
    0,
    0,
    0,
    0,
    0,
    417,
    418,
    260,
    260,
    418,
    419,
    0,
    0,
    0,
    0,
    0,
    0,
    0,
    0,
    0,
    0,
    0,
    0,
    0,
    0,
    0,
    0,
    0,
    0,
    0,
    0,
    0,
    0,
    0,
    0,
    0,
    0,
    0,
    0,
    0,
    0,
    0,
    0,
    0,
    0,
    0,
    0,
    0,
    0,
    0,
    0,
    0,
    0,
    0,
    0,
    0,
    0,
    0,
    0,
    0,
    0,
    0,
    0,
    0,
    0,
    0,
    0,
    0,
    0,
    0,
    0,
    0,
    0,
    0,
    0,
    0,
    0,
    0,
    0,
    0,
    0,
    0,
    0,
    0,
    0,
    0,
    0,
    0,
    0,
    0,
    0,
    0,
    0,
    0,
    0,
    0,
    0,
    0,
    0,
    0,
    0,
    0,
    0,
    0,
    0,
    0,
    0,
    0,
    0,
    0,
    0,
    0,
    0,
    0,
    0,
    0,
    0,
    0,
    0,
    0,
    0,
    0,
    0,
    0,
    0,
    0,
    0,
    0,
    0,
    0,
    0,
    0,
    0,
    0,
    0,
    0,
    0,
    0,
    0,
    0,
    0,
    0,
    0,
    0,
    0,
    0,
    0,
    0,
    0,
    0,
    0,
    0,
    0,
    0,
    0,
    0,
    0,
    0,
    0,
    0,
    0,
    0,
    0,
    0,
    0,
    0,
    0,
    0,
    0,
    0,
    0,
    0,
    0,
    0,
    0,
    0,
    0,
    0,
    0,
    0,
    0,
    0,
    0,
    0,
    0,
    0,
    0,
    0,
    0,
    0,
    0,
    0,
    0,
    0,
    0,
    0,
    0,
    0,
    0,
    0,
    0,
    0,
    0,
    0,
    0,
    0,
    0,
    0,
    0,
    0,
    0,
    0,
    0,
    0,
    0,
    0,
    0,
    0,
    0,
    0,
    0,
    0,
    0,
    0,
    0,
    0,
    0,
    0,
    0,
    0,
    0,
    0,
    0,
    0,
    0,
    0,
    0,
    0,
    0,
    0,
    0,
    0,
    0,
    0,
    0,
    0,
    0,
    0,
    0,
    0,
    0,
    0,
    0,
    0,
    0,
    0,
    0,
    0,
    0,
    0,
    0,
    0,
    0,
    0,
    0,
    0,
    0,
    0,
    0,
    0,
    0,
    0,
    0,
    0,
    0,
    0,
    0,
    0,
    0,
    0,
    0,
    0,
    0,
    0,
    0,
    0,
    0,
    0,
    0,
    0,
    0,
    0,
    0,
    0,
    0,
    0,
    0,
    0,
    0,
    0,
    0,
    0,
    0,
    0,
    0,
    0,
    0,
    0,
    0,
    0,
    0,
    0,
    0,
    0,
    0,
    0,
    0,
    0,
    0,
    0,
    0,
    0,
    0,
    0,
    0,
    0,
    0,
    0,
    0,
    0,
    0,
    0,
    0,
    0,
    0,
    0,
    0,
    0,
    0,
    0,
    0,
    0,
    0,
    0,
    0,
    0,
    0,
    0,
    0,
    0,
    0,
    0,
    0,
    0,
    0,
    0,
    0,
    0,
    0,
    0,
    0,
    0,
    0,
    0,
    0,
    0,
    0,
    0,
    0,
    0,
    0,
    0,
    0,
    0,
    0,
    0,
    0,
    0,
    0,
    0,
    0,
    0,
    0,
    0,
    0,
    0,
    0,
    0,
    0,
    0,
    0,
    0,
    0,
    0,
    0,
    0,
    0,
    0,
    0,
    0,
    0,
    0,
    0,
    0,
    0,
    0,
    0,
    0,
    0,
    0,
    0,
    0,
    0,
    0,
    0,
    0,
    0,
    0,
    0,
    0,
    0,
    0,
    0,
    0,
    0,
    0,
    0,
    0,
    0,
    0,
    0,
    0,
    0,
    0,
    0,
    0,
    0,
    0,
    0,
    0,
    0,
    0,
    0,
    0,
    0,
    0,
    0,
    0,
    0,
    0,
    0,
    0,
    0,
    0,
    0,
    0,
    0,
    0,
    0,
    0,
    0,
    0,
    0,
    0,
    0,
    0,
    0,
    0,
    0,
    0,
    0,
    0,
    0,
    0,
    0,
    0,
    0,
    0,
    0,
    0,
    0,
    0,
    0,
    0,
    0,
    0,
    0,
    0,
    0,
    0,
    0,
    0,
    0,
    0,
    0,
    0,
    0,
    0,
    0,
    0,
    0,
    0,
    0,
    0,
    0,
    0,
    0,
    0,
    0,
    0,
    0,
    0,
    0,
    0,
    0,
    0,
    0,
    0,
    0,
    0,
    0,
    0,
    0,
    0,
    0,
    0,
    0,
    0,
    0,
    0,
    0,
    0,
    0,
    0,
    0,
    0,
    0,
    0,
    0,
    0,
    0,
    0,
    0,
    0,
    0,
    0,
    0,
    0,
    0,
    0,
    0,
    0,
    0,
    0,
    0,
    0,
    0,
    0,
    0,
    0,
    0,
    0,
    0,
    0,
    0,
    0,
    0,
    0,
    0,
    0,
    0,
    0,
    0,
    0,
    0,
    0,
    0,
    0,
    0,
    0,
    0,
    0,
    0,
    0,
    0,
    0,
    0,
    0,
    0,
    0,
    0,
    0,
    0,
    0,
    0,
    0,
    0,
    0,
    0,
    0,
    0,
    0,
    0,
    0,
    0,
    0,
    0,
    0,
    0,
    0,
    0,
    0,
    0,
    0,
    0,
    0,
    0,
    0,
    0,
    0,
    0,
    0,
    0,
    0,
    0,
    0,
    0,
    0,
    0,
    0,
    0,
    0,
    0,
    0,
    0,
    0,
    0,
    0,
    0,
    0,
    0,
    0,
    0,
    0,
    0,
    0,
    0,
    0,
    0,
    0,
    0,
    0,
    0,
    0,
    0,
    0,
    0,
    0,
    0,
    0,
    0,
    0,
    0,
    0,
    0,
    0,
    0,
    0,
    0,
    0,
    0,
    0,
    0,
    0,
    0,
    0,
    0,
    0,
    0,
    0,
    0,
    0,
    0,
    0,
    0,
    0,
    0,
    0,
    0,
    0,
    0,
    0,
    0,
    0,
    0,
    0,
    0,
    0,
    0,
    0,
    0,
    0,
    0,
    0,
    0,
    0,
    0,
    0,
    0,
    0,
    0,
    0,
    0,
    0,
    0,
    0,
    0,
    0,
    0,
    0,
    0,
    0,
    0,
    0,
    0,
    0,
    0,
    0,
    0,
    0,
    0,
    0,
    0,
    0,
    0,
    0,
    0,
    0,
    0,
    0,
    0,
    0,
    0,
    0,
    0,
    0,
    0,
    0,
    0,
    0,
    0,
    0,
    0,
    0,
    0,
    0,
    0,
    0,
    0,
    0,
    0,
    0,
    0,
    0,
    0,
    0,
    0,
    0,
    0,
    0,
    0,
    0,
    0,
    0,
    0,
    0,
    0,
    0,
    0,
    0,
    0,
    0,
    0,
    0,
    0,
    0,
    0,
    0,
    0,
    0,
    0,
    0,
    0,
    0,
    0,
    0,
    0,
    0,
    0,
    0,
    0,
    0,
    0,
    0,
    0,
    0,
    0,
    0,
    0,
    0,
    0,
    0,
    0,
    0,
    0,
    0,
    0,
    0,
    0,
    0,
    0,
    0,
    0,
    0,
    0,
    0,
    0,
    0,
    0,
    0,
    0,
    0,
    0,
    0,
    0,
    0,
    0,
    0,
    0,
    0,
    0,
    0,
    0,
    0,
    0,
    0,
    0,
    0,
    0,
    0,
    0,
    0,
    0,
    0,
    0,
    0,
    0,
    0,
    0,
    0,
    0,
    0,
    0,
    0,
    0,
    0,
    0,
    0,
    0,
    0,
    0,
    0,
    0,
    0,
    0,
    0,
    0,
    0,
    0,
    0,
    0,
    0,
    0,
    0,
    0,
    0,
    0,
    0,
    0,
    0,
    0,
    0,
    0,
    0,
    0,
    0,
    0,
    0,
    0,
    0,
    0,
    0,
    0,
    0,
    0,
    0,
    0,
    0,
    0,
    0,
    0,
    0,
    0,
    0,
    0,
    0,
    0,
    0,
    0,
    0,
    0,
    0,
    0,
    0,
    0,
    0,
    0,
    0,
    0,
    0,
    0,
    0,
    0,
    0,
    0,
    0,
    0,
    0,
    0,
    0,
    0,
    0,
    0,
    0,
    0,
    0,
    0,
    0,
    0,
    0,
    0,
    0,
    0,
    0,
    0,
    0,
    0,
    0,
    0,
    0,
    0,
    0,
    0,
    0,
    0,
    0,
    0,
    0,
    0,
    0,
    0,
    0,
    0,
    0,
    0,
    0,
    0,
    0,
    0,
    0,
    0,
    0,
    0,
    0,
    0,
    0,
    0,
    0,
    0,
    0,
    0,
    0,
    0,
    0,
    0,
    0,
    0,
    0,
    0,
    0,
    0,
    0,
    0,
    0,
    0,
    0,
    0,
    0,
    0,
    0,
    0,
    0,
    0,
    0,
    0,
    0,
    0,
    0,
    0,
    0,
    0,
    0,
    0,
    0,
    0,
    0,
    0,
    0,
    0,
    0,
    0,
    0,
    0,
    0,
    0,
    0,
    0,
    0,
    0,
    0,
    0,
    0,
    0,
    0,
    0,
    0,
    0,
    0,
    0,
    0,
    0,
    0,
    0,
    0,
    0,
    0,
    0,
    0,
    0,
    0,
    0,
    0,
    0,
    0,
    0,
    0,
    0,
    0,
    0,
    0,
    0,
    0,
    0,
    0,
    0,
    0,
    0,
    0,
    0,
    0,
    0,
    0,
    0,
    0,
    0,
    0,
    0,
    0,
    0,
    0,
    0,
    0,
    0,
    0,
    0,
    0,
    0,
    0,
    0,
    0,
    0,
    0,
    0,
    0,
    0,
    0,
    0,
    0,
    0,
    0,
    0,
    0,
    0,
    0,
    0,
    0,
    0,
    0,
    0,
    0,
    0,
    0,
    0,
    0,
    0,
    0,
    0,
    0,
    0,
    0,
    0,
    0,
    0,
    0,
    0,
    0,
    0,
    0,
    0,
    0,
    0,
    0,
    0,
    0,
    0,
    0,
    0,
    0,
    0,
    0,
    0,
    0,
    0,
    0,
    0,
    0,
    0,
    0,
    0,
    0,
    0,
    0,
    0,
    0,
    0,
    0,
    0,
    0,
    0,
    0,
    0,
    0,
    0,
    0,
    0,
    0,
    0,
    0,
    0,
    0,
    0,
    0,
    0,
    0,
    0,
    0,
    0,
    0,
    0,
    0,
    0,
    0,
    0,
    0,
    0,
    0,
    0,
    0,
    0,
    0,
    0,
    0,
    0,
    0,
    0,
    0,
    0,
    0,
    0,
    0,
    0,
    0,
    0,
    0,
    0,
    0,
    0,
    0,
    0,
    0,
    0,
    0,
    0,
    0,
    0,
    0,
    0,
    0,
    0,
    0,
    0,
    0,
    0,
    0,
    0,
    0,
    0,
    0,
    0,
    0,
    0,
    0,
    0,
    0,
    0,
    0,
    0,
    0,
    0,
    0,
    0,
    0,
    0,
    0,
    0,
    0,
    0,
    0,
    0,
    0,
    0,
    0,
    0,
    0,
    0,
    0,
    0,
    0,
    0,
    0,
    0,
    0,
    0,
    0,
    0,
    0,
    0,
    0,
    0,
    0,
    0,
    0,
    0,
    0,
    0,
    0,
    0,
    0,
    0,
    0,
    0,
    0,
    0,
    0,
    0,
    0,
    0,
    0,
    0,
    0,
    0,
    0,
    0,
    0,
    0,
    0,
    0,
    0,
    0,
    0,
    0,
    0,
    0,
    0,
    0,
    0,
    0,
    0,
    0,
    0,
    0,
    0,
    0,
    0,
    0,
    0,
    0,
    0,
    0,
    0,
    0,
    0,
    0,
    0,
    0,
    0,
    0,
    0,
    0,
    0,
    0,
    0,
    0,
    0,
    0,
    0,
    0,
    0,
    0,
    0,
    0,
    0,
    0,
    0,
    0,
    0,
    0,
    0,
    0,
    0,
    0,
    0,
    0,
    0,
    0,
    0,
    0,
    0,
    0,
    0,
    0,
    0,
    0,
    0,
    0,
    0,
    0,
    0,
    0,
    0,
    0,
    0,
    0,
    0,
    0,
    0,
    0,
    0,
    0,
    0,
    0,
    0,
    0,
    0,
    0,
    0,
    0,
    0,
    0,
    0,
    0,
    0,
    0,
    0,
    0,
    0,
    0,
    0,
    0,
    0,
    0,
    0,
    0,
    0,
    0,
    0,
    0,
    0,
    0,
    0,
    0,
    0,
    0,
    0,
    0,
    0,
    0,
    0,
    0,
    0,
    0,
    0,
    0,
    0,
    0,
    0,
    0,
    0,
    0,
    0,
    0,
    0,
    0,
    0,
    0,
    0,
    0,
    0,
    0,
    0,
    0,
    0,
    0,
    0,
    0,
    0,
    0,
    0,
    0,
    0,
    0,
    0,
    0,
    0,
    0,
    0,
    0,
    0,
    0,
    0,
    0,
    0,
    0,
    0,
    0,
    0,
    0,
    0,
    0,
    0,
    0,
    0,
    0,
    0,
    0,
    0,
    0,
    0,
    0,
    0,
    0,
    0,
    0,
    0,
    0,
    0,
    0,
    0,
    0,
    0,
    0,
    0,
    0,
    0,
    0,
    0,
    0,
    0,
    0,
    0,
    0,
    0,
    0,
    0,
    0,
    0,
    0,
    0,
    0,
    0,
    0,
    0,
    0,
    0,
    0,
    0,
    0,
    0,
    0,
    0,
    0,
    0,
    0,
    0,
    0,
    0,
    0,
    0,
    0,
    0,
    0,
    0,
    0,
    0,
    0,
    0,
    0,
    0,
    0,
    0,
    0,
    0,
    0,
    0,
    0,
    0,
    0,
    0,
    0,
    0,
    0,
    0,
    0,
    0,
    0,
    0,
    0,
    0,
    0,
    0,
    0,
    0,
    0,
    0,
    0,
    0,
    0,
    0,
    0,
    0,
    0,
    0,
    0,
    0,
    0,
    0,
    0,
    0,
    0,
    0,
    0,
    0,
    0,
    0,
    0,
    0,
    0,
    0,
    0,
    0,
    0,
    0,
    0,
    0,
    0,
    0,
    0,
    0,
    0,
    0,
    0,
    0,
    0,
    0,
    0,
    0,
    0,
    0,
    0,
    0,
    0,
    0,
    0,
    0,
    0,
    0,
    0,
    0,
    0,
    0,
    0,
    0,
    0,
    0,
    0,
    0,
    0,
    0,
    0,
    0,
    0,
    0,
    0,
    0,
    0,
    0,
    0,
    0,
    0,
    0,
    0,
    0,
    0,
    0,
    0,
    0,
    0,
    0,
    0,
    0,
    0,
    0,
    0,
    0,
    0,
    0,
    0,
    0,
    0,
    0,
    0,
    0,
    0,
    0,
    0,
    0,
    0,
    0,
    0,
    0,
    0,
    0,
    0,
    0,
    0,
    0,
    0,
    0,
    0,
    0,
    0,
    0,
    0,
    0,
    0,
    0,
    0,
    0,
    0,
    0,
    0,
    0,
    0,
    0,
    0,
    0,
    0,
    0,
    0,
    0,
    0,
    0,
    0,
    0,
    0,
    0,
    0,
    0,
    0,
    0,
    0,
    0,
    0,
    0,
    0,
    0,
    0,
    0,
    0,
    0,
    0,
    0,
    0,
    0,
    0,
    0,
    0,
    0,
    0,
    0,
    0,
    0,
    0,
    0,
    0,
    0,
    0,
    0,
    0,
    0,
    0,
    0,
    0,
    0,
    0,
    0,
    0,
    0,
    0,
    0,
    0,
    0,
    0,
    0,
    0,
    0,
    0,
    0,
    0,
    0,
    0,
    0,
    0,
    0,
    0,
    0,
    0,
    0,
    0,
    0,
    0,
    0,
    0,
    0,
    0,
    0,
    0,
    0,
    0,
    0,
    0,
    0,
    0,
    0,
    0,
    0,
    0,
    0,
    0,
    0,
    0,
    0,
    0,
    0,
    0,
    0,
    0,
    0,
    0,
    0,
    0,
    0,
    0,
    0,
    0,
    0,
    0,
    0,
    0,
    0,
    0,
    0,
    0,
    0,
    0,
    0,
    0,
    0,
    0,
    0,
    0,
    0,
    0,
    0,
    0,
    0,
    0,
    0,
    0,
    0,
    0,
    0,
    0,
    0,
    0,
    0,
    0,
    0,
    0,
    0,
    0,
    0,
    0,
    0,
    0,
    0,
    0,
    0,
    0,
    0,
    0,
    0,
    0,
    0,
    0,
    0,
    0,
    0,
    0,
    0,
    0,
    0,
    0,
    0,
    0,
    0,
    0,
    0,
    0,
    0,
    0,
    0,
    0,
    0,
    0,
    0,
    0,
    0,
    0,
    0,
    0,
    0,
    0,
    0,
    0,
    0,
    0,
    0,
    0,
    0,
    0,
    0,
    0,
    0,
    0,
    0,
    0,
    0,
    0,
    0,
    0,
    0,
    0,
    0,
    0,
    0,
    0,
    0,
    0,
    0,
    0,
    0,
    0,
    0,
    0,
    0,
    0,
    0,
    0,
    0,
    0,
    0,
    0,
    0,
    0,
    0,
    0,
    0,
    0,
    0,
    0,
    0,
    0,
    0,
    0,
    0,
    0,
    0,
    0,
    0,
    0,
    0,
    0,
    0,
    0,
    0,
    0,
    0,
    0,
    0,
    0,
    0,
    0,
    0,
    0,
    0,
    0,
    0,
    0,
    0,
    0,
    0,
    0,
    0,
    0,
    0,
    0,
    0,
    0,
    0,
    0,
    0,
    0,
    0,
    0,
    0,
    0,
    0,
    0,
    0,
    0,
    0,
    0,
    0,
    0,
    0,
    0,
    0,
    0,
    0,
    0,
    0,
    0,
    0,
    0,
    0,
    0,
    0,
    0,
    0,
    0,
    0,
    0,
    0,
    0,
    0,
    0,
    0,
    0,
    0,
    0,
    0,
    0,
    0,
    0,
    0,
    0,
    0,
    0,
    0,
    0,
    0,
    0,
    0,
    0,
    0,
    0,
    0,
    0,
    0,
    0,
    0,
    0,
    0,
    0,
    0,
    0,
    0,
    0,
    0,
    0,
    0,
    0,
    0,
    0,
    0,
    0,
    0,
    0,
    0,
    0,
    0,
    0,
    0,
    0,
    0,
    0,
    0,
    0,
    0,
    0,
    0,
    0,
    0,
    0,
    0,
    0,
    0,
    0,
    0,
    0,
    0,
    0,
    0,
    0,
    0,
    0,
    0,
    0,
    0,
    0,
    0,
    0,
    0,
    0,
    0,
    0,
    0,
    0,
    0,
    0,
    0,
    0,
    0,
    0,
    0,
    0,
    0,
    0,
    0,
    0,
    0,
    0,
    0,
    0,
    0,
    0,
    0,
    0,
    0,
    0,
    0,
    0,
    0,
    0,
    0,
    0,
    0,
    0,
    0,
    0,
    0,
    0,
    0,
    0,
    0,
    0,
    0,
    0,
    0,
    0,
    0,
    0,
    0,
    0,
    0,
    0,
    0,
    0,
    0,
    0,
    0,
    0,
    0,
    0,
    0,
    0,
    0,
    0,
    0,
    0,
    0,
    0,
    0,
    0,
    0,
    0,
    0,
    0,
    0,
    0,
    0,
    0,
    0,
    0,
    0,
    0,
    0,
    0,
    0,
    0,
    0,
    0,
    0,
    0,
    0,
    0,
    0,
    0,
    0,
    0,
    0,
    0,
    0,
    0,
    0,
    0,
    0,
    0,
    0,
    0,
    0,
    0,
    0,
    0,
    0,
    0,
    0,
    0,
    0,
    0,
    0,
    0,
    0,
    0,
    0,
    0,
    0,
    0,
    0,
    0,
    0,
    0,
    0,
    0,
    0,
    0,
    0,
    0,
    0,
    0,
    0,
    0,
    0,
    0,
    0,
    0,
    0,
    0,
    0,
    0,
    0,
    0,
    0,
    0,
    0,
    0,
    0,
    0,
    0,
    0,
    0,
    0,
    0,
    0,
    0,
    0,
    0,
    0,
    0,
    0,
    0,
    0,
    0,
    0,
    0,
    0,
    0,
    0,
    0,
    0,
    0,
    0,
    0,
    0,
    0,
    0,
    0,
    0,
    0,
    0,
    0,
    0,
    0,
    0,
    0,
    0,
    0,
    0,
    0,
    0,
    0,
    0,
    0,
    0,
    0,
    0,
    0,
    0,
    0,
    0,
    0,
    0,
    0,
    0,
    0,
    0,
    0,
    0,
    0,
    0,
    0,
    0,
    0,
    0,
    0,
    0,
    0,
    0,
    0,
    0,
    0,
    0,
    0,
    0,
    0,
    0,
    0,
    0,
    0,
    0,
    0,
    0,
    0,
    0,
    0,
    0,
    0,
    0,
    0,
    0,
    0,
    0,
    0,
    0,
    0,
    0,
    0,
    0,
    0,
    0,
    0,
    0,
    0,
    0,
    0,
    0,
    0,
    0,
    0,
    0,
    0,
    0,
    0,
    0,
    0,
    0,
    0,
    0,
    0,
    0,
    0,
    0,
    0,
    0,
    0,
    0,
    0,
    0,
    0,
    0,
    0,
    0,
    0,
    0,
    0,
    0,
    0,
    0,
    0,
    0,
    0,
    0,
    0,
    0,
    0,
    0,
    0,
    0,
    0,
    0,
    0,
    0,
    0,
    0,
    0,
    0,
    0,
    0,
    0,
    0,
    0,
    0,
    0,
    0,
    0,
    0,
    0,
    0,
    0,
    0,
    0,
    0,
    0,
    0,
    0,
    0,
    0,
    0,
    0,
    0,
    0,
    0,
    0,
    0,
    0,
    0,
    0,
    0,
    0,
    0,
    0,
    0,
    0,
    0,
    0,
    0,
    0,
    0,
    0,
    0,
    0,
    0,
    0,
    0,
    0,
    0,
    0,
    0,
    0,
    0,
    0,
    0,
    0,
    0,
    0,
    0,
    0,
    0,
    0,
    0,
    0,
    0,
    0,
    0,
    0,
    0,
    0,
    0,
    0,
    0,
    0,
    0,
    0,
    0,
    0,
    0,
    0,
    0,
    0,
    0,
    0,
    0,
    0,
    0,
    0,
    0,
    0,
    0,
    0,
    0,
    0,
    0,
    0,
    0,
    0,
    0,
    0,
    0,
    0,
    0,
    0,
    0,
    0,
    0,
    0,
    0,
    0,
    0,
    0,
    0,
    0,
    0,
    0,
    0,
    0,
    0,
    0,
    0,
    0,
    0,
    0,
    0,
    0,
    0,
    0,
    0,
    0,
    0,
    0,
    0,
    0,
    0,
    0,
    0,
    0,
    0,
    0,
    0,
    0,
    0,
    0,
    0,
    0,
    0,
    0,
    0,
    0,
    0,
    0,
    0,
    0,
    0,
    0,
    0,
    0,
    0,
    0,
    0,
    0,
    0,
    0,
    0,
    0,
    0,
    0,
    0,
    0,
    0,
    0,
    0,
    0,
    0,
    0,
    0,
    0,
    0,
    0,
    0,
    0,
    0,
    0,
    0,
    0,
    0,
    0,
    0,
    0,
    0,
    0,
    0,
    0,
    0,
    0,
    0,
    0,
    0,
    0,
    0,
    0,
    0,
    0,
    0,
    0,
    0,
    0,
    0,
    0,
    0,
    0,
    0,
    0,
    0,
    0,
    0,
    0,
    0,
    0,
    0,
    0,
    0,
    0,
    0,
    0,
    0,
    0,
    0,
    0,
    0,
    0,
    0,
    0,
    0,
    0,
    0,
    0,
    0,
    0,
    0,
    0,
    0,
    0,
    0,
    0,
    0,
    0,
    0,
    0,
    0,
    0,
    0,
    0,
    0,
    0,
    0,
    0,
    0,
    0,
    0,
    0,
    0,
    0,
    0,
    0,
    0,
    0,
    0,
    0,
    0,
    0,
    0,
    0,
    0,
    0,
    0,
    0,
    0,
    0,
    0,
    0,
    0,
    0,
    0,
    0,
    0,
    0,
    0,
    0,
    0,
    0,
    0,
    0,
    0,
    0,
    0,
    0,
    0,
    0,
    0,
    0,
    0,
    0,
    0,
    0,
    0,
    0,
    0,
    0,
    0,
    0,
    0,
    0,
    0,
    0,
    0,
    0,
    0,
    0,
    0,
    0,
    0,
    0,
    0,
    0,
    0,
    0,
    0,
    0,
    0,
    0,
    0,
    0,
    0,
    0,
    0,
    0,
    0,
    0,
    0,
    0,
    0,
    0,
    0,
    0,
    0,
    0,
    0,
    0,
    0,
    0,
    0,
    0,
    0,
    0,
    0,
    0,
    0,
    0,
    0,
    0,
    0,
    0,
    0,
    0,
    0,
    0,
    0,
    0,
    0,
    0,
    0,
    0,
    0,
    0,
    0,
    0,
    0,
    0,
    0,
    0,
    0,
    0,
    0,
    0,
    0,
    0,
    0,
    0,
    0,
    0,
    0,
    0,
    0,
    0,
    0,
    0,
    0,
    0,
    0,
    0,
    0,
    0,
    0,
    0,
    0,
    0,
    0,
    0,
    0,
    0,
    0,
    0,
    0,
    0,
    0,
    0,
    0,
    0,
    0,
    0,
    0,
    0,
    0,
    0,
    0,
    0,
    0,
    0,
    0,
    0,
    0,
    0,
    0,
    0,
    0,
    0,
    0,
    0,
    0,
    0,
    0,
    0,
    0,
    0,
    0,
    0,
    0,
    0,
    0,
    0,
    0,
    0,
    0,
    0,
    0,
    0,
    0,
    0,
    0,
    0,
    0,
    0,
    0,
    0,
    0,
    0,
    0,
    0,
    0,
    0,
    0,
    0,
    0,
    0,
    0,
    0,
    0,
    0,
    0,
    0,
    0,
    0,
    0,
    0,
    0,
    0,
    0,
    0,
    0,
    0,
    0,
    0,
    0,
    0,
    0,
    0,
    0,
    0,
    0,
    0,
    0,
    0,
    0,
    0,
    0,
    0,
    0,
    0,
    0,
    0,
    0,
    0,
    0,
    0,
    0,
    0,
    0,
    0,
    0,
    0,
    0,
    0,
    0,
    0,
    0,
    0,
    0,
    0,
    0,
    0,
    0,
    0,
    0,
    0,
    0,
    0,
    0,
    0,
    0,
    0,
    0,
    0,
    0,
    0,
    0,
    0,
    0,
    0,
    0,
    0,
    0,
    0,
    0,
    0,
    0,
    0,
    0,
    0,
    0,
    0,
    0,
    0,
    0,
    0,
    0,
    0,
    0,
    0,
    0,
    0,
    0,
    0,
    0,
    0,
    0,
    0,
    0,
    0,
    0,
    0,
    0,
    0,
    0,
    0,
    0,
    0,
    0,
    0,
    0,
    0,
    0,
    0,
    0,
    0,
    0,
    0,
    0,
    0,
    0,
    0,
    0,
    0,
    0,
    0,
    0,
    0,
    0,
    0,
    0,
    0,
    0,
    0,
    0,
    0,
    0,
    0,
    0,
    0,
    0,
    0,
    0,
    0,
    0,
    0,
    0,
    0,
    0,
    0,
    0,
    0,
    0,
    0,
    0,
    0,
    0,
    0,
    0,
    0,
    0,
    0,
    0,
    0,
    0,
    0,
    0,
    0,
    0,
    0,
    0,
    0,
    0,
    0,
    0,
    0,
    0,
    0,
    0,
    0,
    0,
    0,
    0,
    0,
    0,
    0,
    0,
    0,
    0,
    0,
    0,
    0,
    0,
    0,
    0,
    0,
    0,
    0,
    0,
    0,
    0,
    0,
    0,
    0,
    0,
    0,
    0,
    0,
    0,
    0,
    0,
    0,
    0,
    0,
    0,
    0,
    0,
    0,
    0,
    0,
    0,
    0,
    0,
    0,
    0,
    0,
    0,
    0,
    0,
    0,
    0,
    0,
    0,
    0,
    0,
    0,
    0,
    0,
    0,
    0,
    0,
    0,
    0,
    0,
    0,
    0,
    0,
    0,
    0,
    0,
    0,
    0,
    0,
    0,
    0,
    0,
    0,
    0,
    0,
    0,
    0,
    0,
    0,
    0,
    0,
    0,
    0,
    0,
    0,
    0,
    0,
    0,
    0,
    0,
    0,
    0,
    0,
    0,
    0,
    0,
    0,
    0,
    0,
    0,
    0,
    0,
    0,
    0,
    0,
    0,
    0,
    0,
    0,
    0,
    0,
    0,
    0,
    0,
    0,
    0,
    0,
    0,
    0,
    0,
    0,
    0,
    0,
    0,
    0,
    0,
    0,
    0,
    0,
    0,
    0,
    0,
    0,
    0,
    0,
    0,
    0,
    0,
    0,
    0,
    0,
    0,
    0,
    0,
    0,
    0,
    0,
    0,
    0,
    0,
    0,
    0,
    0,
    0,
    0,
    0,
    0,
    0,
    0,
    0,
    0,
    0,
    0,
    0,
    0,
    0,
    0,
    0,
    0,
    0,
    0,
    0,
    0,
    0,
    0,
    0,
    0,
    0,
    0,
    0,
    0,
    0,
    0,
    0,
    0,
    0,
    0,
    0,
    0,
    0,
    0,
    0,
    0,
    0,
    0,
    0,
    0,
    0,
    0,
    0,
    0,
    0,
    0,
    0,
    0,
    0,
    0,
    0,
    0,
    0,
    0,
    0,
    0,
    0,
    0,
    0,
    0,
    0,
    0,
    0,
    0,
    0,
    0,
    0,
    0,
    0,
    0,
    0,
    0,
    0,
    0,
    0,
    0,
    0,
    0,
    0,
    0,
    0,
    0,
    0,
    0,
    0,
    0,
    0,
    0,
    0,
    0,
    0,
    0,
    0,
    0,
    0,
    0,
    0,
    0,
    0,
    0,
    0,
    0,
    0,
    0,
    0,
    0,
    0,
    0,
    0,
    0,
    0,
    0,
    0,
    0,
    0,
    0,
    0,
    0,
    0,
    0,
    0,
    0,
    0,
    0,
    0,
    0,
    0,
    0,
    0,
    0,
    0,
    0,
    0,
    0,
    0,
    0,
    0,
    0,
    0,
    0,
    0,
    0,
    0,
    0,
    0,
    0,
    0,
    0,
    0,
    0,
    0,
    0,
    0,
    0,
    0,
    0,
    0,
    0,
    0,
    0,
    0,
    0,
    0,
    0,
    0,
    0,
    0,
    0,
    0,
    0,
    0,
    0,
    0,
    0,
    0,
    0,
    0,
    0,
    0,
    0,
    0,
    0,
    0,
    0,
    0,
    0,
    0,
    0,
    0,
    0,
    0,
    0,
    0,
    0,
    0,
    0,
    0,
    0,
    0,
    0,
    0,
    0,
    0,
    0,
    0,
    0,
    0,
    0,
    0,
    0,
    0,
    0,
    0,
    0,
    0,
    0,
    0,
    0,
    0,
    0,
    0,
    0,
    0,
    0,
    0,
    0,
    0,
    0,
    0,
    0,
    0,
    0,
    0,
    0,
    0,
    0,
    0,
    0,
    0,
    0,
    0,
    0,
    0,
    0,
    0,
    0,
    0,
    0,
    0,
    0,
    0,
    0,
    0,
    0,
    0,
    0,
    0,
    0,
    0,
    0,
    0,
    0,
    0,
    0,
    0,
    0,
    0,
    0,
    0,
    0,
    0,
    0,
    0,
    0,
    0,
    0,
    0,
    0,
    0,
    0,
    0,
    0,
    0,
    0,
    0,
    0,
    0,
    0,
    0,
    0,
    0,
    0,
    0,
    0,
    0,
    0,
    0,
    0,
    0,
    0,
    0,
    0,
    0,
    0,
    0,
    0,
    0,
    0,
    0,
    0,
    0,
    0,
    0,
    0,
    0,
    0,
    0,
    0,
    0,
    0,
    0,
    0,
    0,
    0,
    0,
    0,
    0,
    0,
    0,
    0,
    0,
    0,
    0,
    0,
    0,
    0,
    0,
    0,
    0,
    0,
    0,
    0,
    0,
    0,
    0,
    0,
    0,
    0,
    0,
    0,
    0,
    0,
    0,
    0,
    0,
    0,
    0,
    0,
    0,
    0,
    0,
    0,
    0,
    0,
    0,
    0,
    0,
    0,
    0,
    0,
    0,
    0,
    0,
    0,
    0,
    0,
    0,
    0,
    0,
    0,
    0,
    0,
    0,
    0,
    0,
    0,
    0,
    0,
    0,
    0,
    0,
    0,
    0,
    0,
    0,
    0,
    0,
    0,
    0,
    0,
    0,
    0,
    0,
    0,
    0,
    0,
    0,
    0,
    0,
    0,
    0,
    0,
    0,
    0,
    0,
    0,
    0,
    0,
    0,
    0,
    0,
    0,
    0,
    0,
    0,
    0,
    0,
    0,
    0,
    0,
    0,
    0,
    0,
    0,
    0,
    0,
    0,
    0,
    0,
    0,
    0,
    0,
    0,
    0,
    0,
    0,
    0,
    0,
    0,
    0,
    0,
    0,
    0,
    0,
    0,
    0,
    0,
    0,
    0,
    0,
    0,
    0,
    0,
    0,
    0,
    0,
    0,
    0,
    0,
    0,
    0,
    0,
    0,
    0,
    0,
    0,
    0,
    0,
    0,
    0,
    0,
    0,
    0,
    0,
    0,
    0,
    0,
    0,
    0,
    0,
    0,
    0,
    0,
    0,
    0,
    0,
    0,
    0,
    0,
    0,
    0,
    0,
    0,
    0,
    0,
    0,
    0,
    0,
    0,
    0,
    0,
    0,
    0,
    0,
    0,
    0,
    0,
    0,
    0,
    0,
    0,
    0,
    0,
    0,
    0,
    0,
    0,
    0,
    0,
    0,
    0,
    0,
    0,
    0,
    0,
    0,
    0,
    0,
    0,
    0,
    0,
    0,
    0,
    0,
    0,
    0,
    0,
    0,
    0,
    0,
    0,
    0,
    0,
    0,
    0,
    0,
    0,
    0,
    0,
    0,
    0,
    0,
    0,
    0,
    0,
    0,
    0,
    0,
    0,
    0,
    0,
    0,
    0,
    0,
    0,
    0,
    0,
    0,
    0,
    0,
    0,
    0,
    0,
    0,
    0,
    0,
    0,
    0,
    0,
    0,
    0,
    0,
    0,
    0,
    0,
    0,
    0,
    0,
    0,
    0,
    0,
    0,
    0,
    0,
    0,
    0,
    0,
    0,
    0,
    0,
    0,
    0,
    0,
    0,
    0,
    0,
    0,
    0,
    0,
    0,
    0,
    0,
    0,
    0,
    0,
    0,
    0,
    0,
    0,
    0,
    0,
    0,
    0,
    0,
    0,
    0,
    0,
    0,
    0,
    0,
    0,
    0,
    0,
    0,
    0,
    0,
    0,
    0,
    0,
    0,
    0,
    0,
    0,
    0,
    0,
    0,
    0,
    0,
    0,
    0,
    0,
    0,
    0,
    0,
    0,
    0,
    0,
    0,
    0,
    0,
    0,
    0,
    0,
    0,
    0,
    0,
    0,
    0,
    0,
    0,
    0,
    0,
    0,
    0,
    0,
    0,
    0,
    0,
    0,
    0,
    0,
    0,
    0,
    0,
    0,
    0,
    0,
    0,
    0,
    0,
    0,
    0,
    0,
    0,
    0,
    0,
    0,
    0,
    0,
    0,
    0,
    0,
    0,
    0,
    0,
    0,
    0,
    0,
    0,
    0,
    0,
    0,
    0,
    0,
    0,
    0,
    0,
    0,
    0,
    0,
    0,
    0,
    0,
    0,
    0,
    0,
    0,
    0,
    0,
    0,
    0,
    0,
    0,
    0,
    0,
    0,
    0,
    0,
    0,
    0,
    0,
    0,
    0,
    0,
    0,
    0,
    0,
    0,
    0,
    0,
    0,
    0,
    0,
    0,
    0,
    0,
    0,
    0,
    0,
    0,
    0,
    0,
    0,
    0,
    0,
    0,
    0,
    0,
    0,
    0,
    0,
    0,
    0,
    0,
    0,
    0,
    0,
    0,
    0,
    0,
    0,
    0,
    0,
    0,
    0,
    0,
    0,
    0,
    0,
    0,
    0,
    0,
    0,
    0,
    0,
    0,
    0,
    0,
    0,
    0,
    0,
    0,
    0,
    0,
    0,
    0,
    0,
    0,
    0,
    0,
    0,
    0,
    0,
    0,
    0,
    0,
    0,
    0,
    0,
    0,
    0,
    0,
    0,
    0,
    0,
    0,
    0,
    0,
    0,
    0,
    0,
    0,
    0,
    0,
    0,
    0,
    0,
    0,
    0,
    0,
    0,
    0,
    0,
    0,
    0,
    0,
    0,
    0,
    0,
    0,
    0,
    0,
    0,
    0,
    0,
    0,
    0,
    0,
    0,
    0,
    0,
    0,
    0,
    0,
    0,
    0,
    0,
    0,
    0,
    0,
    0,
    0,
    0,
    0,
    0,
    0,
    0,
    0,
    0,
    0,
    0,
    0,
    0,
    0,
    0,
    0,
    0,
    0,
    0,
    0,
    0,
    0,
    0,
    0,
    0,
    0,
    0,
    0,
    0,
    0,
    0,
    0,
    0,
    0,
    0,
    0,
    0,
    0,
    0,
    0,
    0,
    0,
    0,
    0,
    0,
    0,
    0,
    0,
    0,
    0,
    0,
    0,
    0,
    0,
    0,
    0,
    0,
    0,
    0,
    0,
    0,
    0,
    0,
    0,
    0,
    0,
    0,
    0,
    0,
    0,
    0,
    0,
    0,
    0,
    0,
    0,
    0,
    0,
    0,
    0,
    0,
    0,
    0,
    0,
    0,
    0,
    0,
    0,
    0,
    0,
    0,
    0,
    0,
    0,
    0,
    0,
    0,
    0,
    0,
    0,
    0,
    0,
    0,
    0,
    0,
    0,
    0,
    0,
    0,
    0,
    0,
    0,
    0,
    0,
    0,
    0,
    0,
    0,
    0,
    0,
    0,
    0,
    0,
    0,
    0,
    0,
    0,
    0,
    0,
    0,
    0,
    0,
    0,
    0,
    0,
    0,
    0,
    0,
    0,
    0,
    0,
    0,
    0,
    0,
    0,
    0,
    0,
    0,
    0,
    0,
    0,
    0,
    0,
    0,
    0,
    0,
    0,
    0,
    0,
    0,
    0,
    0,
    0,
    0,
    0,
    0,
    0,
    0,
    0,
    0,
    0,
    0,
    0,
    0,
    0,
    0,
    0,
    0,
    0,
    0,
    0,
    0,
    0,
    0,
    0,
    0,
    0,
    0,
    0,
    0,
    0,
    0,
    0,
    0,
    0,
    0,
    0,
    0,
    0,
    0,
    0,
    0,
    0,
    0,
    0,
    0,
    0,
    0,
    0,
    0,
    0,
    0,
    0,
    0,
    0
   ]
  },
  {
   "id": 3,
   "name": "props",
   "type": "tilelayer",
   "x": 0,
   "y": 0,
   "width": 152,
   "height": 152,
   "opacity": 1,
   "visible": true,
   "data": [
    0,
    0,
    0,
    0,
    0,
    0,
    0,
    0,
    0,
    0,
    0,
    0,
    0,
    0,
    0,
    0,
    0,
    0,
    0,
    0,
    0,
    0,
    0,
    0,
    0,
    0,
    0,
    0,
    0,
    0,
    0,
    0,
    0,
    0,
    0,
    0,
    0,
    0,
    0,
    0,
    0,
    0,
    0,
    0,
    0,
    0,
    0,
    0,
    0,
    0,
    0,
    0,
    0,
    0,
    0,
    0,
    0,
    0,
    0,
    0,
    0,
    0,
    0,
    0,
    0,
    0,
    0,
    0,
    0,
    0,
    0,
    0,
    0,
    0,
    0,
    0,
    0,
    0,
    0,
    0,
    0,
    0,
    0,
    0,
    0,
    0,
    0,
    0,
    0,
    0,
    0,
    0,
    0,
    0,
    0,
    0,
    0,
    0,
    0,
    0,
    0,
    0,
    0,
    0,
    0,
    0,
    0,
    0,
    0,
    0,
    0,
    0,
    0,
    0,
    0,
    0,
    195,
    0,
    0,
    0,
    0,
    0,
    0,
    0,
    0,
    0,
    0,
    0,
    290,
    0,
    0,
    0,
    0,
    0,
    0,
    0,
    0,
    0,
    0,
    0,
    0,
    0,
    0,
    0,
    0,
    0,
    0,
    0,
    0,
    0,
    0,
    0,
    0,
    0,
    0,
    0,
    0,
    0,
    0,
    0,
    0,
    0,
    0,
    0,
    0,
    0,
    0,
    0,
    0,
    0,
    0,
    0,
    0,
    0,
    0,
    0,
    0,
    0,
    0,
    0,
    0,
    0,
    0,
    0,
    0,
    0,
    0,
    0,
    0,
    0,
    0,
    0,
    0,
    0,
    0,
    0,
    0,
    0,
    0,
    0,
    0,
    0,
    0,
    0,
    0,
    0,
    196,
    0,
    0,
    0,
    0,
    0,
    0,
    0,
    0,
    0,
    0,
    0,
    0,
    0,
    0,
    0,
    0,
    0,
    0,
    0,
    0,
    0,
    0,
    0,
    0,
    0,
    0,
    0,
    0,
    0,
    0,
    0,
    0,
    0,
    0,
    0,
    0,
    0,
    0,
    0,
    0,
    0,
    0,
    0,
    0,
    0,
    0,
    0,
    0,
    0,
    0,
    0,
    0,
    0,
    0,
    0,
    0,
    0,
    0,
    0,
    0,
    0,
    0,
    0,
    0,
    0,
    0,
    0,
    0,
    0,
    0,
    0,
    0,
    0,
    0,
    0,
    0,
    0,
    0,
    0,
    0,
    0,
    0,
    0,
    0,
    0,
    0,
    0,
    0,
    0,
    0,
    0,
    0,
    0,
    0,
    0,
    0,
    0,
    0,
    0,
    0,
    0,
    0,
    0,
    0,
    0,
    0,
    0,
    0,
    0,
    0,
    0,
    0,
    0,
    0,
    0,
    0,
    0,
    0,
    0,
    226,
    0,
    0,
    0,
    0,
    0,
    0,
    0,
    0,
    0,
    0,
    0,
    0,
    0,
    0,
    0,
    0,
    0,
    0,
    0,
    0,
    0,
    0,
    0,
    0,
    0,
    0,
    0,
    0,
    0,
    0,
    0,
    0,
    0,
    0,
    0,
    0,
    0,
    0,
    0,
    0,
    0,
    0,
    0,
    0,
    0,
    0,
    0,
    0,
    0,
    0,
    0,
    0,
    0,
    0,
    0,
    0,
    0,
    0,
    0,
    0,
    0,
    290,
    0,
    0,
    0,
    0,
    0,
    0,
    0,
    0,
    0,
    0,
    0,
    0,
    0,
    0,
    0,
    0,
    0,
    0,
    0,
    0,
    0,
    0,
    0,
    0,
    0,
    0,
    0,
    0,
    0,
    0,
    0,
    0,
    0,
    0,
    0,
    0,
    0,
    0,
    0,
    0,
    0,
    0,
    0,
    0,
    0,
    0,
    0,
    0,
    0,
    0,
    0,
    0,
    0,
    0,
    0,
    0,
    0,
    0,
    0,
    0,
    0,
    0,
    0,
    0,
    0,
    0,
    0,
    0,
    0,
    0,
    0,
    0,
    0,
    0,
    0,
    0,
    0,
    0,
    0,
    0,
    0,
    0,
    0,
    0,
    0,
    0,
    0,
    0,
    0,
    0,
    0,
    0,
    0,
    0,
    0,
    0,
    0,
    0,
    0,
    0,
    0,
    0,
    0,
    226,
    0,
    0,
    0,
    0,
    0,
    0,
    0,
    0,
    0,
    0,
    0,
    0,
    0,
    0,
    0,
    0,
    0,
    0,
    0,
    0,
    0,
    0,
    0,
    0,
    0,
    0,
    0,
    0,
    0,
    0,
    0,
    0,
    0,
    0,
    0,
    0,
    0,
    0,
    0,
    0,
    0,
    0,
    0,
    0,
    0,
    0,
    0,
    0,
    0,
    0,
    0,
    0,
    0,
    0,
    0,
    0,
    0,
    0,
    0,
    0,
    0,
    0,
    0,
    0,
    0,
    0,
    0,
    0,
    0,
    0,
    0,
    0,
    0,
    0,
    0,
    0,
    0,
    0,
    0,
    0,
    0,
    0,
    0,
    0,
    0,
    0,
    0,
    0,
    0,
    0,
    0,
    0,
    0,
    0,
    0,
    0,
    0,
    0,
    0,
    0,
    0,
    0,
    0,
    0,
    0,
    0,
    0,
    0,
    0,
    0,
    0,
    0,
    0,
    0,
    0,
    0,
    0,
    0,
    0,
    0,
    0,
    0,
    0,
    0,
    0,
    0,
    0,
    0,
    0,
    0,
    0,
    0,
    0,
    0,
    0,
    0,
    0,
    0,
    0,
    0,
    0,
    0,
    0,
    0,
    0,
    0,
    0,
    0,
    0,
    0,
    0,
    0,
    0,
    0,
    0,
    0,
    0,
    0,
    0,
    0,
    0,
    0,
    0,
    0,
    0,
    0,
    0,
    0,
    0,
    0,
    0,
    0,
    0,
    0,
    0,
    0,
    0,
    0,
    0,
    0,
    0,
    0,
    0,
    0,
    0,
    0,
    0,
    0,
    0,
    0,
    0,
    0,
    0,
    0,
    0,
    0,
    0,
    0,
    0,
    0,
    0,
    0,
    0,
    0,
    0,
    0,
    0,
    0,
    0,
    0,
    0,
    0,
    0,
    0,
    0,
    0,
    0,
    0,
    0,
    0,
    0,
    0,
    0,
    0,
    0,
    0,
    0,
    0,
    0,
    0,
    0,
    0,
    0,
    0,
    0,
    0,
    0,
    0,
    0,
    0,
    0,
    0,
    0,
    0,
    0,
    0,
    0,
    0,
    0,
    0,
    0,
    0,
    0,
    0,
    0,
    0,
    0,
    0,
    0,
    0,
    0,
    0,
    0,
    0,
    0,
    0,
    0,
    0,
    0,
    0,
    0,
    0,
    0,
    0,
    0,
    0,
    0,
    0,
    0,
    0,
    0,
    0,
    0,
    0,
    0,
    0,
    0,
    0,
    0,
    0,
    0,
    0,
    0,
    0,
    0,
    0,
    0,
    0,
    0,
    0,
    0,
    0,
    0,
    0,
    0,
    0,
    0,
    0,
    0,
    0,
    0,
    0,
    0,
    0,
    0,
    0,
    0,
    0,
    0,
    0,
    0,
    0,
    0,
    0,
    0,
    0,
    0,
    0,
    0,
    0,
    0,
    0,
    0,
    0,
    0,
    0,
    0,
    0,
    0,
    0,
    0,
    0,
    0,
    0,
    0,
    0,
    0,
    0,
    0,
    0,
    0,
    0,
    0,
    0,
    0,
    0,
    0,
    195,
    0,
    0,
    0,
    0,
    0,
    0,
    0,
    0,
    0,
    0,
    0,
    0,
    0,
    0,
    0,
    0,
    0,
    0,
    0,
    0,
    196,
    0,
    0,
    0,
    0,
    0,
    0,
    0,
    0,
    0,
    0,
    0,
    0,
    0,
    0,
    0,
    0,
    0,
    0,
    0,
    0,
    0,
    0,
    0,
    0,
    0,
    0,
    0,
    0,
    0,
    0,
    0,
    0,
    0,
    0,
    0,
    0,
    0,
    0,
    0,
    0,
    0,
    0,
    0,
    0,
    0,
    0,
    0,
    0,
    0,
    0,
    0,
    0,
    0,
    0,
    0,
    0,
    0,
    0,
    0,
    0,
    0,
    0,
    0,
    0,
    0,
    0,
    0,
    0,
    0,
    0,
    0,
    0,
    0,
    0,
    0,
    0,
    0,
    0,
    0,
    0,
    0,
    0,
    0,
    0,
    0,
    0,
    0,
    0,
    0,
    0,
    0,
    0,
    0,
    0,
    0,
    0,
    0,
    0,
    0,
    0,
    0,
    0,
    0,
    0,
    0,
    0,
    0,
    0,
    0,
    0,
    0,
    0,
    0,
    0,
    0,
    0,
    0,
    0,
    0,
    0,
    0,
    0,
    0,
    0,
    0,
    0,
    0,
    0,
    0,
    0,
    0,
    0,
    0,
    0,
    0,
    0,
    0,
    0,
    0,
    0,
    0,
    0,
    0,
    0,
    0,
    0,
    0,
    0,
    0,
    0,
    0,
    0,
    0,
    0,
    0,
    0,
    0,
    0,
    0,
    0,
    0,
    0,
    0,
    0,
    0,
    0,
    0,
    0,
    0,
    0,
    0,
    0,
    0,
    0,
    0,
    0,
    0,
    0,
    0,
    0,
    0,
    0,
    0,
    0,
    0,
    0,
    0,
    0,
    0,
    0,
    0,
    0,
    0,
    0,
    0,
    0,
    0,
    0,
    0,
    0,
    0,
    0,
    0,
    0,
    0,
    0,
    0,
    0,
    0,
    0,
    0,
    226,
    0,
    0,
    0,
    0,
    0,
    0,
    0,
    0,
    0,
    0,
    0,
    0,
    0,
    0,
    0,
    0,
    0,
    0,
    0,
    0,
    0,
    0,
    0,
    0,
    0,
    0,
    0,
    0,
    0,
    0,
    0,
    0,
    0,
    0,
    0,
    0,
    0,
    0,
    0,
    0,
    0,
    0,
    0,
    0,
    0,
    196,
    0,
    0,
    0,
    0,
    0,
    0,
    0,
    0,
    0,
    0,
    0,
    0,
    0,
    0,
    0,
    0,
    0,
    0,
    0,
    0,
    0,
    0,
    0,
    0,
    0,
    0,
    0,
    0,
    0,
    0,
    0,
    0,
    0,
    0,
    0,
    0,
    0,
    0,
    0,
    0,
    0,
    0,
    0,
    0,
    0,
    0,
    0,
    0,
    0,
    0,
    0,
    0,
    0,
    0,
    0,
    0,
    0,
    0,
    0,
    0,
    0,
    0,
    0,
    0,
    0,
    0,
    0,
    0,
    0,
    0,
    0,
    0,
    0,
    0,
    258,
    0,
    0,
    0,
    0,
    0,
    0,
    0,
    0,
    0,
    0,
    0,
    0,
    0,
    0,
    0,
    0,
    0,
    0,
    0,
    0,
    0,
    0,
    0,
    0,
    0,
    0,
    0,
    0,
    0,
    0,
    0,
    0,
    0,
    0,
    0,
    0,
    0,
    0,
    0,
    0,
    0,
    0,
    0,
    0,
    0,
    0,
    0,
    0,
    0,
    0,
    0,
    0,
    0,
    0,
    0,
    0,
    0,
    0,
    0,
    0,
    0,
    0,
    0,
    0,
    0,
    0,
    0,
    0,
    0,
    0,
    0,
    0,
    0,
    0,
    0,
    0,
    0,
    0,
    0,
    0,
    0,
    0,
    0,
    0,
    0,
    0,
    0,
    0,
    0,
    0,
    0,
    0,
    0,
    0,
    0,
    0,
    0,
    0,
    0,
    0,
    0,
    0,
    0,
    0,
    0,
    0,
    0,
    0,
    0,
    0,
    0,
    0,
    0,
    0,
    0,
    0,
    0,
    0,
    0,
    0,
    0,
    0,
    0,
    0,
    0,
    0,
    0,
    0,
    0,
    0,
    0,
    0,
    195,
    0,
    0,
    0,
    0,
    0,
    0,
    0,
    0,
    0,
    0,
    0,
    0,
    0,
    0,
    0,
    0,
    0,
    0,
    0,
    0,
    0,
    0,
    0,
    0,
    0,
    0,
    0,
    0,
    0,
    0,
    0,
    0,
    195,
    0,
    0,
    0,
    0,
    226,
    195,
    0,
    0,
    0,
    0,
    0,
    0,
    0,
    0,
    0,
    0,
    0,
    0,
    0,
    0,
    0,
    0,
    0,
    0,
    0,
    0,
    0,
    0,
    0,
    0,
    0,
    0,
    0,
    0,
    0,
    0,
    0,
    0,
    0,
    0,
    0,
    0,
    0,
    0,
    0,
    0,
    0,
    0,
    0,
    0,
    0,
    0,
    0,
    0,
    0,
    0,
    0,
    0,
    0,
    0,
    0,
    0,
    0,
    0,
    0,
    0,
    0,
    0,
    0,
    0,
    0,
    0,
    0,
    0,
    0,
    0,
    0,
    0,
    0,
    0,
    0,
    0,
    0,
    0,
    0,
    0,
    0,
    0,
    0,
    0,
    0,
    0,
    0,
    0,
    0,
    0,
    0,
    0,
    0,
    0,
    0,
    0,
    0,
    0,
    0,
    0,
    0,
    0,
    0,
    0,
    0,
    0,
    0,
    0,
    0,
    0,
    0,
    0,
    0,
    0,
    0,
    0,
    0,
    0,
    0,
    0,
    0,
    0,
    0,
    0,
    0,
    0,
    0,
    0,
    0,
    0,
    0,
    0,
    0,
    0,
    0,
    0,
    0,
    0,
    0,
    0,
    0,
    0,
    0,
    0,
    0,
    0,
    0,
    0,
    0,
    0,
    0,
    0,
    0,
    0,
    0,
    0,
    0,
    0,
    0,
    0,
    0,
    0,
    0,
    0,
    0,
    0,
    0,
    0,
    0,
    0,
    0,
    0,
    0,
    0,
    0,
    0,
    0,
    0,
    0,
    0,
    0,
    0,
    0,
    0,
    0,
    196,
    0,
    0,
    0,
    0,
    0,
    0,
    0,
    0,
    0,
    0,
    0,
    0,
    0,
    0,
    0,
    0,
    0,
    0,
    0,
    0,
    0,
    0,
    0,
    0,
    0,
    0,
    0,
    0,
    0,
    0,
    0,
    0,
    0,
    0,
    0,
    0,
    227,
    0,
    0,
    0,
    0,
    0,
    0,
    0,
    0,
    0,
    0,
    0,
    0,
    0,
    0,
    0,
    0,
    0,
    0,
    0,
    0,
    0,
    0,
    0,
    0,
    0,
    0,
    0,
    0,
    0,
    0,
    0,
    0,
    0,
    0,
    0,
    0,
    0,
    0,
    0,
    0,
    0,
    0,
    0,
    259,
    0,
    0,
    0,
    0,
    0,
    0,
    0,
    0,
    0,
    0,
    0,
    0,
    0,
    0,
    0,
    0,
    0,
    0,
    0,
    0,
    0,
    0,
    0,
    0,
    0,
    0,
    0,
    0,
    0,
    0,
    0,
    0,
    0,
    0,
    0,
    0,
    0,
    0,
    290,
    0,
    0,
    0,
    0,
    0,
    0,
    0,
    0,
    0,
    0,
    0,
    0,
    0,
    0,
    0,
    0,
    0,
    0,
    0,
    0,
    0,
    0,
    0,
    0,
    0,
    0,
    0,
    0,
    0,
    0,
    0,
    0,
    0,
    0,
    0,
    0,
    0,
    0,
    0,
    0,
    0,
    0,
    0,
    0,
    0,
    0,
    0,
    0,
    0,
    0,
    0,
    0,
    0,
    0,
    0,
    0,
    0,
    0,
    0,
    0,
    0,
    0,
    0,
    0,
    0,
    0,
    0,
    0,
    0,
    0,
    0,
    0,
    0,
    0,
    0,
    0,
    0,
    0,
    0,
    0,
    0,
    0,
    0,
    0,
    0,
    0,
    0,
    0,
    0,
    0,
    0,
    0,
    0,
    0,
    0,
    0,
    0,
    0,
    0,
    0,
    0,
    0,
    0,
    0,
    0,
    0,
    0,
    0,
    0,
    0,
    0,
    0,
    226,
    0,
    0,
    0,
    0,
    0,
    0,
    0,
    0,
    0,
    0,
    0,
    0,
    0,
    0,
    0,
    0,
    0,
    0,
    0,
    0,
    0,
    0,
    0,
    0,
    0,
    0,
    0,
    0,
    0,
    0,
    0,
    0,
    0,
    0,
    0,
    0,
    0,
    0,
    0,
    0,
    0,
    0,
    0,
    0,
    0,
    0,
    0,
    0,
    0,
    0,
    0,
    0,
    0,
    0,
    0,
    0,
    0,
    0,
    0,
    0,
    0,
    0,
    0,
    0,
    0,
    0,
    0,
    0,
    227,
    0,
    0,
    0,
    0,
    0,
    0,
    0,
    0,
    0,
    0,
    0,
    0,
    0,
    0,
    0,
    0,
    0,
    0,
    0,
    0,
    0,
    0,
    0,
    0,
    0,
    0,
    0,
    0,
    0,
    0,
    0,
    0,
    0,
    0,
    0,
    0,
    0,
    0,
    0,
    0,
    0,
    0,
    0,
    0,
    0,
    0,
    0,
    0,
    0,
    0,
    0,
    0,
    0,
    0,
    0,
    0,
    0,
    0,
    0,
    0,
    0,
    0,
    0,
    0,
    0,
    0,
    0,
    0,
    0,
    0,
    0,
    0,
    0,
    0,
    0,
    0,
    0,
    0,
    0,
    0,
    0,
    0,
    0,
    0,
    0,
    0,
    0,
    0,
    0,
    0,
    0,
    0,
    0,
    0,
    0,
    0,
    0,
    0,
    0,
    0,
    0,
    0,
    0,
    0,
    0,
    0,
    0,
    0,
    0,
    0,
    0,
    0,
    0,
    258,
    0,
    0,
    0,
    0,
    0,
    0,
    0,
    0,
    0,
    0,
    0,
    0,
    0,
    0,
    0,
    0,
    0,
    0,
    0,
    0,
    0,
    0,
    0,
    0,
    0,
    0,
    0,
    196,
    0,
    0,
    0,
    0,
    0,
    0,
    0,
    0,
    0,
    0,
    0,
    0,
    0,
    0,
    0,
    0,
    0,
    0,
    0,
    0,
    0,
    0,
    0,
    0,
    0,
    0,
    0,
    0,
    0,
    0,
    0,
    0,
    0,
    0,
    0,
    0,
    0,
    0,
    0,
    0,
    0,
    0,
    0,
    0,
    0,
    0,
    0,
    0,
    0,
    0,
    0,
    0,
    0,
    0,
    0,
    0,
    0,
    0,
    0,
    0,
    0,
    0,
    0,
    0,
    0,
    0,
    0,
    0,
    0,
    0,
    0,
    0,
    0,
    0,
    0,
    0,
    0,
    0,
    0,
    0,
    0,
    0,
    0,
    0,
    0,
    0,
    0,
    0,
    0,
    0,
    0,
    0,
    0,
    0,
    0,
    0,
    0,
    0,
    0,
    0,
    0,
    0,
    0,
    0,
    0,
    0,
    0,
    0,
    0,
    0,
    0,
    0,
    0,
    0,
    0,
    0,
    0,
    0,
    0,
    0,
    0,
    0,
    0,
    0,
    0,
    0,
    0,
    0,
    0,
    0,
    0,
    0,
    0,
    0,
    0,
    0,
    0,
    0,
    0,
    0,
    0,
    0,
    0,
    0,
    0,
    0,
    0,
    0,
    0,
    0,
    0,
    258,
    0,
    0,
    0,
    0,
    0,
    0,
    0,
    0,
    0,
    0,
    0,
    0,
    0,
    0,
    0,
    0,
    0,
    0,
    0,
    0,
    0,
    0,
    0,
    0,
    0,
    0,
    0,
    0,
    0,
    0,
    0,
    0,
    0,
    0,
    0,
    0,
    0,
    0,
    0,
    0,
    0,
    0,
    0,
    0,
    0,
    0,
    0,
    0,
    0,
    0,
    0,
    0,
    0,
    0,
    0,
    0,
    0,
    0,
    0,
    0,
    0,
    0,
    0,
    0,
    0,
    0,
    0,
    0,
    0,
    0,
    0,
    0,
    0,
    0,
    0,
    0,
    0,
    226,
    0,
    0,
    0,
    0,
    0,
    0,
    0,
    0,
    0,
    0,
    0,
    0,
    0,
    0,
    0,
    0,
    0,
    0,
    0,
    0,
    0,
    0,
    0,
    0,
    0,
    0,
    0,
    0,
    0,
    0,
    0,
    0,
    0,
    0,
    0,
    0,
    0,
    0,
    0,
    0,
    0,
    0,
    0,
    0,
    0,
    0,
    0,
    0,
    0,
    0,
    0,
    0,
    0,
    0,
    0,
    0,
    0,
    0,
    0,
    0,
    0,
    0,
    0,
    0,
    0,
    0,
    0,
    0,
    0,
    0,
    0,
    0,
    0,
    0,
    0,
    0,
    0,
    0,
    0,
    0,
    0,
    0,
    0,
    0,
    0,
    0,
    0,
    0,
    0,
    0,
    0,
    0,
    0,
    0,
    0,
    0,
    0,
    0,
    0,
    0,
    0,
    0,
    0,
    0,
    0,
    0,
    0,
    0,
    0,
    0,
    0,
    0,
    0,
    0,
    0,
    0,
    0,
    0,
    0,
    0,
    0,
    0,
    0,
    0,
    0,
    0,
    0,
    0,
    0,
    0,
    0,
    0,
    0,
    0,
    0,
    0,
    0,
    0,
    0,
    0,
    0,
    0,
    0,
    0,
    0,
    0,
    0,
    0,
    0,
    0,
    0,
    0,
    0,
    0,
    0,
    0,
    0,
    0,
    0,
    0,
    0,
    0,
    0,
    0,
    0,
    0,
    0,
    227,
    0,
    0,
    0,
    0,
    0,
    0,
    0,
    0,
    0,
    0,
    0,
    0,
    0,
    0,
    0,
    0,
    0,
    0,
    197,
    0,
    0,
    0,
    0,
    0,
    0,
    0,
    0,
    0,
    0,
    0,
    0,
    0,
    0,
    0,
    0,
    0,
    0,
    0,
    0,
    0,
    0,
    0,
    0,
    0,
    0,
    0,
    0,
    0,
    0,
    0,
    0,
    0,
    0,
    0,
    0,
    0,
    0,
    0,
    0,
    0,
    0,
    0,
    0,
    0,
    0,
    0,
    0,
    0,
    0,
    0,
    0,
    0,
    0,
    0,
    0,
    0,
    0,
    0,
    0,
    0,
    0,
    0,
    0,
    0,
    0,
    0,
    0,
    0,
    0,
    0,
    0,
    0,
    0,
    0,
    0,
    0,
    0,
    0,
    0,
    0,
    0,
    0,
    0,
    0,
    0,
    0,
    0,
    0,
    0,
    0,
    0,
    0,
    0,
    0,
    0,
    0,
    0,
    0,
    0,
    0,
    0,
    0,
    0,
    0,
    0,
    0,
    0,
    0,
    0,
    0,
    0,
    0,
    0,
    0,
    0,
    0,
    0,
    0,
    0,
    0,
    0,
    0,
    0,
    0,
    0,
    0,
    0,
    0,
    0,
    0,
    0,
    0,
    0,
    0,
    0,
    0,
    0,
    0,
    0,
    0,
    0,
    0,
    0,
    258,
    0,
    0,
    0,
    0,
    0,
    0,
    0,
    0,
    0,
    0,
    0,
    0,
    0,
    0,
    0,
    0,
    0,
    0,
    0,
    0,
    0,
    0,
    0,
    0,
    0,
    0,
    0,
    0,
    0,
    0,
    0,
    0,
    0,
    0,
    0,
    0,
    0,
    0,
    0,
    0,
    0,
    0,
    0,
    0,
    0,
    0,
    0,
    0,
    0,
    0,
    0,
    0,
    0,
    0,
    0,
    0,
    226,
    0,
    0,
    0,
    0,
    0,
    0,
    0,
    0,
    0,
    0,
    0,
    0,
    0,
    0,
    0,
    0,
    0,
    0,
    0,
    0,
    0,
    0,
    0,
    0,
    0,
    0,
    0,
    0,
    0,
    0,
    0,
    0,
    0,
    0,
    0,
    0,
    0,
    0,
    0,
    0,
    0,
    0,
    0,
    0,
    0,
    0,
    0,
    0,
    0,
    0,
    0,
    0,
    0,
    0,
    0,
    0,
    0,
    0,
    0,
    0,
    0,
    0,
    0,
    0,
    195,
    0,
    0,
    0,
    0,
    0,
    0,
    0,
    0,
    0,
    0,
    0,
    0,
    0,
    0,
    0,
    0,
    0,
    0,
    0,
    0,
    0,
    0,
    0,
    0,
    0,
    0,
    0,
    0,
    0,
    0,
    0,
    0,
    0,
    0,
    0,
    0,
    0,
    0,
    0,
    0,
    0,
    0,
    0,
    0,
    0,
    0,
    0,
    0,
    0,
    0,
    0,
    0,
    0,
    0,
    0,
    0,
    0,
    0,
    0,
    0,
    0,
    0,
    0,
    0,
    0,
    0,
    0,
    0,
    0,
    0,
    0,
    0,
    0,
    0,
    0,
    0,
    0,
    0,
    0,
    0,
    0,
    0,
    0,
    0,
    0,
    0,
    0,
    0,
    0,
    0,
    0,
    0,
    0,
    0,
    0,
    0,
    0,
    0,
    0,
    0,
    0,
    0,
    0,
    0,
    0,
    0,
    0,
    0,
    0,
    0,
    0,
    0,
    0,
    0,
    0,
    0,
    0,
    0,
    0,
    0,
    0,
    0,
    0,
    0,
    0,
    0,
    0,
    0,
    0,
    0,
    0,
    0,
    0,
    0,
    0,
    0,
    0,
    0,
    0,
    0,
    0,
    0,
    0,
    0,
    0,
    0,
    0,
    0,
    0,
    0,
    0,
    0,
    0,
    0,
    0,
    0,
    0,
    0,
    0,
    0,
    0,
    0,
    0,
    0,
    0,
    0,
    0,
    0,
    0,
    0,
    0,
    0,
    0,
    0,
    0,
    0,
    0,
    0,
    0,
    0,
    197,
    0,
    0,
    0,
    0,
    0,
    0,
    0,
    0,
    0,
    0,
    0,
    0,
    0,
    0,
    0,
    0,
    0,
    0,
    0,
    0,
    0,
    0,
    0,
    0,
    0,
    0,
    0,
    0,
    0,
    0,
    0,
    0,
    0,
    0,
    0,
    0,
    0,
    0,
    0,
    0,
    0,
    0,
    0,
    0,
    0,
    0,
    0,
    0,
    0,
    0,
    0,
    0,
    0,
    0,
    0,
    0,
    0,
    0,
    0,
    0,
    0,
    0,
    0,
    0,
    0,
    0,
    0,
    0,
    0,
    0,
    0,
    0,
    0,
    0,
    0,
    0,
    0,
    0,
    0,
    0,
    0,
    0,
    0,
    0,
    0,
    0,
    0,
    0,
    0,
    0,
    0,
    0,
    0,
    0,
    0,
    0,
    0,
    0,
    0,
    0,
    0,
    0,
    0,
    0,
    0,
    0,
    0,
    0,
    0,
    0,
    0,
    0,
    0,
    0,
    0,
    0,
    0,
    0,
    0,
    0,
    0,
    0,
    290,
    0,
    0,
    0,
    0,
    0,
    0,
    0,
    0,
    0,
    0,
    0,
    0,
    0,
    0,
    0,
    0,
    0,
    0,
    0,
    0,
    0,
    0,
    0,
    0,
    0,
    0,
    0,
    0,
    0,
    0,
    0,
    0,
    0,
    197,
    0,
    0,
    0,
    0,
    0,
    0,
    0,
    0,
    0,
    0,
    0,
    0,
    0,
    0,
    0,
    0,
    0,
    0,
    0,
    0,
    0,
    0,
    0,
    0,
    0,
    0,
    0,
    0,
    0,
    0,
    0,
    0,
    0,
    0,
    0,
    258,
    0,
    0,
    0,
    0,
    0,
    0,
    258,
    0,
    0,
    0,
    197,
    0,
    0,
    0,
    0,
    0,
    0,
    0,
    0,
    0,
    0,
    0,
    0,
    0,
    0,
    0,
    0,
    0,
    0,
    0,
    0,
    0,
    0,
    0,
    0,
    0,
    0,
    0,
    0,
    0,
    0,
    0,
    0,
    0,
    0,
    0,
    0,
    0,
    0,
    0,
    0,
    0,
    0,
    0,
    0,
    0,
    0,
    0,
    0,
    0,
    0,
    0,
    0,
    0,
    0,
    0,
    0,
    0,
    0,
    0,
    0,
    0,
    0,
    0,
    0,
    0,
    0,
    0,
    0,
    0,
    0,
    0,
    0,
    0,
    0,
    0,
    0,
    0,
    0,
    0,
    0,
    0,
    0,
    0,
    0,
    0,
    0,
    0,
    0,
    0,
    0,
    0,
    0,
    0,
    0,
    0,
    0,
    0,
    0,
    0,
    0,
    0,
    0,
    0,
    0,
    0,
    0,
    0,
    0,
    0,
    0,
    0,
    0,
    0,
    0,
    0,
    0,
    0,
    0,
    0,
    0,
    0,
    0,
    0,
    0,
    0,
    0,
    0,
    0,
    0,
    0,
    0,
    226,
    0,
    0,
    0,
    0,
    0,
    0,
    0,
    0,
    0,
    0,
    0,
    0,
    0,
    0,
    0,
    0,
    0,
    0,
    0,
    0,
    0,
    0,
    0,
    226,
    0,
    0,
    0,
    0,
    0,
    0,
    0,
    0,
    0,
    0,
    0,
    0,
    0,
    0,
    0,
    0,
    0,
    0,
    0,
    0,
    0,
    0,
    0,
    0,
    0,
    0,
    0,
    0,
    0,
    0,
    0,
    0,
    0,
    0,
    0,
    0,
    0,
    0,
    0,
    0,
    0,
    0,
    0,
    0,
    0,
    0,
    0,
    0,
    0,
    0,
    0,
    0,
    0,
    0,
    0,
    0,
    0,
    0,
    0,
    0,
    0,
    0,
    0,
    0,
    0,
    0,
    0,
    0,
    0,
    0,
    0,
    0,
    0,
    0,
    0,
    0,
    0,
    0,
    0,
    0,
    0,
    0,
    0,
    0,
    0,
    0,
    0,
    0,
    0,
    0,
    0,
    0,
    0,
    0,
    0,
    0,
    0,
    0,
    0,
    0,
    0,
    0,
    0,
    0,
    0,
    0,
    0,
    0,
    0,
    0,
    0,
    0,
    0,
    0,
    0,
    0,
    258,
    0,
    0,
    0,
    0,
    0,
    0,
    0,
    0,
    0,
    0,
    0,
    0,
    0,
    0,
    0,
    0,
    0,
    0,
    0,
    0,
    0,
    0,
    0,
    0,
    0,
    0,
    0,
    0,
    0,
    0,
    0,
    0,
    0,
    0,
    0,
    0,
    0,
    0,
    0,
    0,
    0,
    0,
    0,
    0,
    0,
    0,
    0,
    0,
    0,
    0,
    0,
    0,
    0,
    0,
    0,
    0,
    0,
    0,
    0,
    0,
    0,
    0,
    0,
    0,
    0,
    0,
    0,
    0,
    0,
    0,
    0,
    0,
    0,
    0,
    0,
    0,
    0,
    0,
    0,
    0,
    0,
    0,
    0,
    0,
    0,
    0,
    195,
    259,
    0,
    0,
    0,
    0,
    0,
    0,
    0,
    0,
    0,
    0,
    0,
    0,
    0,
    0,
    0,
    0,
    0,
    0,
    0,
    0,
    0,
    0,
    0,
    0,
    0,
    0,
    0,
    0,
    0,
    0,
    0,
    0,
    0,
    0,
    0,
    0,
    0,
    0,
    0,
    0,
    0,
    0,
    0,
    0,
    0,
    0,
    0,
    0,
    0,
    0,
    0,
    0,
    0,
    0,
    0,
    0,
    0,
    0,
    0,
    0,
    0,
    0,
    0,
    0,
    0,
    0,
    0,
    0,
    0,
    0,
    0,
    0,
    0,
    0,
    0,
    0,
    0,
    0,
    0,
    0,
    0,
    0,
    0,
    0,
    0,
    0,
    0,
    0,
    0,
    0,
    0,
    0,
    0,
    0,
    0,
    0,
    0,
    0,
    0,
    0,
    0,
    0,
    0,
    0,
    0,
    0,
    0,
    0,
    0,
    0,
    0,
    0,
    0,
    0,
    0,
    0,
    0,
    0,
    0,
    0,
    0,
    0,
    0,
    0,
    0,
    0,
    0,
    0,
    0,
    0,
    0,
    0,
    0,
    0,
    0,
    0,
    0,
    0,
    0,
    0,
    0,
    0,
    0,
    0,
    0,
    0,
    0,
    0,
    0,
    0,
    0,
    0,
    0,
    0,
    0,
    0,
    0,
    0,
    0,
    0,
    0,
    0,
    0,
    0,
    0,
    0,
    0,
    0,
    0,
    0,
    0,
    0,
    0,
    0,
    0,
    0,
    0,
    0,
    0,
    0,
    0,
    0,
    0,
    0,
    0,
    0,
    0,
    0,
    259,
    0,
    0,
    0,
    0,
    0,
    0,
    0,
    0,
    0,
    0,
    0,
    0,
    0,
    0,
    0,
    0,
    0,
    0,
    0,
    0,
    0,
    0,
    0,
    0,
    0,
    0,
    0,
    0,
    0,
    0,
    0,
    0,
    0,
    0,
    0,
    0,
    0,
    0,
    0,
    0,
    0,
    0,
    0,
    0,
    0,
    0,
    0,
    0,
    0,
    0,
    0,
    0,
    0,
    0,
    0,
    0,
    0,
    0,
    0,
    0,
    0,
    0,
    0,
    0,
    0,
    0,
    0,
    0,
    0,
    0,
    0,
    226,
    0,
    0,
    0,
    0,
    0,
    0,
    0,
    0,
    0,
    0,
    0,
    0,
    0,
    0,
    0,
    0,
    0,
    0,
    0,
    0,
    0,
    0,
    0,
    0,
    0,
    0,
    0,
    0,
    0,
    0,
    0,
    0,
    0,
    0,
    0,
    0,
    0,
    0,
    0,
    0,
    0,
    0,
    0,
    0,
    0,
    196,
    0,
    0,
    0,
    0,
    0,
    0,
    0,
    0,
    0,
    0,
    0,
    0,
    0,
    0,
    0,
    0,
    0,
    0,
    0,
    0,
    0,
    0,
    0,
    0,
    0,
    0,
    0,
    0,
    0,
    0,
    0,
    0,
    0,
    0,
    0,
    0,
    0,
    0,
    0,
    0,
    0,
    0,
    0,
    0,
    0,
    0,
    0,
    0,
    0,
    0,
    0,
    0,
    0,
    0,
    0,
    0,
    0,
    0,
    0,
    0,
    0,
    0,
    0,
    0,
    0,
    0,
    0,
    0,
    0,
    0,
    0,
    0,
    0,
    0,
    290,
    0,
    0,
    0,
    0,
    0,
    0,
    0,
    0,
    0,
    0,
    0,
    0,
    0,
    0,
    0,
    0,
    0,
    0,
    0,
    0,
    0,
    0,
    0,
    0,
    0,
    0,
    0,
    0,
    0,
    0,
    0,
    0,
    0,
    0,
    0,
    0,
    0,
    0,
    0,
    0,
    0,
    0,
    0,
    0,
    0,
    0,
    0,
    0,
    0,
    0,
    0,
    0,
    0,
    0,
    0,
    0,
    0,
    0,
    0,
    0,
    0,
    0,
    0,
    0,
    0,
    0,
    0,
    0,
    0,
    0,
    0,
    0,
    0,
    0,
    0,
    0,
    0,
    0,
    0,
    0,
    0,
    0,
    0,
    0,
    0,
    0,
    0,
    0,
    0,
    0,
    0,
    0,
    0,
    0,
    0,
    0,
    0,
    0,
    0,
    0,
    0,
    0,
    0,
    0,
    0,
    0,
    0,
    0,
    0,
    0,
    0,
    0,
    0,
    0,
    0,
    0,
    0,
    0,
    0,
    0,
    0,
    0,
    0,
    0,
    0,
    0,
    0,
    0,
    0,
    0,
    0,
    0,
    0,
    0,
    0,
    0,
    0,
    0,
    0,
    0,
    0,
    0,
    0,
    0,
    0,
    0,
    0,
    0,
    0,
    0,
    0,
    0,
    0,
    0,
    0,
    0,
    0,
    0,
    0,
    0,
    0,
    0,
    0,
    0,
    0,
    0,
    0,
    0,
    0,
    0,
    0,
    0,
    0,
    0,
    0,
    0,
    0,
    0,
    0,
    0,
    0,
    0,
    0,
    0,
    0,
    0,
    0,
    0,
    0,
    0,
    0,
    0,
    0,
    0,
    0,
    0,
    0,
    0,
    0,
    0,
    0,
    0,
    0,
    0,
    0,
    258,
    0,
    0,
    0,
    0,
    0,
    0,
    0,
    0,
    0,
    0,
    0,
    0,
    0,
    0,
    0,
    0,
    0,
    0,
    0,
    0,
    0,
    0,
    0,
    0,
    0,
    0,
    0,
    0,
    0,
    0,
    0,
    0,
    0,
    0,
    0,
    0,
    0,
    0,
    0,
    0,
    0,
    0,
    0,
    0,
    0,
    0,
    0,
    0,
    0,
    0,
    0,
    0,
    0,
    0,
    0,
    0,
    0,
    0,
    0,
    0,
    0,
    0,
    0,
    0,
    0,
    0,
    0,
    0,
    0,
    0,
    0,
    0,
    0,
    0,
    0,
    0,
    0,
    0,
    0,
    0,
    0,
    0,
    0,
    0,
    0,
    0,
    0,
    0,
    0,
    0,
    196,
    0,
    0,
    0,
    0,
    0,
    0,
    0,
    0,
    0,
    0,
    259,
    0,
    0,
    0,
    0,
    0,
    0,
    0,
    0,
    0,
    0,
    0,
    0,
    0,
    0,
    0,
    0,
    0,
    0,
    0,
    0,
    0,
    0,
    0,
    0,
    0,
    0,
    0,
    0,
    0,
    0,
    0,
    0,
    0,
    0,
    0,
    0,
    0,
    0,
    0,
    0,
    0,
    0,
    0,
    0,
    0,
    0,
    0,
    0,
    0,
    0,
    0,
    0,
    0,
    0,
    0,
    0,
    0,
    0,
    0,
    0,
    0,
    0,
    0,
    0,
    0,
    0,
    0,
    0,
    0,
    0,
    0,
    0,
    0,
    0,
    0,
    0,
    0,
    0,
    0,
    0,
    0,
    0,
    0,
    0,
    0,
    0,
    195,
    0,
    0,
    0,
    0,
    0,
    0,
    0,
    0,
    0,
    0,
    0,
    0,
    0,
    0,
    0,
    0,
    0,
    0,
    0,
    0,
    0,
    0,
    0,
    0,
    0,
    0,
    0,
    0,
    0,
    0,
    0,
    0,
    0,
    0,
    0,
    0,
    0,
    0,
    0,
    0,
    0,
    0,
    0,
    0,
    0,
    0,
    0,
    0,
    0,
    0,
    0,
    0,
    0,
    0,
    0,
    0,
    0,
    0,
    0,
    0,
    0,
    0,
    0,
    0,
    0,
    0,
    0,
    0,
    0,
    0,
    0,
    0,
    0,
    0,
    0,
    0,
    0,
    0,
    0,
    0,
    0,
    0,
    0,
    0,
    0,
    196,
    0,
    0,
    0,
    0,
    0,
    0,
    0,
    0,
    0,
    0,
    0,
    0,
    0,
    0,
    0,
    0,
    0,
    0,
    0,
    0,
    0,
    0,
    0,
    0,
    0,
    0,
    0,
    0,
    0,
    0,
    0,
    0,
    0,
    0,
    0,
    0,
    0,
    0,
    0,
    0,
    0,
    0,
    0,
    0,
    0,
    0,
    0,
    0,
    0,
    0,
    0,
    0,
    0,
    0,
    0,
    0,
    0,
    0,
    0,
    0,
    0,
    0,
    0,
    0,
    0,
    0,
    0,
    0,
    0,
    0,
    0,
    0,
    0,
    0,
    0,
    0,
    0,
    0,
    0,
    0,
    0,
    0,
    0,
    0,
    0,
    0,
    0,
    0,
    0,
    0,
    0,
    0,
    0,
    0,
    0,
    0,
    0,
    0,
    0,
    0,
    0,
    0,
    0,
    0,
    0,
    0,
    0,
    0,
    0,
    0,
    0,
    0,
    0,
    0,
    0,
    0,
    0,
    0,
    0,
    0,
    0,
    0,
    0,
    0,
    0,
    0,
    0,
    0,
    0,
    0,
    0,
    0,
    0,
    0,
    0,
    0,
    0,
    0,
    0,
    0,
    0,
    0,
    0,
    0,
    0,
    0,
    0,
    0,
    0,
    0,
    0,
    0,
    0,
    0,
    0,
    0,
    0,
    0,
    0,
    0,
    0,
    0,
    0,
    0,
    0,
    0,
    0,
    0,
    0,
    0,
    0,
    0,
    0,
    0,
    0,
    0,
    0,
    0,
    0,
    0,
    0,
    0,
    0,
    0,
    0,
    0,
    0,
    0,
    0,
    0,
    0,
    0,
    0,
    0,
    0,
    0,
    0,
    0,
    0,
    0,
    0,
    0,
    0,
    0,
    0,
    0,
    0,
    0,
    0,
    0,
    0,
    0,
    0,
    0,
    258,
    0,
    0,
    0,
    0,
    0,
    0,
    0,
    0,
    0,
    0,
    0,
    0,
    0,
    0,
    0,
    0,
    0,
    0,
    0,
    0,
    0,
    0,
    0,
    0,
    0,
    0,
    0,
    0,
    0,
    0,
    0,
    0,
    0,
    0,
    0,
    0,
    0,
    0,
    0,
    0,
    0,
    0,
    0,
    0,
    0,
    0,
    0,
    0,
    0,
    0,
    0,
    0,
    0,
    0,
    0,
    0,
    0,
    0,
    0,
    0,
    0,
    0,
    0,
    0,
    0,
    0,
    0,
    0,
    0,
    0,
    0,
    0,
    0,
    0,
    0,
    0,
    0,
    0,
    0,
    0,
    0,
    258,
    0,
    0,
    0,
    0,
    0,
    0,
    0,
    0,
    0,
    0,
    0,
    0,
    0,
    0,
    0,
    0,
    0,
    0,
    0,
    0,
    0,
    0,
    0,
    0,
    0,
    0,
    0,
    0,
    0,
    0,
    0,
    0,
    0,
    0,
    0,
    0,
    0,
    0,
    0,
    0,
    0,
    0,
    0,
    0,
    0,
    0,
    0,
    0,
    0,
    0,
    0,
    0,
    0,
    0,
    0,
    0,
    0,
    0,
    0,
    0,
    0,
    0,
    0,
    0,
    0,
    0,
    0,
    0,
    0,
    0,
    0,
    0,
    0,
    0,
    0,
    0,
    0,
    0,
    0,
    0,
    0,
    0,
    0,
    0,
    0,
    0,
    0,
    0,
    0,
    0,
    0,
    0,
    0,
    0,
    0,
    0,
    0,
    0,
    0,
    0,
    0,
    0,
    0,
    0,
    0,
    0,
    0,
    0,
    0,
    0,
    0,
    0,
    0,
    0,
    0,
    0,
    0,
    227,
    0,
    0,
    0,
    0,
    0,
    0,
    0,
    196,
    0,
    0,
    0,
    0,
    0,
    0,
    0,
    0,
    0,
    0,
    0,
    0,
    0,
    0,
    0,
    0,
    0,
    0,
    0,
    0,
    0,
    0,
    0,
    0,
    0,
    0,
    0,
    0,
    0,
    0,
    0,
    0,
    0,
    0,
    0,
    0,
    0,
    0,
    0,
    0,
    0,
    0,
    0,
    0,
    0,
    0,
    0,
    0,
    0,
    0,
    0,
    0,
    0,
    0,
    0,
    0,
    0,
    0,
    0,
    0,
    0,
    0,
    0,
    0,
    0,
    0,
    0,
    0,
    0,
    0,
    0,
    0,
    0,
    0,
    0,
    0,
    0,
    0,
    0,
    0,
    0,
    0,
    0,
    0,
    0,
    0,
    0,
    0,
    0,
    0,
    0,
    0,
    0,
    0,
    0,
    0,
    0,
    0,
    0,
    0,
    227,
    0,
    0,
    0,
    0,
    0,
    226,
    0,
    0,
    0,
    0,
    0,
    0,
    0,
    0,
    0,
    0,
    0,
    0,
    0,
    258,
    0,
    0,
    0,
    0,
    0,
    0,
    0,
    0,
    0,
    0,
    0,
    0,
    0,
    0,
    0,
    0,
    0,
    0,
    0,
    0,
    0,
    0,
    0,
    0,
    0,
    0,
    0,
    0,
    0,
    226,
    0,
    0,
    0,
    0,
    0,
    0,
    0,
    0,
    0,
    0,
    0,
    0,
    0,
    0,
    0,
    0,
    0,
    0,
    0,
    0,
    196,
    0,
    0,
    0,
    0,
    0,
    0,
    0,
    0,
    0,
    0,
    0,
    0,
    0,
    0,
    0,
    0,
    0,
    0,
    0,
    0,
    0,
    258,
    0,
    0,
    0,
    0,
    0,
    0,
    0,
    0,
    0,
    0,
    0,
    0,
    0,
    0,
    0,
    0,
    0,
    0,
    0,
    0,
    0,
    0,
    0,
    0,
    0,
    0,
    0,
    0,
    0,
    0,
    0,
    0,
    0,
    0,
    0,
    0,
    0,
    0,
    0,
    0,
    0,
    0,
    0,
    0,
    0,
    0,
    0,
    0,
    0,
    0,
    0,
    0,
    0,
    0,
    258,
    0,
    0,
    0,
    0,
    0,
    0,
    0,
    0,
    0,
    0,
    0,
    0,
    0,
    0,
    0,
    0,
    0,
    0,
    0,
    0,
    0,
    0,
    0,
    0,
    0,
    0,
    0,
    0,
    0,
    0,
    0,
    0,
    0,
    0,
    0,
    0,
    0,
    0,
    0,
    0,
    0,
    0,
    0,
    0,
    0,
    0,
    0,
    0,
    0,
    0,
    0,
    0,
    0,
    0,
    0,
    0,
    0,
    0,
    0,
    0,
    0,
    0,
    0,
    0,
    0,
    0,
    0,
    0,
    0,
    0,
    0,
    0,
    0,
    0,
    0,
    0,
    0,
    0,
    0,
    0,
    0,
    0,
    0,
    0,
    0,
    0,
    0,
    0,
    0,
    0,
    0,
    0,
    0,
    0,
    0,
    0,
    0,
    0,
    0,
    0,
    0,
    0,
    0,
    0,
    0,
    0,
    0,
    0,
    0,
    0,
    0,
    0,
    0,
    0,
    0,
    0,
    0,
    0,
    0,
    0,
    0,
    0,
    0,
    259,
    0,
    0,
    0,
    0,
    0,
    0,
    0,
    0,
    0,
    0,
    0,
    0,
    0,
    0,
    0,
    0,
    0,
    0,
    0,
    0,
    0,
    0,
    0,
    0,
    0,
    0,
    0,
    0,
    0,
    0,
    0,
    0,
    0,
    0,
    0,
    0,
    0,
    0,
    0,
    0,
    0,
    0,
    0,
    0,
    0,
    0,
    0,
    0,
    0,
    0,
    0,
    0,
    0,
    0,
    0,
    0,
    0,
    0,
    0,
    0,
    0,
    196,
    0,
    0,
    0,
    0,
    0,
    0,
    0,
    0,
    0,
    0,
    0,
    0,
    0,
    0,
    0,
    0,
    0,
    0,
    0,
    0,
    0,
    0,
    0,
    0,
    0,
    0,
    0,
    0,
    0,
    0,
    0,
    0,
    0,
    0,
    0,
    0,
    0,
    0,
    0,
    0,
    0,
    0,
    0,
    0,
    0,
    0,
    0,
    0,
    0,
    0,
    0,
    0,
    0,
    0,
    0,
    0,
    0,
    0,
    0,
    0,
    0,
    0,
    0,
    0,
    0,
    0,
    0,
    0,
    0,
    0,
    0,
    0,
    0,
    0,
    0,
    0,
    0,
    0,
    0,
    0,
    0,
    0,
    0,
    0,
    0,
    0,
    0,
    0,
    0,
    0,
    0,
    0,
    0,
    0,
    0,
    0,
    0,
    0,
    0,
    0,
    0,
    0,
    0,
    0,
    0,
    0,
    0,
    0,
    0,
    0,
    0,
    0,
    0,
    0,
    0,
    0,
    0,
    0,
    0,
    0,
    0,
    0,
    0,
    0,
    0,
    0,
    0,
    0,
    0,
    0,
    0,
    0,
    0,
    0,
    0,
    0,
    0,
    0,
    0,
    0,
    0,
    0,
    0,
    0,
    0,
    0,
    0,
    0,
    0,
    0,
    0,
    0,
    0,
    0,
    0,
    0,
    0,
    0,
    0,
    0,
    0,
    0,
    0,
    0,
    258,
    0,
    0,
    0,
    0,
    0,
    0,
    0,
    0,
    0,
    0,
    0,
    0,
    0,
    0,
    0,
    0,
    0,
    0,
    0,
    0,
    0,
    0,
    0,
    0,
    0,
    0,
    0,
    0,
    0,
    0,
    0,
    0,
    0,
    0,
    0,
    0,
    0,
    0,
    0,
    0,
    0,
    0,
    0,
    0,
    0,
    0,
    0,
    0,
    0,
    0,
    0,
    0,
    0,
    197,
    290,
    0,
    0,
    0,
    0,
    0,
    0,
    0,
    0,
    0,
    0,
    0,
    0,
    0,
    0,
    0,
    0,
    0,
    0,
    0,
    0,
    0,
    0,
    0,
    0,
    0,
    0,
    0,
    0,
    0,
    0,
    0,
    0,
    0,
    0,
    0,
    0,
    0,
    258,
    0,
    0,
    0,
    0,
    0,
    0,
    0,
    0,
    0,
    0,
    0,
    0,
    0,
    0,
    0,
    0,
    0,
    0,
    0,
    0,
    0,
    0,
    0,
    0,
    0,
    0,
    0,
    0,
    0,
    0,
    0,
    0,
    0,
    0,
    0,
    0,
    0,
    0,
    0,
    0,
    0,
    0,
    0,
    0,
    0,
    0,
    0,
    0,
    0,
    0,
    0,
    0,
    0,
    0,
    0,
    0,
    0,
    0,
    0,
    0,
    0,
    0,
    0,
    0,
    0,
    0,
    0,
    0,
    0,
    0,
    0,
    0,
    0,
    0,
    0,
    0,
    0,
    0,
    0,
    0,
    0,
    0,
    0,
    0,
    0,
    0,
    0,
    0,
    0,
    0,
    0,
    0,
    0,
    0,
    0,
    0,
    0,
    0,
    0,
    0,
    0,
    0,
    0,
    0,
    0,
    0,
    0,
    0,
    0,
    0,
    0,
    0,
    0,
    0,
    0,
    0,
    0,
    0,
    0,
    0,
    0,
    0,
    0,
    0,
    0,
    0,
    0,
    0,
    0,
    0,
    0,
    0,
    0,
    0,
    258,
    0,
    0,
    0,
    0,
    0,
    0,
    0,
    0,
    0,
    0,
    0,
    0,
    0,
    0,
    0,
    0,
    0,
    0,
    0,
    0,
    0,
    0,
    0,
    0,
    0,
    0,
    0,
    0,
    0,
    0,
    0,
    0,
    0,
    0,
    0,
    0,
    0,
    0,
    0,
    0,
    0,
    0,
    0,
    0,
    0,
    0,
    0,
    0,
    0,
    0,
    0,
    0,
    0,
    0,
    0,
    0,
    0,
    0,
    0,
    0,
    0,
    0,
    0,
    0,
    0,
    0,
    0,
    0,
    0,
    0,
    0,
    0,
    0,
    0,
    0,
    0,
    0,
    0,
    0,
    0,
    0,
    0,
    0,
    0,
    0,
    0,
    0,
    0,
    0,
    0,
    0,
    0,
    0,
    0,
    0,
    0,
    0,
    0,
    0,
    0,
    0,
    0,
    0,
    0,
    0,
    0,
    0,
    0,
    0,
    0,
    0,
    0,
    0,
    0,
    0,
    0,
    0,
    0,
    0,
    0,
    0,
    0,
    0,
    0,
    0,
    0,
    0,
    0,
    0,
    0,
    0,
    0,
    0,
    0,
    0,
    0,
    0,
    0,
    0,
    0,
    0,
    0,
    0,
    0,
    0,
    0,
    0,
    0,
    0,
    0,
    0,
    0,
    0,
    0,
    0,
    0,
    0,
    0,
    0,
    0,
    0,
    0,
    0,
    0,
    0,
    0,
    0,
    0,
    0,
    0,
    0,
    0,
    0,
    0,
    0,
    0,
    0,
    0,
    0,
    0,
    0,
    0,
    0,
    0,
    0,
    0,
    0,
    0,
    0,
    0,
    0,
    0,
    0,
    0,
    0,
    0,
    0,
    0,
    0,
    0,
    0,
    0,
    0,
    0,
    0,
    0,
    0,
    0,
    0,
    0,
    0,
    0,
    0,
    0,
    0,
    0,
    0,
    0,
    0,
    0,
    0,
    0,
    0,
    0,
    0,
    0,
    0,
    0,
    0,
    0,
    0,
    0,
    0,
    0,
    0,
    0,
    0,
    0,
    0,
    227,
    0,
    0,
    0,
    0,
    0,
    0,
    0,
    0,
    0,
    0,
    0,
    0,
    0,
    0,
    0,
    0,
    0,
    0,
    0,
    0,
    0,
    0,
    0,
    0,
    0,
    0,
    0,
    0,
    0,
    0,
    0,
    0,
    0,
    0,
    0,
    0,
    0,
    0,
    0,
    0,
    0,
    0,
    0,
    0,
    0,
    0,
    0,
    0,
    0,
    0,
    0,
    0,
    0,
    0,
    0,
    0,
    0,
    0,
    0,
    0,
    0,
    0,
    0,
    0,
    0,
    0,
    0,
    0,
    0,
    0,
    0,
    0,
    0,
    0,
    0,
    0,
    0,
    0,
    0,
    0,
    0,
    0,
    0,
    0,
    0,
    0,
    0,
    0,
    0,
    0,
    0,
    0,
    0,
    0,
    0,
    0,
    0,
    0,
    0,
    0,
    0,
    0,
    0,
    0,
    0,
    0,
    0,
    0,
    0,
    0,
    0,
    0,
    0,
    0,
    0,
    0,
    0,
    0,
    0,
    0,
    0,
    0,
    0,
    0,
    0,
    0,
    0,
    0,
    0,
    0,
    0,
    0,
    0,
    0,
    0,
    0,
    0,
    0,
    0,
    0,
    0,
    0,
    0,
    0,
    0,
    0,
    0,
    0,
    0,
    0,
    0,
    0,
    0,
    0,
    0,
    0,
    0,
    0,
    0,
    0,
    0,
    0,
    0,
    0,
    0,
    0,
    0,
    0,
    0,
    0,
    0,
    0,
    0,
    0,
    0,
    0,
    0,
    0,
    0,
    0,
    0,
    0,
    0,
    0,
    0,
    0,
    0,
    0,
    0,
    0,
    0,
    0,
    0,
    0,
    0,
    0,
    0,
    0,
    0,
    0,
    0,
    0,
    0,
    0,
    0,
    0,
    0,
    0,
    0,
    0,
    0,
    0,
    0,
    0,
    0,
    0,
    0,
    0,
    0,
    0,
    0,
    0,
    0,
    0,
    0,
    0,
    0,
    0,
    0,
    0,
    0,
    0,
    0,
    0,
    0,
    0,
    226,
    0,
    0,
    0,
    0,
    0,
    227,
    0,
    0,
    0,
    0,
    0,
    0,
    0,
    0,
    0,
    0,
    0,
    0,
    0,
    0,
    0,
    0,
    195,
    0,
    0,
    0,
    0,
    0,
    0,
    0,
    0,
    0,
    195,
    0,
    0,
    0,
    0,
    0,
    0,
    0,
    0,
    0,
    0,
    0,
    0,
    0,
    0,
    0,
    0,
    0,
    0,
    0,
    0,
    0,
    0,
    0,
    0,
    0,
    0,
    0,
    0,
    0,
    0,
    0,
    0,
    0,
    0,
    0,
    226,
    0,
    0,
    0,
    0,
    0,
    0,
    0,
    0,
    0,
    0,
    0,
    0,
    0,
    0,
    258,
    0,
    0,
    0,
    0,
    0,
    0,
    0,
    0,
    0,
    0,
    0,
    0,
    0,
    0,
    0,
    0,
    0,
    0,
    0,
    0,
    0,
    0,
    0,
    0,
    0,
    0,
    0,
    0,
    0,
    0,
    0,
    0,
    0,
    0,
    0,
    0,
    0,
    0,
    0,
    0,
    0,
    0,
    0,
    0,
    0,
    0,
    0,
    0,
    0,
    0,
    0,
    0,
    0,
    0,
    0,
    0,
    0,
    0,
    0,
    0,
    0,
    0,
    0,
    0,
    0,
    0,
    0,
    0,
    0,
    0,
    0,
    0,
    0,
    0,
    0,
    0,
    0,
    0,
    0,
    0,
    0,
    0,
    0,
    0,
    0,
    0,
    0,
    0,
    0,
    0,
    0,
    0,
    0,
    0,
    0,
    0,
    0,
    0,
    0,
    0,
    0,
    0,
    0,
    0,
    0,
    0,
    0,
    0,
    0,
    0,
    0,
    0,
    0,
    0,
    0,
    0,
    0,
    0,
    0,
    0,
    0,
    0,
    0,
    0,
    0,
    0,
    0,
    0,
    0,
    0,
    0,
    0,
    0,
    0,
    0,
    0,
    0,
    0,
    0,
    0,
    0,
    0,
    0,
    0,
    0,
    0,
    0,
    0,
    0,
    0,
    0,
    0,
    0,
    0,
    0,
    0,
    0,
    0,
    0,
    0,
    0,
    0,
    0,
    0,
    0,
    0,
    0,
    0,
    0,
    0,
    0,
    0,
    0,
    0,
    0,
    0,
    0,
    0,
    0,
    0,
    0,
    0,
    0,
    0,
    0,
    0,
    0,
    0,
    0,
    0,
    0,
    0,
    0,
    0,
    0,
    0,
    0,
    0,
    0,
    0,
    0,
    0,
    0,
    0,
    0,
    0,
    0,
    0,
    0,
    0,
    0,
    0,
    0,
    0,
    0,
    0,
    0,
    0,
    0,
    0,
    0,
    0,
    0,
    0,
    0,
    0,
    0,
    0,
    0,
    0,
    0,
    0,
    0,
    0,
    0,
    0,
    0,
    0,
    0,
    0,
    0,
    0,
    0,
    0,
    0,
    0,
    0,
    0,
    0,
    0,
    0,
    0,
    0,
    0,
    0,
    0,
    0,
    0,
    0,
    0,
    0,
    0,
    0,
    0,
    0,
    0,
    0,
    0,
    0,
    0,
    0,
    0,
    0,
    0,
    0,
    0,
    0,
    0,
    0,
    0,
    0,
    0,
    0,
    0,
    0,
    0,
    0,
    0,
    0,
    0,
    0,
    0,
    0,
    0,
    0,
    0,
    0,
    0,
    0,
    0,
    0,
    0,
    0,
    0,
    0,
    0,
    0,
    0,
    0,
    0,
    0,
    0,
    0,
    0,
    0,
    0,
    0,
    0,
    0,
    0,
    0,
    0,
    0,
    0,
    0,
    0,
    0,
    0,
    0,
    0,
    0,
    0,
    0,
    0,
    0,
    0,
    0,
    0,
    0,
    0,
    0,
    0,
    0,
    0,
    0,
    0,
    0,
    0,
    0,
    0,
    0,
    0,
    0,
    0,
    0,
    0,
    0,
    0,
    0,
    0,
    0,
    0,
    0,
    0,
    0,
    0,
    0,
    0,
    0,
    0,
    0,
    0,
    0,
    0,
    0,
    0,
    0,
    0,
    0,
    0,
    0,
    0,
    0,
    0,
    0,
    0,
    0,
    0,
    0,
    0,
    0,
    196,
    0,
    0,
    0,
    0,
    0,
    0,
    0,
    0,
    0,
    0,
    0,
    0,
    0,
    0,
    0,
    0,
    0,
    0,
    0,
    0,
    0,
    0,
    0,
    0,
    0,
    0,
    226,
    0,
    196,
    0,
    0,
    0,
    0,
    0,
    0,
    0,
    0,
    0,
    0,
    0,
    0,
    0,
    0,
    0,
    0,
    0,
    0,
    0,
    0,
    0,
    0,
    0,
    0,
    0,
    0,
    0,
    0,
    0,
    0,
    0,
    0,
    0,
    0,
    0,
    0,
    0,
    0,
    0,
    0,
    0,
    0,
    0,
    0,
    0,
    0,
    0,
    0,
    0,
    0,
    0,
    0,
    0,
    0,
    0,
    0,
    0,
    0,
    0,
    0,
    0,
    0,
    0,
    0,
    0,
    0,
    0,
    0,
    0,
    0,
    0,
    0,
    0,
    0,
    0,
    0,
    0,
    0,
    0,
    0,
    0,
    0,
    0,
    0,
    0,
    0,
    0,
    0,
    0,
    0,
    0,
    0,
    0,
    0,
    0,
    0,
    0,
    0,
    0,
    0,
    0,
    0,
    0,
    0,
    0,
    0,
    0,
    0,
    0,
    0,
    0,
    0,
    0,
    0,
    0,
    0,
    0,
    0,
    0,
    0,
    0,
    0,
    227,
    0,
    0,
    0,
    0,
    0,
    0,
    0,
    0,
    0,
    0,
    0,
    0,
    0,
    0,
    0,
    0,
    0,
    0,
    0,
    0,
    0,
    0,
    0,
    0,
    0,
    0,
    0,
    0,
    0,
    0,
    0,
    0,
    0,
    0,
    0,
    0,
    0,
    0,
    0,
    0,
    258,
    0,
    0,
    0,
    0,
    0,
    0,
    0,
    227,
    0,
    0,
    0,
    0,
    0,
    0,
    0,
    0,
    0,
    0,
    0,
    0,
    0,
    0,
    0,
    0,
    0,
    0,
    0,
    0,
    0,
    0,
    0,
    0,
    0,
    0,
    0,
    0,
    0,
    0,
    0,
    0,
    0,
    0,
    0,
    0,
    0,
    0,
    0,
    0,
    0,
    0,
    0,
    0,
    0,
    0,
    0,
    0,
    0,
    0,
    0,
    0,
    0,
    0,
    0,
    0,
    0,
    0,
    0,
    0,
    0,
    0,
    0,
    0,
    0,
    0,
    0,
    0,
    0,
    0,
    0,
    0,
    0,
    0,
    0,
    0,
    0,
    0,
    0,
    0,
    0,
    0,
    0,
    0,
    0,
    0,
    0,
    0,
    0,
    0,
    0,
    0,
    0,
    259,
    0,
    0,
    0,
    0,
    0,
    0,
    0,
    0,
    0,
    0,
    0,
    0,
    0,
    0,
    0,
    0,
    0,
    0,
    0,
    0,
    0,
    0,
    0,
    0,
    0,
    0,
    0,
    0,
    0,
    0,
    197,
    0,
    196,
    0,
    0,
    0,
    0,
    0,
    0,
    0,
    0,
    0,
    0,
    0,
    0,
    0,
    0,
    0,
    0,
    0,
    0,
    0,
    0,
    0,
    0,
    0,
    0,
    0,
    0,
    0,
    0,
    0,
    0,
    0,
    0,
    0,
    0,
    0,
    0,
    0,
    0,
    0,
    0,
    0,
    0,
    0,
    0,
    0,
    0,
    0,
    0,
    0,
    0,
    0,
    0,
    0,
    0,
    0,
    0,
    0,
    0,
    0,
    0,
    0,
    0,
    0,
    0,
    0,
    0,
    0,
    0,
    0,
    0,
    0,
    0,
    0,
    0,
    0,
    0,
    0,
    0,
    0,
    0,
    0,
    0,
    0,
    0,
    0,
    0,
    0,
    0,
    0,
    0,
    0,
    0,
    0,
    0,
    0,
    0,
    0,
    0,
    0,
    0,
    0,
    0,
    0,
    0,
    0,
    0,
    0,
    0,
    0,
    0,
    0,
    0,
    0,
    0,
    0,
    0,
    0,
    0,
    0,
    0,
    0,
    0,
    0,
    0,
    0,
    0,
    0,
    0,
    0,
    0,
    0,
    0,
    0,
    0,
    0,
    0,
    0,
    0,
    0,
    0,
    0,
    0,
    0,
    0,
    0,
    0,
    0,
    0,
    0,
    0,
    0,
    0,
    0,
    258,
    0,
    0,
    0,
    0,
    0,
    0,
    0,
    0,
    0,
    0,
    0,
    0,
    0,
    0,
    0,
    0,
    0,
    0,
    0,
    0,
    0,
    0,
    0,
    226,
    0,
    0,
    0,
    0,
    0,
    0,
    0,
    0,
    0,
    0,
    0,
    0,
    0,
    0,
    0,
    0,
    0,
    0,
    0,
    0,
    0,
    0,
    0,
    0,
    0,
    0,
    0,
    0,
    0,
    0,
    0,
    0,
    0,
    0,
    0,
    0,
    0,
    0,
    0,
    0,
    0,
    0,
    0,
    0,
    0,
    0,
    0,
    0,
    0,
    0,
    0,
    0,
    0,
    0,
    0,
    0,
    0,
    0,
    0,
    0,
    0,
    0,
    0,
    0,
    0,
    0,
    0,
    0,
    0,
    0,
    0,
    0,
    0,
    0,
    0,
    0,
    0,
    0,
    0,
    0,
    0,
    0,
    0,
    0,
    0,
    0,
    0,
    0,
    0,
    0,
    0,
    0,
    0,
    0,
    0,
    0,
    0,
    0,
    0,
    0,
    0,
    0,
    0,
    0,
    0,
    0,
    0,
    0,
    0,
    0,
    0,
    0,
    0,
    0,
    0,
    0,
    0,
    0,
    0,
    0,
    0,
    0,
    0,
    0,
    0,
    0,
    0,
    0,
    0,
    0,
    0,
    0,
    0,
    0,
    0,
    0,
    0,
    0,
    0,
    0,
    0,
    0,
    0,
    0,
    0,
    0,
    0,
    0,
    0,
    0,
    0,
    0,
    0,
    0,
    0,
    0,
    0,
    0,
    0,
    0,
    0,
    0,
    0,
    0,
    0,
    0,
    0,
    0,
    0,
    0,
    0,
    0,
    0,
    0,
    0,
    0,
    0,
    0,
    0,
    0,
    0,
    0,
    0,
    0,
    0,
    0,
    0,
    0,
    0,
    0,
    0,
    0,
    0,
    0,
    0,
    0,
    0,
    0,
    0,
    0,
    0,
    0,
    0,
    0,
    0,
    0,
    0,
    0,
    0,
    0,
    0,
    0,
    0,
    0,
    0,
    0,
    0,
    0,
    0,
    0,
    0,
    0,
    0,
    0,
    0,
    0,
    0,
    0,
    0,
    0,
    0,
    0,
    0,
    0,
    0,
    0,
    0,
    0,
    0,
    0,
    0,
    0,
    0,
    0,
    0,
    0,
    0,
    0,
    0,
    0,
    0,
    0,
    0,
    0,
    0,
    0,
    0,
    0,
    0,
    0,
    0,
    0,
    0,
    0,
    0,
    0,
    0,
    0,
    0,
    0,
    0,
    0,
    0,
    0,
    0,
    0,
    0,
    0,
    0,
    0,
    0,
    0,
    0,
    0,
    0,
    0,
    0,
    0,
    0,
    0,
    0,
    195,
    0,
    0,
    0,
    0,
    0,
    0,
    0,
    0,
    0,
    0,
    0,
    0,
    0,
    0,
    0,
    0,
    0,
    0,
    0,
    0,
    0,
    0,
    0,
    0,
    0,
    0,
    0,
    0,
    0,
    0,
    0,
    0,
    0,
    0,
    0,
    0,
    0,
    0,
    0,
    0,
    0,
    0,
    0,
    0,
    0,
    0,
    0,
    0,
    0,
    0,
    0,
    0,
    0,
    0,
    0,
    0,
    0,
    0,
    0,
    0,
    0,
    0,
    0,
    0,
    0,
    0,
    0,
    0,
    0,
    0,
    0,
    0,
    0,
    0,
    0,
    0,
    0,
    0,
    0,
    0,
    0,
    0,
    0,
    0,
    0,
    0,
    0,
    0,
    0,
    0,
    0,
    0,
    0,
    0,
    0,
    0,
    0,
    0,
    0,
    0,
    0,
    0,
    0,
    0,
    0,
    0,
    0,
    0,
    0,
    0,
    0,
    0,
    0,
    0,
    0,
    0,
    0,
    0,
    0,
    0,
    0,
    0,
    0,
    0,
    0,
    0,
    0,
    0,
    0,
    0,
    0,
    0,
    0,
    0,
    0,
    0,
    0,
    0,
    0,
    0,
    0,
    290,
    0,
    0,
    0,
    0,
    0,
    0,
    0,
    0,
    0,
    0,
    0,
    0,
    0,
    0,
    0,
    0,
    0,
    0,
    0,
    0,
    0,
    0,
    0,
    0,
    0,
    0,
    0,
    0,
    0,
    0,
    0,
    0,
    0,
    0,
    0,
    0,
    0,
    0,
    0,
    0,
    0,
    0,
    0,
    0,
    0,
    0,
    0,
    0,
    0,
    0,
    0,
    0,
    0,
    0,
    0,
    0,
    0,
    0,
    0,
    0,
    0,
    0,
    0,
    0,
    0,
    0,
    0,
    0,
    0,
    0,
    0,
    0,
    0,
    0,
    0,
    0,
    0,
    0,
    0,
    0,
    0,
    0,
    0,
    0,
    0,
    0,
    0,
    0,
    0,
    0,
    0,
    0,
    0,
    0,
    0,
    0,
    0,
    0,
    0,
    0,
    0,
    0,
    0,
    0,
    0,
    0,
    0,
    0,
    0,
    0,
    0,
    0,
    0,
    0,
    0,
    0,
    0,
    0,
    0,
    0,
    0,
    0,
    0,
    0,
    0,
    0,
    0,
    0,
    0,
    0,
    0,
    0,
    0,
    0,
    0,
    0,
    0,
    0,
    0,
    0,
    0,
    0,
    0,
    0,
    0,
    0,
    0,
    0,
    0,
    0,
    0,
    0,
    0,
    0,
    0,
    0,
    0,
    0,
    0,
    0,
    0,
    0,
    0,
    0,
    0,
    0,
    0,
    0,
    0,
    0,
    0,
    0,
    0,
    0,
    0,
    0,
    0,
    0,
    0,
    0,
    0,
    0,
    0,
    0,
    0,
    0,
    0,
    0,
    0,
    0,
    0,
    0,
    0,
    0,
    0,
    0,
    0,
    0,
    0,
    0,
    0,
    0,
    0,
    0,
    0,
    0,
    0,
    0,
    0,
    0,
    0,
    0,
    0,
    0,
    0,
    0,
    0,
    0,
    0,
    0,
    0,
    0,
    0,
    0,
    0,
    0,
    0,
    0,
    0,
    0,
    0,
    0,
    0,
    0,
    0,
    0,
    0,
    0,
    0,
    0,
    0,
    0,
    0,
    0,
    0,
    0,
    0,
    0,
    0,
    0,
    0,
    0,
    0,
    0,
    0,
    0,
    0,
    0,
    0,
    0,
    0,
    0,
    0,
    0,
    0,
    0,
    0,
    0,
    0,
    0,
    0,
    0,
    0,
    0,
    0,
    0,
    0,
    0,
    0,
    0,
    0,
    0,
    0,
    0,
    0,
    0,
    0,
    0,
    0,
    0,
    0,
    0,
    0,
    0,
    0,
    0,
    0,
    0,
    0,
    0,
    0,
    0,
    0,
    0,
    0,
    0,
    0,
    0,
    0,
    0,
    0,
    0,
    0,
    0,
    0,
    0,
    0,
    0,
    0,
    0,
    0,
    0,
    0,
    0,
    0,
    0,
    0,
    0,
    0,
    0,
    0,
    0,
    0,
    0,
    0,
    0,
    0,
    0,
    0,
    0,
    0,
    0,
    0,
    0,
    0,
    0,
    0,
    0,
    0,
    0,
    0,
    0,
    0,
    0,
    0,
    0,
    0,
    0,
    0,
    0,
    0,
    0,
    0,
    0,
    0,
    0,
    0,
    0,
    0,
    0,
    0,
    0,
    0,
    0,
    0,
    0,
    0,
    0,
    0,
    0,
    0,
    0,
    0,
    0,
    0,
    0,
    0,
    0,
    0,
    0,
    0,
    0,
    0,
    0,
    0,
    0,
    0,
    0,
    0,
    0,
    0,
    0,
    0,
    0,
    0,
    0,
    0,
    0,
    0,
    0,
    0,
    0,
    0,
    0,
    0,
    0,
    0,
    0,
    0,
    0,
    0,
    0,
    0,
    0,
    0,
    0,
    0,
    0,
    0,
    0,
    0,
    0,
    0,
    0,
    0,
    0,
    0,
    0,
    0,
    0,
    0,
    0,
    0,
    0,
    0,
    0,
    0,
    0,
    0,
    0,
    0,
    0,
    0,
    0,
    0,
    0,
    0,
    0,
    0,
    0,
    196,
    0,
    195,
    0,
    290,
    0,
    0,
    0,
    0,
    0,
    0,
    0,
    290,
    0,
    0,
    0,
    0,
    0,
    0,
    0,
    0,
    0,
    0,
    0,
    0,
    0,
    0,
    0,
    0,
    0,
    0,
    0,
    0,
    0,
    0,
    0,
    0,
    0,
    0,
    0,
    0,
    0,
    0,
    0,
    0,
    0,
    0,
    0,
    0,
    0,
    0,
    0,
    0,
    0,
    0,
    0,
    0,
    0,
    0,
    0,
    0,
    0,
    0,
    0,
    0,
    0,
    0,
    0,
    0,
    0,
    0,
    0,
    0,
    0,
    0,
    0,
    0,
    0,
    0,
    0,
    0,
    0,
    0,
    0,
    0,
    0,
    0,
    0,
    0,
    0,
    0,
    0,
    0,
    0,
    0,
    0,
    0,
    0,
    0,
    0,
    0,
    0,
    0,
    0,
    0,
    0,
    0,
    0,
    0,
    0,
    0,
    0,
    0,
    0,
    0,
    0,
    0,
    0,
    0,
    0,
    0,
    0,
    0,
    0,
    0,
    0,
    0,
    0,
    0,
    0,
    0,
    0,
    0,
    0,
    0,
    0,
    0,
    0,
    0,
    226,
    0,
    0,
    0,
    0,
    0,
    0,
    0,
    0,
    0,
    0,
    0,
    0,
    0,
    0,
    0,
    0,
    0,
    0,
    0,
    0,
    0,
    0,
    0,
    0,
    0,
    0,
    0,
    0,
    0,
    0,
    0,
    0,
    0,
    0,
    0,
    0,
    0,
    0,
    0,
    0,
    0,
    0,
    0,
    0,
    0,
    0,
    0,
    0,
    0,
    0,
    0,
    0,
    0,
    0,
    0,
    0,
    0,
    0,
    0,
    0,
    0,
    0,
    0,
    0,
    0,
    0,
    0,
    0,
    0,
    0,
    0,
    0,
    0,
    0,
    0,
    0,
    0,
    0,
    0,
    0,
    0,
    0,
    0,
    0,
    0,
    0,
    0,
    0,
    0,
    0,
    0,
    0,
    0,
    0,
    0,
    0,
    0,
    0,
    0,
    0,
    0,
    0,
    0,
    0,
    0,
    0,
    0,
    0,
    0,
    0,
    0,
    0,
    0,
    0,
    0,
    0,
    0,
    0,
    0,
    0,
    0,
    0,
    0,
    0,
    0,
    0,
    0,
    0,
    0,
    0,
    0,
    0,
    0,
    0,
    0,
    0,
    0,
    0,
    0,
    0,
    0,
    0,
    0,
    0,
    0,
    0,
    0,
    0,
    0,
    0,
    0,
    0,
    0,
    0,
    0,
    0,
    0,
    0,
    0,
    0,
    197,
    258,
    0,
    0,
    0,
    0,
    0,
    0,
    0,
    0,
    0,
    0,
    0,
    0,
    0,
    0,
    0,
    0,
    0,
    0,
    0,
    0,
    0,
    0,
    0,
    0,
    0,
    0,
    0,
    0,
    0,
    0,
    0,
    0,
    0,
    0,
    0,
    0,
    0,
    0,
    0,
    0,
    0,
    0,
    0,
    0,
    0,
    0,
    0,
    0,
    0,
    0,
    0,
    0,
    0,
    0,
    0,
    0,
    0,
    0,
    0,
    0,
    0,
    0,
    0,
    0,
    0,
    0,
    0,
    0,
    0,
    0,
    0,
    0,
    0,
    0,
    0,
    0,
    0,
    0,
    0,
    0,
    0,
    0,
    0,
    0,
    0,
    0,
    0,
    0,
    0,
    0,
    0,
    0,
    0,
    0,
    0,
    0,
    0,
    0,
    0,
    0,
    0,
    0,
    0,
    0,
    0,
    0,
    0,
    0,
    0,
    0,
    0,
    0,
    0,
    0,
    0,
    0,
    0,
    0,
    0,
    0,
    0,
    0,
    0,
    0,
    290,
    0,
    0,
    0,
    0,
    0,
    0,
    0,
    0,
    0,
    0,
    0,
    0,
    0,
    0,
    0,
    0,
    0,
    0,
    0,
    0,
    0,
    0,
    0,
    0,
    0,
    196,
    0,
    0,
    0,
    0,
    0,
    0,
    0,
    0,
    0,
    0,
    0,
    0,
    0,
    0,
    0,
    0,
    0,
    227,
    0,
    0,
    0,
    0,
    0,
    0,
    0,
    0,
    0,
    0,
    0,
    0,
    0,
    0,
    0,
    0,
    0,
    0,
    0,
    0,
    0,
    0,
    0,
    0,
    0,
    0,
    0,
    0,
    0,
    0,
    0,
    0,
    0,
    0,
    0,
    0,
    0,
    0,
    0,
    0,
    0,
    0,
    0,
    0,
    0,
    0,
    0,
    0,
    0,
    0,
    0,
    0,
    0,
    0,
    0,
    0,
    0,
    0,
    0,
    0,
    0,
    0,
    0,
    0,
    0,
    0,
    0,
    0,
    0,
    0,
    0,
    0,
    0,
    0,
    0,
    0,
    0,
    0,
    0,
    0,
    0,
    0,
    0,
    0,
    0,
    0,
    0,
    0,
    0,
    0,
    0,
    0,
    0,
    0,
    0,
    0,
    0,
    0,
    0,
    0,
    0,
    0,
    0,
    0,
    0,
    0,
    0,
    0,
    0,
    0,
    0,
    0,
    0,
    0,
    0,
    0,
    0,
    0,
    0,
    0,
    0,
    0,
    0,
    0,
    0,
    0,
    0,
    0,
    0,
    0,
    0,
    0,
    0,
    0,
    0,
    0,
    0,
    0,
    0,
    0,
    0,
    0,
    0,
    0,
    0,
    0,
    0,
    0,
    0,
    0,
    0,
    0,
    0,
    0,
    0,
    0,
    0,
    0,
    0,
    0,
    0,
    0,
    0,
    0,
    0,
    0,
    0,
    0,
    0,
    0,
    0,
    0,
    0,
    0,
    0,
    0,
    0,
    0,
    0,
    0,
    0,
    0,
    0,
    0,
    0,
    0,
    0,
    0,
    0,
    0,
    0,
    0,
    0,
    0,
    0,
    0,
    0,
    0,
    0,
    0,
    0,
    0,
    0,
    0,
    0,
    0,
    0,
    0,
    0,
    0,
    0,
    0,
    0,
    0,
    0,
    0,
    0,
    0,
    0,
    0,
    0,
    0,
    0,
    0,
    0,
    0,
    0,
    0,
    0,
    0,
    0,
    0,
    0,
    0,
    0,
    0,
    0,
    0,
    0,
    0,
    0,
    0,
    0,
    0,
    0,
    0,
    0,
    0,
    0,
    0,
    0,
    0,
    0,
    0,
    0,
    0,
    0,
    0,
    0,
    0,
    0,
    0,
    0,
    0,
    0,
    0,
    0,
    0,
    0,
    0,
    0,
    0,
    0,
    0,
    0,
    0,
    0,
    0,
    0,
    0,
    0,
    0,
    0,
    0,
    0,
    0,
    0,
    0,
    0,
    0,
    0,
    0,
    0,
    0,
    0,
    0,
    0,
    0,
    0,
    0,
    0,
    0,
    0,
    0,
    0,
    0,
    0,
    0,
    0,
    0,
    0,
    0,
    0,
    0,
    0,
    0,
    0,
    0,
    0,
    0,
    0,
    0,
    0,
    0,
    0,
    0,
    0,
    0,
    0,
    0,
    0,
    0,
    0,
    0,
    0,
    0,
    0,
    0,
    0,
    0,
    0,
    0,
    0,
    0,
    0,
    0,
    0,
    0,
    0,
    0,
    0,
    0,
    0,
    0,
    0,
    0,
    0,
    0,
    0,
    0,
    0,
    0,
    0,
    0,
    0,
    0,
    0,
    0,
    0,
    0,
    0,
    0,
    0,
    0,
    0,
    0,
    0,
    0,
    0,
    0,
    0,
    0,
    0,
    0,
    0,
    0,
    0,
    0,
    0,
    0,
    0,
    0,
    0,
    0,
    0,
    0,
    0,
    0,
    0,
    0,
    0,
    0,
    0,
    0,
    0,
    0,
    0,
    0,
    0,
    0,
    0,
    0,
    0,
    0,
    0,
    0,
    0,
    0,
    0,
    0,
    0,
    0,
    0,
    0,
    0,
    0,
    0,
    0,
    0,
    0,
    0,
    0,
    0,
    0,
    0,
    0,
    0,
    0,
    0,
    0,
    0,
    0,
    0,
    0,
    0,
    0,
    0,
    0,
    0,
    0,
    0,
    0,
    0,
    0,
    0,
    0,
    0,
    0,
    0,
    0,
    0,
    0,
    0,
    0,
    0,
    0,
    0,
    0,
    0,
    0,
    0,
    0,
    0,
    0,
    0,
    0,
    0,
    0,
    0,
    0,
    0,
    0,
    0,
    0,
    0,
    0,
    0,
    0,
    0,
    0,
    0,
    0,
    0,
    0,
    0,
    0,
    0,
    0,
    0,
    0,
    0,
    0,
    0,
    0,
    0,
    0,
    0,
    0,
    0,
    0,
    0,
    0,
    0,
    0,
    0,
    0,
    0,
    0,
    0,
    0,
    0,
    0,
    0,
    0,
    0,
    0,
    0,
    0,
    0,
    0,
    0,
    0,
    0,
    0,
    0,
    0,
    0,
    0,
    0,
    0,
    0,
    0,
    0,
    0,
    0,
    0,
    0,
    0,
    0,
    0,
    0,
    0,
    0,
    0,
    0,
    0,
    0,
    0,
    0,
    0,
    0,
    0,
    0,
    0,
    0,
    0,
    0,
    0,
    0,
    0,
    0,
    0,
    0,
    0,
    0,
    0,
    0,
    0,
    0,
    0,
    0,
    0,
    0,
    0,
    0,
    0,
    0,
    0,
    0,
    258,
    0,
    0,
    0,
    0,
    0,
    0,
    0,
    0,
    0,
    0,
    0,
    0,
    0,
    0,
    0,
    0,
    0,
    0,
    0,
    0,
    0,
    0,
    0,
    0,
    0,
    0,
    0,
    0,
    0,
    0,
    0,
    0,
    0,
    0,
    0,
    0,
    0,
    0,
    0,
    0,
    0,
    0,
    0,
    0,
    0,
    0,
    0,
    0,
    0,
    0,
    0,
    0,
    0,
    0,
    0,
    0,
    0,
    0,
    0,
    0,
    0,
    0,
    0,
    0,
    0,
    0,
    0,
    0,
    0,
    0,
    0,
    0,
    0,
    0,
    0,
    0,
    0,
    0,
    0,
    0,
    0,
    0,
    0,
    0,
    0,
    0,
    0,
    0,
    0,
    0,
    0,
    0,
    0,
    0,
    0,
    0,
    0,
    0,
    0,
    0,
    0,
    0,
    0,
    0,
    0,
    0,
    0,
    0,
    0,
    0,
    0,
    0,
    0,
    0,
    0,
    0,
    0,
    0,
    0,
    0,
    0,
    0,
    0,
    0,
    0,
    0,
    0,
    0,
    0,
    0,
    0,
    0,
    0,
    0,
    0,
    0,
    0,
    0,
    0,
    0,
    0,
    0,
    0,
    0,
    0,
    0,
    0,
    0,
    0,
    0,
    0,
    0,
    0,
    0,
    0,
    0,
    0,
    0,
    0,
    0,
    0,
    0,
    0,
    0,
    0,
    0,
    0,
    0,
    0,
    0,
    0,
    0,
    0,
    0,
    0,
    0,
    0,
    0,
    0,
    0,
    0,
    0,
    0,
    0,
    0,
    0,
    0,
    0,
    0,
    0,
    0,
    0,
    0,
    0,
    0,
    0,
    0,
    0,
    0,
    0,
    0,
    0,
    0,
    0,
    0,
    0,
    0,
    0,
    0,
    0,
    0,
    0,
    0,
    0,
    0,
    0,
    0,
    0,
    0,
    0,
    0,
    0,
    0,
    0,
    0,
    0,
    0,
    0,
    0,
    0,
    0,
    0,
    0,
    0,
    0,
    0,
    0,
    0,
    0,
    0,
    0,
    0,
    0,
    0,
    0,
    0,
    0,
    0,
    0,
    0,
    0,
    0,
    0,
    0,
    0,
    0,
    0,
    0,
    0,
    0,
    0,
    0,
    0,
    0,
    0,
    0,
    0,
    0,
    0,
    0,
    0,
    0,
    0,
    0,
    0,
    0,
    0,
    0,
    0,
    0,
    0,
    0,
    0,
    0,
    0,
    0,
    0,
    0,
    0,
    0,
    0,
    0,
    0,
    0,
    0,
    0,
    0,
    0,
    0,
    0,
    0,
    0,
    0,
    0,
    0,
    0,
    0,
    258,
    0,
    0,
    0,
    0,
    0,
    0,
    0,
    0,
    0,
    0,
    0,
    0,
    0,
    0,
    0,
    0,
    0,
    0,
    0,
    0,
    0,
    0,
    0,
    0,
    0,
    0,
    0,
    0,
    0,
    0,
    0,
    0,
    0,
    0,
    0,
    0,
    0,
    0,
    0,
    0,
    0,
    0,
    0,
    0,
    0,
    0,
    0,
    0,
    0,
    0,
    0,
    0,
    0,
    0,
    0,
    0,
    0,
    0,
    0,
    0,
    0,
    0,
    0,
    0,
    0,
    0,
    0,
    0,
    0,
    0,
    0,
    0,
    0,
    0,
    0,
    0,
    0,
    0,
    0,
    0,
    0,
    0,
    0,
    0,
    0,
    0,
    0,
    0,
    0,
    0,
    0,
    0,
    0,
    0,
    0,
    0,
    0,
    0,
    0,
    0,
    0,
    0,
    0,
    0,
    0,
    0,
    0,
    0,
    0,
    0,
    0,
    0,
    0,
    0,
    0,
    0,
    0,
    0,
    0,
    0,
    0,
    0,
    0,
    0,
    0,
    0,
    0,
    0,
    0,
    0,
    196,
    0,
    0,
    0,
    0,
    0,
    0,
    0,
    0,
    0,
    0,
    0,
    0,
    0,
    0,
    0,
    0,
    0,
    0,
    0,
    0,
    0,
    0,
    0,
    0,
    0,
    0,
    0,
    0,
    0,
    0,
    0,
    0,
    0,
    0,
    0,
    0,
    0,
    0,
    0,
    0,
    0,
    0,
    0,
    0,
    0,
    0,
    0,
    0,
    0,
    0,
    0,
    0,
    39406,
    39407,
    0,
    0,
    0,
    0,
    0,
    39406,
    39407,
    0,
    0,
    0,
    0,
    0,
    0,
    0,
    0,
    0,
    0,
    0,
    0,
    0,
    0,
    0,
    0,
    0,
    0,
    0,
    0,
    0,
    0,
    0,
    0,
    0,
    0,
    0,
    0,
    0,
    0,
    0,
    0,
    0,
    0,
    0,
    0,
    0,
    0,
    0,
    0,
    0,
    0,
    0,
    0,
    0,
    0,
    0,
    0,
    0,
    0,
    0,
    0,
    0,
    0,
    0,
    0,
    0,
    0,
    0,
    0,
    0,
    0,
    0,
    0,
    0,
    0,
    0,
    0,
    0,
    0,
    0,
    0,
    0,
    0,
    0,
    0,
    0,
    0,
    0,
    0,
    0,
    0,
    0,
    0,
    0,
    0,
    0,
    0,
    0,
    0,
    0,
    0,
    0,
    0,
    0,
    0,
    0,
    0,
    0,
    0,
    0,
    0,
    0,
    0,
    0,
    0,
    0,
    0,
    0,
    0,
    0,
    0,
    0,
    0,
    0,
    0,
    0,
    0,
    0,
    0,
    0,
    0,
    0,
    0,
    0,
    0,
    0,
    0,
    0,
    0,
    0,
    0,
    0,
    0,
    0,
    0,
    0,
    0,
    0,
    0,
    0,
    0,
    0,
    39438,
    39439,
    0,
    0,
    0,
    0,
    0,
    39438,
    39439,
    0,
    0,
    0,
    0,
    0,
    0,
    0,
    0,
    0,
    0,
    0,
    0,
    0,
    0,
    0,
    0,
    0,
    0,
    0,
    0,
    0,
    0,
    0,
    0,
    0,
    0,
    0,
    0,
    0,
    0,
    0,
    0,
    0,
    0,
    0,
    0,
    0,
    0,
    0,
    0,
    0,
    0,
    0,
    0,
    0,
    0,
    0,
    0,
    0,
    0,
    0,
    0,
    0,
    0,
    0,
    0,
    0,
    0,
    0,
    0,
    0,
    0,
    0,
    0,
    0,
    0,
    0,
    0,
    0,
    0,
    0,
    0,
    0,
    0,
    0,
    0,
    0,
    0,
    0,
    0,
    0,
    0,
    0,
    0,
    0,
    0,
    0,
    0,
    0,
    0,
    0,
    0,
    0,
    0,
    0,
    0,
    0,
    0,
    0,
    0,
    0,
    0,
    0,
    0,
    0,
    0,
    0,
    0,
    0,
    0,
    0,
    0,
    0,
    0,
    0,
    0,
    0,
    0,
    0,
    0,
    0,
    0,
    0,
    0,
    0,
    0,
    0,
    0,
    0,
    0,
    0,
    0,
    0,
    0,
    0,
    0,
    0,
    0,
    0,
    0,
    0,
    0,
    0,
    39470,
    39471,
    0,
    0,
    0,
    0,
    0,
    39470,
    39471,
    0,
    0,
    0,
    0,
    0,
    0,
    0,
    0,
    0,
    0,
    0,
    0,
    0,
    0,
    0,
    0,
    0,
    0,
    0,
    0,
    0,
    0,
    0,
    0,
    0,
    0,
    0,
    0,
    0,
    0,
    0,
    0,
    0,
    0,
    0,
    0,
    0,
    0,
    0,
    0,
    0,
    0,
    0,
    0,
    0,
    0,
    0,
    0,
    0,
    0,
    0,
    0,
    0,
    0,
    0,
    0,
    0,
    0,
    0,
    0,
    0,
    0,
    0,
    0,
    0,
    0,
    0,
    0,
    0,
    0,
    0,
    0,
    0,
    0,
    0,
    0,
    0,
    0,
    0,
    0,
    0,
    0,
    0,
    0,
    0,
    0,
    0,
    0,
    0,
    0,
    0,
    0,
    0,
    0,
    0,
    0,
    0,
    0,
    0,
    0,
    0,
    0,
    0,
    0,
    0,
    0,
    0,
    0,
    0,
    0,
    0,
    0,
    0,
    0,
    0,
    0,
    0,
    0,
    0,
    0,
    0,
    0,
    0,
    0,
    0,
    0,
    0,
    0,
    0,
    0,
    0,
    0,
    0,
    0,
    0,
    0,
    0,
    0,
    0,
    0,
    0,
    0,
    0,
    0,
    0,
    0,
    0,
    0,
    0,
    0,
    0,
    0,
    0,
    0,
    0,
    0,
    0,
    0,
    0,
    0,
    0,
    0,
    0,
    0,
    0,
    0,
    0,
    0,
    0,
    0,
    0,
    0,
    0,
    0,
    0,
    0,
    0,
    0,
    0,
    0,
    0,
    0,
    0,
    0,
    0,
    0,
    0,
    0,
    0,
    0,
    0,
    0,
    0,
    0,
    0,
    0,
    0,
    0,
    0,
    0,
    0,
    0,
    0,
    0,
    0,
    0,
    0,
    0,
    0,
    0,
    0,
    0,
    0,
    0,
    0,
    0,
    0,
    0,
    0,
    0,
    0,
    0,
    0,
    0,
    0,
    0,
    0,
    0,
    0,
    0,
    0,
    0,
    0,
    0,
    0,
    0,
    0,
    0,
    0,
    0,
    0,
    0,
    0,
    0,
    0,
    0,
    0,
    0,
    0,
    0,
    0,
    0,
    0,
    0,
    0,
    0,
    0,
    0,
    0,
    0,
    0,
    0,
    0,
    0,
    0,
    0,
    0,
    0,
    0,
    0,
    0,
    0,
    0,
    0,
    0,
    0,
    0,
    0,
    0,
    0,
    0,
    0,
    0,
    0,
    0,
    0,
    0,
    0,
    0,
    0,
    0,
    0,
    0,
    0,
    0,
    0,
    0,
    0,
    0,
    0,
    0,
    0,
    0,
    0,
    0,
    0,
    0,
    0,
    0,
    0,
    0,
    0,
    0,
    0,
    0,
    0,
    0,
    0,
    0,
    0,
    0,
    0,
    0,
    0,
    0,
    0,
    0,
    0,
    0,
    0,
    0,
    0,
    0,
    0,
    0,
    0,
    0,
    0,
    0,
    0,
    0,
    0,
    0,
    0,
    0,
    0,
    0,
    0,
    0,
    0,
    0,
    0,
    0,
    0,
    0,
    0,
    0,
    0,
    0,
    0,
    0,
    0,
    0,
    0,
    0,
    0,
    0,
    0,
    0,
    0,
    0,
    0,
    0,
    0,
    0,
    0,
    0,
    0,
    0,
    0,
    0,
    0,
    226,
    0,
    0,
    0,
    0,
    0,
    259,
    0,
    0,
    0,
    0,
    0,
    0,
    0,
    0,
    0,
    0,
    0,
    0,
    0,
    0,
    0,
    0,
    0,
    0,
    0,
    0,
    0,
    0,
    0,
    0,
    0,
    0,
    0,
    0,
    0,
    0,
    0,
    0,
    0,
    0,
    0,
    0,
    0,
    0,
    0,
    0,
    0,
    0,
    0,
    0,
    0,
    0,
    0,
    0,
    0,
    0,
    0,
    0,
    0,
    0,
    0,
    0,
    0,
    0,
    0,
    0,
    0,
    0,
    0,
    0,
    0,
    0,
    0,
    0,
    0,
    0,
    0,
    0,
    0,
    0,
    0,
    0,
    0,
    0,
    0,
    0,
    0,
    0,
    0,
    0,
    0,
    0,
    0,
    0,
    0,
    0,
    0,
    0,
    0,
    0,
    0,
    0,
    0,
    0,
    0,
    0,
    0,
    0,
    0,
    0,
    0,
    0,
    0,
    0,
    0,
    0,
    0,
    0,
    0,
    0,
    0,
    0,
    0,
    0,
    0,
    0,
    0,
    0,
    0,
    0,
    0,
    0,
    0,
    0,
    0,
    0,
    0,
    0,
    0,
    0,
    0,
    0,
    0,
    0,
    0,
    0,
    0,
    0,
    0,
    0,
    0,
    0,
    0,
    0,
    0,
    0,
    0,
    0,
    0,
    0,
    0,
    0,
    0,
    0,
    0,
    0,
    0,
    0,
    0,
    0,
    0,
    0,
    0,
    0,
    0,
    0,
    0,
    0,
    0,
    0,
    0,
    0,
    0,
    0,
    0,
    0,
    0,
    0,
    0,
    0,
    0,
    0,
    0,
    0,
    0,
    0,
    0,
    0,
    0,
    0,
    0,
    0,
    0,
    0,
    0,
    0,
    0,
    0,
    0,
    0,
    0,
    0,
    0,
    0,
    0,
    0,
    0,
    0,
    0,
    0,
    0,
    0,
    0,
    0,
    0,
    0,
    0,
    0,
    0,
    0,
    0,
    0,
    0,
    0,
    0,
    0,
    0,
    0,
    0,
    0,
    0,
    0,
    0,
    0,
    0,
    0,
    0,
    0,
    0,
    0,
    0,
    0,
    0,
    0,
    0,
    0,
    0,
    0,
    0,
    0,
    0,
    0,
    0,
    0,
    0,
    0,
    0,
    0,
    0,
    0,
    0,
    0,
    0,
    0,
    0,
    0,
    0,
    0,
    0,
    0,
    0,
    0,
    0,
    0,
    0,
    0,
    0,
    0,
    0,
    0,
    0,
    0,
    0,
    0,
    0,
    0,
    0,
    0,
    0,
    0,
    0,
    0,
    0,
    0,
    0,
    0,
    0,
    0,
    0,
    0,
    0,
    0,
    290,
    0,
    0,
    0,
    0,
    0,
    0,
    0,
    0,
    0,
    0,
    0,
    0,
    0,
    0,
    0,
    0,
    0,
    0,
    0,
    0,
    0,
    0,
    0,
    0,
    0,
    0,
    0,
    0,
    0,
    0,
    0,
    0,
    0,
    0,
    0,
    0,
    0,
    0,
    0,
    0,
    0,
    0,
    0,
    0,
    0,
    0,
    0,
    0,
    0,
    0,
    0,
    0,
    0,
    0,
    0,
    0,
    0,
    0,
    0,
    0,
    0,
    0,
    0,
    0,
    0,
    0,
    0,
    0,
    0,
    0,
    0,
    0,
    0,
    0,
    0,
    0,
    0,
    0,
    0,
    0,
    0,
    0,
    0,
    0,
    0,
    0,
    0,
    0,
    0,
    0,
    0,
    0,
    0,
    0,
    0,
    0,
    0,
    0,
    0,
    0,
    0,
    0,
    0,
    0,
    0,
    0,
    0,
    0,
    0,
    0,
    0,
    0,
    0,
    0,
    0,
    0,
    0,
    0,
    0,
    0,
    0,
    0,
    0,
    0,
    0,
    0,
    0,
    0,
    0,
    0,
    0,
    0,
    0,
    0,
    0,
    0,
    0,
    0,
    0,
    0,
    0,
    0,
    0,
    0,
    0,
    0,
    0,
    0,
    0,
    0,
    0,
    0,
    0,
    0,
    0,
    0,
    0,
    0,
    0,
    0,
    0,
    0,
    0,
    0,
    0,
    0,
    0,
    0,
    259,
    0,
    0,
    0,
    0,
    0,
    0,
    0,
    0,
    0,
    0,
    0,
    0,
    0,
    0,
    0,
    0,
    0,
    0,
    0,
    0,
    0,
    0,
    0,
    0,
    0,
    0,
    0,
    0,
    0,
    0,
    0,
    0,
    0,
    0,
    0,
    0,
    0,
    0,
    0,
    0,
    0,
    0,
    0,
    0,
    0,
    0,
    0,
    0,
    0,
    0,
    0,
    0,
    0,
    0,
    0,
    0,
    0,
    0,
    0,
    0,
    0,
    0,
    0,
    0,
    0,
    0,
    0,
    0,
    0,
    0,
    0,
    0,
    0,
    0,
    0,
    0,
    0,
    0,
    0,
    0,
    0,
    0,
    0,
    0,
    0,
    0,
    0,
    0,
    0,
    0,
    0,
    0,
    0,
    0,
    0,
    0,
    0,
    0,
    0,
    0,
    0,
    0,
    0,
    0,
    0,
    0,
    0,
    0,
    0,
    0,
    0,
    0,
    0,
    0,
    0,
    0,
    0,
    0,
    0,
    0,
    0,
    0,
    0,
    0,
    0,
    0,
    0,
    0,
    0,
    0,
    0,
    0,
    0,
    0,
    0,
    0,
    0,
    0,
    0,
    0,
    0,
    0,
    0,
    0,
    0,
    0,
    0,
    0,
    0,
    0,
    0,
    0,
    0,
    0,
    0,
    0,
    0,
    0,
    0,
    0,
    0,
    0,
    0,
    0,
    0,
    0,
    0,
    0,
    0,
    0,
    0,
    0,
    0,
    0,
    0,
    0,
    0,
    0,
    0,
    0,
    0,
    0,
    0,
    0,
    0,
    0,
    0,
    0,
    0,
    0,
    0,
    0,
    0,
    0,
    0,
    0,
    0,
    0,
    0,
    0,
    0,
    0,
    0,
    0,
    0,
    0,
    0,
    0,
    0,
    0,
    0,
    0,
    0,
    0,
    0,
    0,
    0,
    0,
    0,
    0,
    0,
    0,
    0,
    0,
    0,
    0,
    0,
    0,
    0,
    0,
    0,
    0,
    0,
    0,
    0,
    0,
    0,
    0,
    0,
    0,
    0,
    0,
    0,
    0,
    0,
    0,
    0,
    0,
    0,
    0,
    0,
    0,
    0,
    0,
    0,
    0,
    0,
    0,
    0,
    0,
    0,
    0,
    0,
    0,
    0,
    0,
    0,
    0,
    0,
    0,
    0,
    0,
    0,
    0,
    0,
    0,
    0,
    0,
    0,
    0,
    0,
    0,
    0,
    0,
    0,
    0,
    0,
    0,
    0,
    0,
    0,
    0,
    0,
    0,
    0,
    0,
    0,
    0,
    0,
    0,
    0,
    0,
    0,
    0,
    0,
    0,
    0,
    0,
    0,
    0,
    0,
    0,
    0,
    0,
    0,
    0,
    0,
    0,
    0,
    0,
    0,
    0,
    0,
    0,
    0,
    0,
    0,
    0,
    0,
    0,
    0,
    0,
    0,
    0,
    0,
    0,
    0,
    0,
    0,
    0,
    0,
    0,
    0,
    0,
    0,
    0,
    0,
    0,
    0,
    0,
    0,
    0,
    0,
    0,
    0,
    0,
    0,
    0,
    0,
    0,
    0,
    0,
    0,
    0,
    0,
    0,
    0,
    0,
    0,
    0,
    0,
    0,
    0,
    0,
    0,
    0,
    0,
    0,
    0,
    0,
    0,
    0,
    0,
    0,
    0,
    0,
    0,
    0,
    0,
    0,
    0,
    0,
    0,
    0,
    0,
    0,
    0,
    0,
    0,
    0,
    0,
    0,
    0,
    0,
    0,
    0,
    0,
    0,
    0,
    0,
    0,
    0,
    0,
    0,
    0,
    0,
    0,
    0,
    0,
    0,
    0,
    0,
    0,
    0,
    0,
    0,
    0,
    0,
    0,
    0,
    0,
    0,
    0,
    258,
    0,
    0,
    0,
    0,
    0,
    0,
    0,
    0,
    0,
    0,
    0,
    0,
    0,
    0,
    0,
    0,
    0,
    0,
    0,
    0,
    0,
    0,
    0,
    0,
    0,
    0,
    0,
    0,
    0,
    0,
    0,
    0,
    0,
    0,
    0,
    0,
    0,
    0,
    0,
    0,
    0,
    0,
    0,
    0,
    0,
    0,
    0,
    0,
    0,
    0,
    0,
    0,
    0,
    0,
    0,
    0,
    0,
    0,
    0,
    0,
    0,
    0,
    0,
    0,
    0,
    0,
    0,
    0,
    0,
    0,
    0,
    0,
    0,
    0,
    0,
    0,
    0,
    0,
    0,
    0,
    0,
    0,
    0,
    0,
    0,
    0,
    0,
    0,
    0,
    0,
    0,
    0,
    0,
    0,
    0,
    0,
    0,
    0,
    0,
    0,
    0,
    0,
    0,
    0,
    0,
    0,
    0,
    0,
    0,
    0,
    0,
    0,
    0,
    0,
    0,
    0,
    0,
    0,
    0,
    0,
    0,
    0,
    0,
    0,
    0,
    0,
    0,
    0,
    0,
    0,
    0,
    0,
    0,
    0,
    0,
    0,
    0,
    0,
    0,
    0,
    0,
    0,
    0,
    0,
    0,
    0,
    0,
    0,
    0,
    0,
    0,
    0,
    0,
    0,
    0,
    0,
    0,
    0,
    0,
    0,
    0,
    0,
    259,
    0,
    0,
    0,
    0,
    0,
    0,
    0,
    0,
    0,
    0,
    0,
    0,
    0,
    0,
    0,
    0,
    0,
    0,
    0,
    0,
    0,
    0,
    0,
    0,
    0,
    0,
    0,
    0,
    0,
    0,
    0,
    0,
    0,
    0,
    0,
    0,
    0,
    0,
    0,
    0,
    0,
    0,
    0,
    0,
    0,
    0,
    0,
    0,
    0,
    0,
    0,
    0,
    0,
    39242,
    39243,
    39244,
    39245,
    39246,
    39247,
    0,
    0,
    0,
    0,
    0,
    0,
    0,
    0,
    0,
    0,
    0,
    0,
    0,
    0,
    0,
    0,
    0,
    0,
    0,
    0,
    0,
    0,
    0,
    0,
    0,
    0,
    0,
    0,
    0,
    0,
    0,
    0,
    0,
    0,
    0,
    0,
    0,
    0,
    0,
    0,
    0,
    0,
    0,
    0,
    0,
    0,
    0,
    0,
    0,
    0,
    0,
    0,
    0,
    0,
    0,
    0,
    0,
    0,
    0,
    0,
    0,
    0,
    0,
    0,
    0,
    0,
    0,
    0,
    0,
    0,
    0,
    0,
    0,
    0,
    0,
    0,
    0,
    0,
    0,
    0,
    0,
    0,
    0,
    0,
    0,
    0,
    0,
    0,
    0,
    0,
    0,
    0,
    0,
    0,
    195,
    0,
    0,
    0,
    0,
    0,
    0,
    0,
    0,
    0,
    0,
    0,
    0,
    0,
    0,
    0,
    0,
    0,
    0,
    0,
    0,
    0,
    0,
    0,
    0,
    0,
    0,
    0,
    0,
    0,
    0,
    0,
    0,
    0,
    0,
    0,
    0,
    0,
    0,
    0,
    0,
    0,
    0,
    0,
    0,
    0,
    0,
    0,
    39406,
    39407,
    0,
    0,
    39274,
    39275,
    39276,
    39277,
    39278,
    39279,
    0,
    0,
    0,
    0,
    0,
    0,
    0,
    0,
    0,
    0,
    0,
    0,
    0,
    0,
    0,
    0,
    0,
    0,
    0,
    0,
    0,
    0,
    0,
    0,
    0,
    0,
    0,
    0,
    0,
    0,
    0,
    0,
    0,
    0,
    0,
    0,
    0,
    0,
    0,
    0,
    0,
    0,
    0,
    0,
    0,
    0,
    0,
    0,
    0,
    0,
    0,
    0,
    0,
    0,
    0,
    0,
    0,
    0,
    0,
    0,
    0,
    0,
    0,
    0,
    0,
    0,
    0,
    0,
    0,
    0,
    0,
    0,
    0,
    0,
    0,
    0,
    0,
    0,
    0,
    0,
    0,
    0,
    0,
    0,
    290,
    227,
    0,
    0,
    0,
    0,
    0,
    0,
    0,
    0,
    0,
    0,
    0,
    0,
    0,
    0,
    196,
    0,
    0,
    0,
    0,
    0,
    0,
    259,
    0,
    0,
    0,
    0,
    0,
    0,
    0,
    0,
    0,
    0,
    0,
    0,
    0,
    0,
    0,
    0,
    0,
    0,
    0,
    0,
    0,
    0,
    0,
    0,
    0,
    0,
    0,
    0,
    0,
    0,
    0,
    0,
    0,
    0,
    39438,
    39439,
    0,
    0,
    39306,
    39307,
    39308,
    39309,
    39310,
    39311,
    0,
    0,
    0,
    0,
    0,
    0,
    0,
    0,
    0,
    0,
    0,
    0,
    0,
    0,
    0,
    0,
    0,
    0,
    0,
    0,
    0,
    0,
    0,
    0,
    0,
    0,
    0,
    0,
    0,
    0,
    0,
    0,
    0,
    0,
    0,
    0,
    0,
    0,
    0,
    0,
    0,
    0,
    0,
    0,
    0,
    0,
    0,
    0,
    0,
    0,
    0,
    0,
    0,
    0,
    0,
    0,
    0,
    0,
    0,
    0,
    0,
    0,
    0,
    0,
    0,
    0,
    0,
    0,
    0,
    0,
    0,
    0,
    0,
    0,
    0,
    0,
    0,
    0,
    0,
    0,
    0,
    0,
    0,
    0,
    0,
    0,
    0,
    0,
    0,
    0,
    0,
    0,
    0,
    0,
    0,
    0,
    0,
    0,
    0,
    0,
    0,
    0,
    0,
    0,
    0,
    0,
    0,
    0,
    0,
    0,
    0,
    0,
    0,
    0,
    0,
    0,
    0,
    0,
    0,
    0,
    0,
    0,
    0,
    0,
    0,
    0,
    0,
    0,
    0,
    0,
    0,
    0,
    0,
    0,
    0,
    0,
    0,
    0,
    0,
    0,
    0,
    0,
    39470,
    39471,
    0,
    0,
    39338,
    39339,
    39340,
    39341,
    39342,
    39343,
    0,
    0,
    0,
    0,
    0,
    0,
    0,
    0,
    0,
    0,
    0,
    0,
    0,
    0,
    0,
    0,
    0,
    0,
    0,
    0,
    0,
    0,
    0,
    0,
    0,
    0,
    0,
    0,
    0,
    0,
    0,
    0,
    0,
    0,
    0,
    0,
    0,
    0,
    0,
    0,
    0,
    0,
    0,
    0,
    0,
    0,
    0,
    0,
    0,
    0,
    0,
    0,
    0,
    0,
    0,
    0,
    0,
    0,
    0,
    0,
    0,
    0,
    0,
    0,
    0,
    0,
    0,
    0,
    0,
    0,
    0,
    0,
    0,
    0,
    0,
    0,
    0,
    0,
    0,
    0,
    0,
    0,
    0,
    0,
    0,
    0,
    0,
    0,
    0,
    0,
    0,
    0,
    0,
    0,
    0,
    0,
    0,
    0,
    0,
    0,
    0,
    0,
    0,
    0,
    0,
    0,
    0,
    0,
    0,
    0,
    0,
    0,
    0,
    0,
    0,
    0,
    0,
    0,
    0,
    0,
    0,
    0,
    0,
    0,
    0,
    0,
    0,
    0,
    0,
    0,
    0,
    0,
    0,
    0,
    0,
    0,
    0,
    0,
    0,
    0,
    0,
    39262,
    39263,
    39264,
    39265,
    39266,
    39263,
    39264,
    39263,
    39264,
    39265,
    39266,
    0,
    0,
    0,
    0,
    0,
    0,
    0,
    0,
    0,
    0,
    0,
    0,
    0,
    0,
    0,
    0,
    0,
    0,
    0,
    0,
    0,
    0,
    0,
    39263,
    39263,
    39263,
    39263,
    39263,
    39263,
    39263,
    39263,
    39263,
    39263,
    39263,
    39263,
    39264,
    39265,
    39266,
    39263,
    39263,
    39263,
    39263,
    39263,
    39263,
    39263,
    39263,
    39263,
    39263,
    39263,
    39264,
    39265,
    39266,
    0,
    0,
    0,
    0,
    0,
    0,
    0,
    0,
    0,
    0,
    0,
    0,
    0,
    0,
    0,
    0,
    0,
    0,
    0,
    0,
    0,
    0,
    0,
    0,
    0,
    0,
    0,
    0,
    0,
    0,
    0,
    0,
    0,
    0,
    0,
    0,
    0,
    0,
    0,
    0,
    0,
    0,
    0,
    0,
    0,
    0,
    0,
    0,
    0,
    0,
    0,
    0,
    0,
    0,
    0,
    0,
    0,
    0,
    0,
    195,
    0,
    0,
    0,
    0,
    0,
    0,
    0,
    0,
    0,
    0,
    0,
    0,
    0,
    0,
    0,
    0,
    0,
    0,
    0,
    0,
    0,
    0,
    0,
    0,
    0,
    0,
    0,
    0,
    0,
    0,
    0,
    0,
    0,
    0,
    0,
    0,
    0,
    0,
    0,
    0,
    0,
    0,
    0,
    0,
    0,
    0,
    0,
    0,
    0,
    0,
    0,
    0,
    0,
    0,
    0,
    0,
    0,
    0,
    0,
    0,
    0,
    0,
    0,
    2147522329,
    2147522328,
    2147522327,
    2147522326,
    2147522327,
    2147522326,
    2147522328,
    2147522327,
    2147522326,
    2147522327,
    2147522326,
    2147522329,
    2147522328,
    2147522327,
    2147522326,
    0,
    0,
    0,
    0,
    0,
    0,
    0,
    0,
    0,
    0,
    0,
    0,
    0,
    0,
    0,
    0,
    0,
    0,
    0,
    0,
    0,
    0,
    0,
    0,
    0,
    0,
    0,
    0,
    0,
    0,
    0,
    0,
    0,
    0,
    0,
    0,
    0,
    0,
    0,
    0,
    0,
    0,
    0,
    0,
    0,
    0,
    0,
    0,
    0,
    0,
    0,
    0,
    0,
    0,
    0,
    0,
    0,
    0,
    0,
    0,
    0,
    0,
    0,
    0,
    0,
    0,
    0,
    0,
    0,
    0,
    0,
    0,
    0,
    0,
    0,
    0,
    0,
    0,
    0,
    0,
    0,
    0,
    0,
    0,
    0,
    0,
    0,
    0,
    0,
    0,
    0,
    0,
    0,
    0,
    0,
    0,
    0,
    0,
    0,
    0,
    0,
    0,
    0,
    0,
    0,
    0,
    0,
    0,
    0,
    0,
    0,
    0,
    0,
    0,
    0,
    0,
    0,
    0,
    0,
    0,
    0,
    0,
    0,
    0,
    0,
    0,
    0,
    0,
    0,
    0,
    0,
    0,
    0,
    0,
    0,
    0,
    0,
    0,
    0,
    0,
    0,
    0,
    0,
    0,
    0,
    0,
    0,
    0,
    0,
    0,
    0,
    0,
    0,
    0,
    0,
    0,
    0,
    0,
    0,
    0,
    0,
    0,
    0,
    0,
    0,
    0,
    0,
    0,
    0,
    0,
    0,
    0,
    0,
    0,
    0,
    0,
    0,
    0,
    0,
    0,
    0,
    0,
    0,
    0,
    0,
    0,
    0,
    0,
    0,
    0,
    0,
    0,
    0,
    0,
    0,
    0,
    0,
    0,
    0,
    0,
    0,
    0,
    0,
    0,
    0,
    0,
    0,
    0,
    0,
    0,
    0,
    0,
    0,
    290,
    0,
    0,
    0,
    0,
    0,
    0,
    0,
    0,
    0,
    0,
    0,
    0,
    0,
    0,
    0,
    259,
    0,
    0,
    0,
    0,
    0,
    0,
    0,
    0,
    0,
    0,
    0,
    0,
    0,
    0,
    0,
    0,
    0,
    0,
    0,
    0,
    0,
    0,
    0,
    0,
    0,
    0,
    0,
    0,
    0,
    0,
    0,
    0,
    0,
    0,
    0,
    0,
    0,
    0,
    0,
    0,
    0,
    0,
    0,
    0,
    0,
    0,
    0,
    0,
    0,
    0,
    0,
    0,
    0,
    0,
    0,
    0,
    0,
    0,
    0,
    0,
    0,
    0,
    0,
    0,
    0,
    0,
    0,
    0,
    0,
    0,
    0,
    0,
    0,
    0,
    0,
    0,
    0,
    0,
    0,
    0,
    0,
    0,
    0,
    0,
    0,
    0,
    0,
    0,
    0,
    0,
    0,
    0,
    0,
    0,
    0,
    0,
    0,
    0,
    0,
    0,
    0,
    0,
    0,
    0,
    0,
    0,
    0,
    0,
    0,
    0,
    0,
    0,
    0,
    226,
    0,
    0,
    0,
    0,
    0,
    0,
    0,
    0,
    0,
    0,
    0,
    0,
    0,
    0,
    0,
    0,
    0,
    0,
    0,
    0,
    0,
    0,
    0,
    0,
    0,
    196,
    0,
    0,
    0,
    0,
    0,
    0,
    0,
    0,
    0,
    0,
    0,
    0,
    0,
    0,
    0,
    0,
    0,
    0,
    0,
    0,
    0,
    0,
    0,
    0,
    0,
    0,
    195,
    0,
    0,
    0,
    0,
    0,
    0,
    0,
    0,
    0,
    0,
    0,
    0,
    0,
    0,
    0,
    0,
    0,
    0,
    0,
    0,
    0,
    0,
    0,
    0,
    0,
    0,
    0,
    0,
    0,
    0,
    0,
    0,
    0,
    0,
    0,
    0,
    0,
    0,
    0,
    0,
    0,
    0,
    0,
    0,
    0,
    0,
    0,
    0,
    0,
    0,
    0,
    0,
    0,
    0,
    0,
    0,
    0,
    0,
    0,
    0,
    0,
    0,
    0,
    0,
    0,
    0,
    0,
    0,
    0,
    0,
    0,
    0,
    0,
    0,
    0,
    0,
    0,
    0,
    0,
    0,
    0,
    0,
    0,
    0,
    0,
    0,
    0,
    0,
    0,
    0,
    0,
    0,
    0,
    0,
    0,
    0,
    0,
    0,
    0,
    0,
    0,
    0,
    0,
    0,
    0,
    0,
    0,
    0,
    0,
    0,
    0,
    0,
    0,
    0,
    0,
    0,
    0,
    0,
    0,
    0,
    0,
    0,
    0,
    0,
    227,
    0,
    0,
    0,
    0,
    0,
    0,
    0,
    0,
    0,
    0,
    0,
    0,
    0,
    0,
    0,
    0,
    0,
    0,
    0,
    0,
    0,
    0,
    0,
    0,
    0,
    0,
    0,
    0,
    0,
    0,
    0,
    0,
    0,
    0,
    977,
    0,
    0,
    0,
    0,
    0,
    0,
    0,
    0,
    0,
    0,
    0,
    0,
    0,
    0,
    0,
    0,
    0,
    0,
    0,
    0,
    0,
    0,
    0,
    0,
    0,
    0,
    0,
    0,
    0,
    0,
    0,
    0,
    0,
    0,
    0,
    0,
    0,
    0,
    0,
    0,
    0,
    0,
    0,
    0,
    0,
    0,
    0,
    0,
    0,
    0,
    0,
    0,
    0,
    0,
    0,
    0,
    0,
    0,
    0,
    0,
    0,
    0,
    0,
    0,
    0,
    0,
    0,
    0,
    0,
    0,
    0,
    0,
    0,
    0,
    0,
    0,
    0,
    0,
    0,
    0,
    0,
    0,
    0,
    0,
    0,
    0,
    0,
    0,
    0,
    0,
    0,
    0,
    0,
    0,
    0,
    0,
    0,
    0,
    0,
    0,
    0,
    0,
    0,
    0,
    0,
    0,
    0,
    0,
    0,
    0,
    0,
    0,
    0,
    0,
    0,
    0,
    0,
    0,
    0,
    0,
    0,
    0,
    0,
    0,
    0,
    0,
    0,
    0,
    0,
    0,
    0,
    0,
    0,
    0,
    0,
    0,
    0,
    0,
    0,
    0,
    0,
    0,
    0,
    0,
    0,
    0,
    0,
    0,
    0,
    0,
    0,
    977,
    0,
    0,
    0,
    0,
    0,
    0,
    0,
    0,
    0,
    0,
    0,
    0,
    0,
    0,
    0,
    0,
    0,
    0,
    0,
    0,
    0,
    0,
    0,
    0,
    0,
    0,
    0,
    0,
    0,
    0,
    0,
    0,
    0,
    0,
    0,
    0,
    0,
    0,
    0,
    0,
    0,
    0,
    0,
    0,
    0,
    0,
    0,
    0,
    0,
    0,
    0,
    0,
    0,
    0,
    0,
    0,
    0,
    0,
    0,
    0,
    0,
    0,
    0,
    0,
    0,
    0,
    0,
    0,
    0,
    0,
    0,
    0,
    0,
    0,
    0,
    0,
    0,
    0,
    0,
    0,
    0,
    0,
    0,
    0,
    0,
    0,
    0,
    0,
    0,
    0,
    0,
    0,
    0,
    0,
    0,
    0,
    0,
    0,
    0,
    0,
    0,
    0,
    0,
    0,
    0,
    0,
    0,
    0,
    0,
    0,
    0,
    0,
    0,
    0,
    0,
    0,
    0,
    0,
    0,
    0,
    0,
    0,
    195,
    0,
    0,
    0,
    0,
    0,
    0,
    0,
    0,
    0,
    0,
    0,
    0,
    0,
    0,
    0,
    0,
    0,
    0,
    0,
    0,
    0,
    0,
    0,
    0,
    0,
    0,
    0,
    0,
    977,
    0,
    0,
    0,
    0,
    0,
    0,
    0,
    0,
    0,
    0,
    0,
    0,
    0,
    0,
    0,
    0,
    0,
    0,
    0,
    0,
    0,
    0,
    0,
    0,
    0,
    0,
    0,
    0,
    0,
    0,
    0,
    0,
    0,
    0,
    0,
    0,
    0,
    0,
    0,
    0,
    0,
    0,
    0,
    0,
    0,
    0,
    0,
    0,
    0,
    0,
    0,
    0,
    0,
    2147522921,
    2147522920,
    2147522919,
    2147522918,
    2147522917,
    2147522916,
    2147522915,
    2147522914,
    2147522913,
    2147522912,
    2147522911,
    2147522910,
    0,
    0,
    0,
    0,
    0,
    0,
    0,
    0,
    0,
    0,
    0,
    0,
    0,
    0,
    0,
    0,
    0,
    0,
    0,
    0,
    0,
    0,
    0,
    0,
    227,
    0,
    0,
    0,
    195,
    0,
    0,
    0,
    0,
    0,
    0,
    0,
    0,
    0,
    0,
    0,
    0,
    0,
    0,
    0,
    0,
    0,
    0,
    0,
    0,
    0,
    0,
    0,
    0,
    0,
    0,
    0,
    0,
    0,
    0,
    0,
    0,
    0,
    0,
    0,
    0,
    0,
    0,
    0,
    0,
    0,
    0,
    0,
    0,
    0,
    0,
    0,
    0,
    0,
    0,
    0,
    0,
    0,
    0,
    0,
    0,
    0,
    977,
    0,
    0,
    0,
    0,
    0,
    0,
    0,
    0,
    0,
    0,
    0,
    0,
    0,
    0,
    0,
    0,
    0,
    0,
    0,
    0,
    0,
    0,
    0,
    0,
    0,
    0,
    0,
    0,
    0,
    0,
    0,
    0,
    0,
    0,
    0,
    0,
    0,
    0,
    0,
    0,
    0,
    0,
    0,
    0,
    0,
    0,
    0,
    0,
    0,
    0,
    0,
    0,
    0,
    2147522953,
    2147522952,
    2147522951,
    2147522950,
    2147522949,
    2147522948,
    2147522947,
    2147522946,
    2147522945,
    2147522944,
    2147522943,
    2147522942,
    0,
    0,
    0,
    0,
    0,
    0,
    0,
    0,
    0,
    0,
    0,
    0,
    0,
    0,
    0,
    0,
    0,
    0,
    0,
    0,
    0,
    0,
    0,
    0,
    0,
    0,
    0,
    0,
    0,
    0,
    0,
    0,
    0,
    0,
    0,
    0,
    0,
    0,
    0,
    0,
    0,
    197,
    0,
    0,
    0,
    0,
    0,
    0,
    0,
    0,
    0,
    0,
    259,
    0,
    0,
    0,
    0,
    0,
    0,
    0,
    0,
    0,
    0,
    0,
    0,
    0,
    0,
    0,
    0,
    0,
    0,
    0,
    0,
    0,
    0,
    0,
    0,
    0,
    0,
    0,
    0,
    0,
    0,
    0,
    0,
    0,
    977,
    0,
    0,
    0,
    0,
    0,
    0,
    0,
    0,
    0,
    0,
    0,
    0,
    0,
    0,
    0,
    0,
    0,
    0,
    0,
    0,
    0,
    0,
    0,
    0,
    0,
    0,
    0,
    0,
    0,
    0,
    0,
    0,
    0,
    0,
    0,
    0,
    0,
    0,
    0,
    0,
    0,
    0,
    0,
    0,
    0,
    0,
    0,
    0,
    0,
    0,
    0,
    0,
    0,
    2147522985,
    2147522984,
    2147522983,
    2147522982,
    2147522981,
    2147522980,
    2147522979,
    2147522978,
    2147522977,
    2147522976,
    2147522975,
    2147522974,
    0,
    0,
    0,
    0,
    0,
    0,
    0,
    0,
    0,
    39263,
    39263,
    39263,
    39263,
    39263,
    39263,
    39263,
    39263,
    39263,
    39263,
    39263,
    39263,
    39263,
    39263,
    39264,
    0,
    0,
    0,
    0,
    0,
    0,
    0,
    0,
    0,
    0,
    0,
    0,
    0,
    0,
    0,
    0,
    0,
    0,
    0,
    0,
    0,
    0,
    0,
    0,
    0,
    0,
    0,
    0,
    0,
    0,
    0,
    0,
    0,
    0,
    0,
    0,
    0,
    0,
    0,
    0,
    0,
    0,
    0,
    0,
    0,
    0,
    0,
    0,
    0,
    0,
    0,
    0,
    0,
    0,
    0,
    0,
    0,
    0,
    0,
    0,
    0,
    0,
    977,
    0,
    0,
    0,
    0,
    0,
    0,
    0,
    0,
    0,
    0,
    0,
    0,
    0,
    0,
    0,
    0,
    0,
    0,
    0,
    0,
    0,
    0,
    0,
    0,
    0,
    0,
    0,
    0,
    0,
    0,
    0,
    0,
    0,
    0,
    0,
    0,
    0,
    0,
    0,
    0,
    0,
    0,
    0,
    0,
    0,
    0,
    0,
    0,
    0,
    0,
    0,
    0,
    0,
    2147523017,
    2147523016,
    2147523015,
    2147523014,
    2147523013,
    2147523012,
    2147523011,
    2147523010,
    2147523009,
    2147523008,
    2147523007,
    2147523006,
    0,
    0,
    0,
    0,
    0,
    0,
    0,
    0,
    0,
    0,
    0,
    0,
    0,
    0,
    0,
    0,
    0,
    0,
    0,
    0,
    0,
    0,
    0,
    0,
    0,
    0,
    0,
    0,
    0,
    0,
    0,
    0,
    0,
    0,
    0,
    0,
    0,
    0,
    0,
    258,
    0,
    0,
    0,
    0,
    0,
    0,
    0,
    0,
    0,
    0,
    0,
    0,
    0,
    0,
    0,
    0,
    0,
    0,
    259,
    0,
    0,
    0,
    0,
    0,
    0,
    0,
    0,
    0,
    0,
    0,
    0,
    0,
    0,
    0,
    0,
    0,
    0,
    0,
    0,
    0,
    0,
    0,
    0,
    0,
    0,
    0,
    977,
    0,
    0,
    0,
    0,
    0,
    0,
    0,
    0,
    0,
    0,
    0,
    0,
    0,
    0,
    0,
    0,
    0,
    0,
    0,
    0,
    0,
    0,
    0,
    0,
    0,
    0,
    0,
    0,
    0,
    0,
    0,
    0,
    0,
    0,
    0,
    0,
    0,
    0,
    0,
    0,
    0,
    0,
    0,
    0,
    0,
    0,
    0,
    0,
    0,
    0,
    0,
    0,
    0,
    2147523049,
    2147523048,
    2147523047,
    2147523046,
    2147523045,
    2147523044,
    2147523043,
    2147523042,
    2147523041,
    2147523040,
    2147523039,
    2147523038,
    0,
    0,
    0,
    0,
    0,
    0,
    0,
    0,
    0,
    0,
    0,
    0,
    0,
    0,
    0,
    0,
    0,
    0,
    0,
    0,
    0,
    0,
    0,
    0,
    0,
    0,
    0,
    0,
    0,
    0,
    0,
    0,
    259,
    0,
    0,
    0,
    0,
    290,
    0,
    0,
    0,
    0,
    0,
    196,
    0,
    0,
    0,
    0,
    226,
    0,
    0,
    0,
    0,
    0,
    0,
    0,
    196,
    0,
    0,
    0,
    197,
    0,
    0,
    0,
    197,
    0,
    0,
    0,
    0,
    0,
    0,
    0,
    0,
    0,
    0,
    0,
    0,
    258,
    0,
    0,
    0,
    0,
    0,
    0,
    0,
    0,
    977,
    0,
    0,
    0,
    0,
    0,
    0,
    0,
    0,
    0,
    0,
    0,
    0,
    0,
    0,
    0,
    0,
    0,
    0,
    0,
    0,
    0,
    0,
    0,
    0,
    0,
    0,
    0,
    0,
    0,
    0,
    0,
    0,
    0,
    0,
    0,
    0,
    0,
    0,
    0,
    0,
    0,
    0,
    0,
    0,
    0,
    0,
    0,
    0,
    0,
    0,
    0,
    0,
    0,
    2147523081,
    2147523080,
    2147523079,
    2147523078,
    2147523077,
    2147523076,
    2147523075,
    2147523074,
    2147523073,
    2147523072,
    2147523071,
    2147523070,
    0,
    0,
    0,
    0,
    0,
    0,
    0,
    0,
    0,
    0,
    0,
    0,
    0,
    0,
    0,
    0,
    0,
    0,
    0,
    0,
    0,
    0,
    0,
    0,
    0,
    0,
    0,
    0,
    0,
    0,
    0,
    0,
    0,
    0,
    0,
    0,
    0,
    0,
    0,
    0,
    0,
    0,
    0,
    0,
    0,
    0,
    0,
    0,
    0,
    0,
    0,
    0,
    0,
    0,
    0,
    0,
    0,
    0,
    0,
    0,
    0,
    0,
    0,
    226,
    0,
    0,
    0,
    0,
    0,
    0,
    0,
    0,
    258,
    0,
    0,
    0,
    0,
    0,
    0,
    0,
    0,
    0,
    0,
    0,
    0,
    0,
    977,
    0,
    0,
    0,
    0,
    0,
    0,
    0,
    0,
    0,
    0,
    0,
    0,
    0,
    0,
    0,
    0,
    0,
    0,
    0,
    0,
    0,
    0,
    0,
    0,
    0,
    0,
    0,
    0,
    0,
    0,
    0,
    0,
    0,
    0,
    0,
    0,
    0,
    0,
    0,
    0,
    0,
    0,
    0,
    0,
    0,
    0,
    0,
    0,
    0,
    0,
    0,
    0,
    0,
    2147523113,
    2147523112,
    2147523111,
    2147523110,
    2147523109,
    2147523108,
    2147523107,
    2147523106,
    2147523105,
    2147523104,
    2147523103,
    2147523102,
    0,
    0,
    0,
    0,
    0,
    0,
    0,
    0,
    0,
    0,
    0,
    0,
    0,
    0,
    0,
    0,
    0,
    0,
    0,
    0,
    0,
    0,
    0,
    0,
    0,
    226,
    0,
    0,
    0,
    226,
    0,
    0,
    0,
    0,
    0,
    0,
    0,
    197,
    197,
    196,
    0,
    0,
    0,
    0,
    0,
    0,
    0,
    0,
    0,
    0,
    259,
    0,
    0,
    0,
    197,
    0,
    0,
    0,
    0,
    0,
    0,
    0,
    0,
    0,
    0,
    0,
    0,
    0,
    0,
    0,
    0,
    195,
    0,
    0,
    0,
    0,
    0,
    0,
    0,
    0,
    0,
    0,
    0,
    0,
    0,
    0,
    977,
    0,
    0,
    0,
    0,
    0,
    0,
    0,
    0,
    0,
    0,
    0,
    0,
    0,
    0,
    0,
    0,
    0,
    0,
    0,
    0,
    0,
    0,
    0,
    0,
    0,
    0,
    0,
    0,
    0,
    0,
    0,
    0,
    0,
    0,
    0,
    0,
    0,
    0,
    0,
    0,
    0,
    0,
    0,
    0,
    0,
    0,
    0,
    0,
    0,
    0,
    0,
    0,
    0,
    2147523145,
    2147523144,
    2147523143,
    2147523142,
    2147523141,
    2147523140,
    2147523139,
    2147523138,
    2147523137,
    2147523136,
    2147523135,
    2147523134,
    0,
    0,
    0,
    0,
    0,
    0,
    0,
    0,
    0,
    0,
    0,
    0,
    0,
    0,
    0,
    0,
    0,
    0,
    0,
    0,
    0,
    0,
    0,
    0,
    0,
    0,
    226,
    0,
    258,
    0,
    0,
    0,
    0,
    0,
    0,
    0,
    0,
    0,
    0,
    196,
    0,
    0,
    0,
    0,
    290,
    0,
    0,
    0,
    0,
    0,
    0,
    0,
    0,
    0,
    0,
    0,
    0,
    0,
    0,
    258,
    0,
    0,
    0,
    0,
    0,
    0,
    0,
    0,
    0,
    0,
    0,
    0,
    0,
    0,
    0,
    0,
    0,
    0,
    0,
    0,
    0,
    0,
    0,
    0,
    0,
    0,
    977,
    0,
    0,
    0,
    0,
    0,
    0,
    0,
    0,
    0,
    0,
    0,
    0,
    0,
    0,
    0,
    0,
    0,
    0,
    0,
    0,
    0,
    0,
    0,
    0,
    0,
    0,
    0,
    14991,
    14867,
    14868,
    14992,
    0,
    0,
    14991,
    14867,
    14868,
    14992,
    0,
    0,
    0,
    0,
    0,
    0,
    0,
    0,
    0,
    0,
    0,
    0,
    0,
    0,
    0,
    0,
    2147523177,
    2147523176,
    2147523175,
    2147523174,
    2147523173,
    2147523172,
    2147523171,
    2147523170,
    2147523169,
    2147523168,
    2147523167,
    2147523166,
    0,
    0,
    0,
    0,
    0,
    0,
    0,
    0,
    0,
    0,
    0,
    0,
    0,
    0,
    0,
    0,
    0,
    0,
    0,
    0,
    0,
    0,
    0,
    0,
    0,
    0,
    0,
    0,
    0,
    0,
    0,
    0,
    197,
    195,
    0,
    0,
    0,
    0,
    0,
    0,
    0,
    0,
    0,
    0,
    0,
    0,
    226,
    0,
    0,
    0,
    227,
    0,
    0,
    0,
    0,
    197,
    0,
    0,
    0,
    0,
    0,
    0,
    226,
    0,
    0,
    0,
    0,
    0,
    0,
    0,
    0,
    0,
    0,
    0,
    258,
    0,
    0,
    0,
    0,
    0,
    0,
    0,
    0,
    0,
    0,
    0,
    977,
    0,
    0,
    0,
    0,
    0,
    0,
    0,
    0,
    0,
    0,
    0,
    0,
    0,
    0,
    0,
    0,
    0,
    0,
    0,
    0,
    0,
    0,
    0,
    0,
    0,
    0,
    0,
    15023,
    14899,
    14900,
    15024,
    0,
    0,
    15023,
    14899,
    14900,
    15024,
    0,
    0,
    0,
    0,
    0,
    0,
    0,
    0,
    0,
    0,
    0,
    0,
    0,
    0,
    15860,
    15861,
    2147523209,
    2147523208,
    2147523207,
    2147523206,
    2147523205,
    2147523204,
    2147523203,
    2147523202,
    2147523201,
    2147523200,
    2147523199,
    2147523198,
    0,
    0,
    0,
    0,
    0,
    0,
    0,
    0,
    0,
    0,
    0,
    0,
    0,
    0,
    2147522921,
    2147522920,
    2147522919,
    2147522918,
    2147522917,
    2147522916,
    2147522915,
    2147522914,
    2147522913,
    2147522912,
    0,
    195,
    0,
    0,
    0,
    0,
    0,
    0,
    0,
    0,
    0,
    0,
    195,
    0,
    0,
    0,
    0,
    0,
    0,
    0,
    0,
    0,
    196,
    0,
    0,
    0,
    0,
    259,
    259,
    0,
    0,
    0,
    259,
    0,
    0,
    0,
    0,
    0,
    0,
    0,
    195,
    0,
    0,
    0,
    0,
    0,
    0,
    0,
    0,
    0,
    0,
    0,
    0,
    0,
    197,
    0,
    0,
    0,
    0,
    0,
    0,
    0,
    977,
    0,
    0,
    0,
    0,
    0,
    0,
    0,
    0,
    0,
    0,
    15860,
    15861,
    0,
    0,
    0,
    0,
    0,
    0,
    0,
    0,
    0,
    0,
    0,
    15670,
    15671,
    15672,
    0,
    15055,
    0,
    0,
    15056,
    0,
    0,
    15055,
    0,
    0,
    15056,
    0,
    0,
    0,
    0,
    0,
    0,
    0,
    0,
    0,
    0,
    0,
    0,
    0,
    0,
    15892,
    15893,
    2147523241,
    2147523240,
    2147523239,
    2147523238,
    2147523237,
    2147523236,
    2147523235,
    2147523234,
    2147523233,
    2147523232,
    2147523231,
    2147523230,
    0,
    0,
    0,
    0,
    0,
    0,
    0,
    0,
    0,
    0,
    0,
    0,
    0,
    0,
    2147522953,
    2147522952,
    2147522951,
    2147522950,
    2147522949,
    2147522948,
    2147522947,
    2147522946,
    2147522945,
    2147522944,
    0,
    290,
    0,
    0,
    0,
    0,
    0,
    0,
    0,
    0,
    0,
    0,
    0,
    0,
    0,
    195,
    0,
    0,
    0,
    0,
    0,
    0,
    0,
    0,
    258,
    0,
    0,
    0,
    0,
    0,
    0,
    0,
    0,
    196,
    0,
    0,
    0,
    0,
    0,
    0,
    0,
    0,
    0,
    0,
    0,
    0,
    0,
    0,
    0,
    0,
    0,
    0,
    0,
    0,
    0,
    0,
    0,
    0,
    0,
    0,
    0,
    0,
    977,
    0,
    0,
    0,
    0,
    0,
    15670,
    15671,
    15672,
    0,
    0,
    15892,
    15893,
    0,
    0,
    0,
    0,
    0,
    0,
    0,
    0,
    15860,
    15861,
    0,
    15702,
    15703,
    15704,
    0,
    0,
    0,
    0,
    0,
    0,
    0,
    0,
    0,
    0,
    0,
    0,
    15798,
    15799,
    15800,
    0,
    0,
    0,
    0,
    15860,
    15861,
    0,
    0,
    0,
    0,
    15924,
    15925,
    2147523273,
    2147523272,
    2147523271,
    2147523270,
    2147523269,
    2147523268,
    2147523267,
    2147523266,
    2147523265,
    2147523264,
    2147523263,
    2147523262,
    0,
    0,
    0,
    0,
    0,
    0,
    0,
    0,
    0,
    0,
    0,
    0,
    0,
    0,
    2147522985,
    2147522984,
    2147522983,
    2147522982,
    2147522981,
    2147522980,
    2147522979,
    2147522978,
    2147522977,
    2147522976,
    0,
    0,
    0,
    0,
    0,
    0,
    0,
    0,
    0,
    0,
    0,
    0,
    0,
    0,
    0,
    0,
    0,
    0,
    0,
    0,
    0,
    0,
    0,
    0,
    0,
    0,
    0,
    0,
    195,
    0,
    0,
    0,
    0,
    0,
    0,
    0,
    0,
    0,
    0,
    0,
    0,
    0,
    0,
    0,
    0,
    0,
    0,
    0,
    0,
    0,
    0,
    0,
    0,
    0,
    0,
    0,
    0,
    0,
    0,
    0,
    0,
    0,
    977,
    0,
    0,
    0,
    0,
    0,
    15702,
    15703,
    15704,
    0,
    0,
    15924,
    15925,
    0,
    0,
    0,
    15670,
    15671,
    15672,
    0,
    0,
    15892,
    15893,
    0,
    15734,
    15735,
    15736,
    0,
    0,
    0,
    0,
    0,
    0,
    0,
    0,
    0,
    0,
    0,
    0,
    15830,
    15831,
    15832,
    0,
    15350,
    15351,
    0,
    15892,
    15893,
    0,
    0,
    0,
    0,
    15956,
    15957,
    2147523305,
    2147523304,
    2147523303,
    2147523302,
    2147523301,
    2147523300,
    2147523299,
    2147523298,
    2147523297,
    2147523296,
    2147523295,
    2147523294,
    0,
    0,
    0,
    0,
    0,
    0,
    0,
    0,
    0,
    0,
    0,
    0,
    0,
    0,
    2147523017,
    2147523016,
    2147523015,
    2147523014,
    2147523013,
    2147523012,
    2147523011,
    2147523010,
    2147523009,
    2147523008,
    0,
    0,
    259,
    0,
    0,
    0,
    0,
    0,
    0,
    0,
    0,
    196,
    195,
    0,
    0,
    0,
    0,
    0,
    258,
    0,
    0,
    0,
    0,
    0,
    0,
    0,
    0,
    0,
    0,
    0,
    0,
    0,
    0,
    0,
    0,
    0,
    0,
    0,
    0,
    0,
    0,
    0,
    0,
    0,
    0,
    0,
    0,
    0,
    0,
    0,
    0,
    0,
    0,
    0,
    0,
    0,
    0,
    0,
    0,
    0,
    0,
    0,
    977,
    0,
    0,
    0,
    0,
    0,
    15734,
    15735,
    15736,
    0,
    0,
    15956,
    15957,
    0,
    0,
    0,
    15702,
    15703,
    15704,
    0,
    0,
    15924,
    15925,
    0,
    15766,
    15767,
    15768,
    0,
    0,
    0,
    0,
    0,
    0,
    0,
    0,
    0,
    0,
    0,
    0,
    15862,
    15863,
    15864,
    0,
    0,
    0,
    0,
    15924,
    15925,
    0,
    0,
    15860,
    15861,
    15988,
    15989,
    2147523337,
    2147523336,
    2147523335,
    2147523334,
    2147523333,
    2147523332,
    2147523331,
    2147523330,
    2147523329,
    2147523328,
    2147523327,
    2147523326,
    0,
    0,
    0,
    0,
    0,
    0,
    0,
    0,
    0,
    0,
    0,
    0,
    0,
    0,
    2147523049,
    2147523048,
    2147523047,
    2147523046,
    2147523045,
    2147523044,
    2147523043,
    2147523042,
    2147523041,
    2147523040,
    0,
    0,
    0,
    0,
    0,
    0,
    0,
    0,
    0,
    0,
    0,
    0,
    0,
    0,
    0,
    0,
    0,
    0,
    0,
    0,
    0,
    0,
    0,
    0,
    0,
    0,
    0,
    0,
    0,
    0,
    0,
    0,
    0,
    0,
    0,
    0,
    0,
    0,
    0,
    226,
    0,
    0,
    0,
    0,
    0,
    259,
    0,
    196,
    0,
    0,
    0,
    0,
    0,
    0,
    0,
    0,
    0,
    0,
    0,
    0,
    0,
    0,
    977,
    0,
    0,
    0,
    0,
    0,
    15766,
    15767,
    15768,
    0,
    0,
    15988,
    15989,
    0,
    0,
    0,
    15734,
    15735,
    15736,
    0,
    0,
    15956,
    15957,
    0,
    0,
    0,
    0,
    0,
    0,
    0,
    0,
    0,
    0,
    0,
    0,
    0,
    0,
    0,
    0,
    15894,
    15895,
    15896,
    0,
    15801,
    15802,
    15803,
    15956,
    15670,
    15671,
    15672,
    15892,
    15893,
    0,
    0,
    2147523369,
    2147523368,
    2147523367,
    2147523366,
    2147523365,
    2147523364,
    2147523363,
    2147523362,
    2147523361,
    2147523360,
    2147523359,
    2147523358,
    0,
    0,
    0,
    0,
    0,
    0,
    0,
    0,
    0,
    0,
    0,
    0,
    0,
    0,
    2147523081,
    2147523080,
    2147523079,
    2147523078,
    2147523077,
    2147523076,
    2147523075,
    2147523074,
    2147523073,
    2147523072,
    0,
    0,
    0,
    0,
    0,
    0,
    0,
    0,
    195,
    0,
    195,
    0,
    0,
    0,
    197,
    0,
    0,
    0,
    0,
    0,
    0,
    0,
    0,
    0,
    0,
    0,
    0,
    0,
    0,
    0,
    0,
    0,
    0,
    0,
    0,
    0,
    0,
    227,
    0,
    0,
    0,
    0,
    0,
    0,
    0,
    0,
    0,
    0,
    0,
    0,
    0,
    0,
    0,
    0,
    0,
    0,
    0,
    0,
    0,
    0,
    0,
    0,
    977,
    0,
    0,
    0,
    0,
    0,
    0,
    0,
    15422,
    15423,
    0,
    0,
    0,
    15422,
    15423,
    0,
    15766,
    15767,
    15456,
    15457,
    15458,
    15988,
    15989,
    0,
    15456,
    15457,
    15458,
    0,
    0,
    0,
    0,
    0,
    0,
    0,
    0,
    0,
    0,
    0,
    0,
    15926,
    15927,
    15928,
    0,
    15833,
    15834,
    15835,
    15988,
    15702,
    15703,
    15704,
    15924,
    15925,
    0,
    0,
    2147523401,
    2147523400,
    2147523399,
    2147523398,
    2147523397,
    2147523396,
    2147523395,
    2147523394,
    2147523393,
    2147523392,
    2147523391,
    2147523390,
    0,
    0,
    0,
    0,
    0,
    0,
    0,
    0,
    0,
    0,
    0,
    0,
    0,
    0,
    2147523113,
    2147523112,
    2147523111,
    2147523110,
    2147523109,
    2147523108,
    2147523107,
    2147523106,
    2147523105,
    2147523104,
    0,
    0,
    0,
    0,
    0,
    0,
    0,
    0,
    0,
    0,
    0,
    0,
    0,
    0,
    0,
    0,
    0,
    0,
    0,
    0,
    0,
    0,
    0,
    0,
    0,
    0,
    0,
    0,
    0,
    196,
    0,
    259,
    0,
    0,
    0,
    0,
    0,
    0,
    0,
    0,
    0,
    0,
    0,
    0,
    0,
    0,
    0,
    0,
    0,
    0,
    0,
    0,
    0,
    0,
    0,
    0,
    0,
    0,
    0,
    0,
    0,
    0,
    977,
    0,
    0,
    0,
    0,
    0,
    0,
    0,
    0,
    0,
    0,
    0,
    0,
    0,
    0,
    0,
    0,
    0,
    0,
    0,
    0,
    0,
    0,
    0,
    0,
    0,
    0,
    0,
    0,
    0,
    0,
    0,
    0,
    0,
    0,
    0,
    0,
    0,
    0,
    0,
    15350,
    15351,
    0,
    15865,
    15866,
    15867,
    0,
    15734,
    15735,
    15736,
    15956,
    15957,
    0,
    0,
    2147523433,
    2147523432,
    2147523431,
    2147523430,
    2147523429,
    2147523428,
    2147523427,
    2147523426,
    2147523425,
    2147523424,
    2147523423,
    2147523422,
    0,
    0,
    0,
    0,
    0,
    0,
    0,
    0,
    0,
    0,
    0,
    0,
    0,
    0,
    2147523145,
    2147523144,
    2147523143,
    2147523142,
    2147523141,
    2147523140,
    2147523139,
    2147523138,
    2147523137,
    2147523136,
    0,
    0,
    0,
    0,
    0,
    0,
    0,
    0,
    0,
    0,
    0,
    0,
    0,
    0,
    0,
    0,
    0,
    0,
    0,
    0,
    227,
    0,
    0,
    0,
    0,
    0,
    0,
    0,
    0,
    0,
    0,
    0,
    0,
    0,
    0,
    0,
    0,
    0,
    0,
    0,
    0,
    0,
    0,
    290,
    195,
    0,
    0,
    0,
    0,
    0,
    0,
    0,
    0,
    0,
    0,
    0,
    0,
    0,
    0,
    0,
    0,
    0,
    977,
    0,
    0,
    0,
    0,
    0,
    0,
    0,
    0,
    0,
    0,
    0,
    0,
    0,
    0,
    0,
    0,
    0,
    0,
    0,
    0,
    0,
    0,
    0,
    0,
    0,
    0,
    0,
    0,
    0,
    0,
    0,
    0,
    0,
    0,
    0,
    0,
    0,
    0,
    0,
    0,
    15384,
    15385,
    15897,
    15898,
    15899,
    0,
    15766,
    15767,
    15768,
    15988,
    15989,
    15798,
    15799,
    15800,
    2147523464,
    2147523463,
    2147523462,
    2147523461,
    2147523460,
    2147523459,
    2147523458,
    2147523457,
    2147523456,
    2147523455,
    2147523454,
    0,
    0,
    0,
    0,
    0,
    0,
    0,
    0,
    0,
    0,
    0,
    0,
    0,
    0,
    2147523177,
    2147523176,
    2147523175,
    2147523174,
    2147523173,
    2147523172,
    2147523171,
    2147523170,
    2147523169,
    2147523168,
    0,
    0,
    0,
    0,
    0,
    0,
    0,
    196,
    0,
    197,
    0,
    0,
    0,
    0,
    0,
    0,
    0,
    0,
    0,
    0,
    0,
    0,
    0,
    0,
    259,
    0,
    0,
    0,
    0,
    0,
    0,
    0,
    0,
    0,
    0,
    0,
    0,
    0,
    0,
    0,
    0,
    0,
    227,
    0,
    0,
    0,
    0,
    0,
    0,
    0,
    0,
    0,
    0,
    0,
    0,
    0,
    0,
    0,
    0,
    0,
    0,
    0,
    977,
    0,
    0,
    0,
    0,
    0,
    0,
    0,
    0,
    0,
    0,
    0,
    0,
    0,
    0,
    0,
    0,
    0,
    0,
    0,
    0,
    0,
    0,
    0,
    15860,
    15861,
    0,
    0,
    0,
    0,
    0,
    0,
    0,
    0,
    0,
    0,
    0,
    0,
    0,
    0,
    0,
    15416,
    15417,
    15929,
    15930,
    15931,
    15384,
    15385,
    0,
    0,
    15384,
    15385,
    15830,
    15831,
    15832,
    0,
    0,
    0,
    0,
    0,
    0,
    0,
    15801,
    15802,
    15803,
    0,
    0,
    0,
    0,
    0,
    0,
    0,
    0,
    0,
    0,
    0,
    0,
    0,
    0,
    0,
    2147523209,
    2147523208,
    2147523207,
    2147523206,
    2147523205,
    2147523204,
    2147523203,
    2147523202,
    2147523201,
    2147523200,
    0,
    0,
    0,
    0,
    0,
    0,
    0,
    0,
    0,
    0,
    0,
    0,
    0,
    0,
    0,
    0,
    0,
    226,
    0,
    0,
    0,
    0,
    0,
    0,
    0,
    0,
    290,
    0,
    0,
    0,
    0,
    0,
    0,
    0,
    0,
    0,
    0,
    0,
    0,
    0,
    0,
    0,
    0,
    0,
    0,
    0,
    0,
    0,
    0,
    0,
    0,
    0,
    0,
    0,
    0,
    0,
    0,
    0,
    0,
    0,
    0,
    0,
    977,
    0,
    0,
    0,
    0,
    15670,
    15671,
    15672,
    0,
    0,
    0,
    15670,
    15671,
    15672,
    0,
    15860,
    15861,
    0,
    0,
    0,
    0,
    260,
    260,
    260,
    15892,
    15893,
    0,
    0,
    0,
    0,
    0,
    0,
    0,
    0,
    0,
    0,
    0,
    0,
    0,
    0,
    0,
    0,
    0,
    15422,
    15423,
    0,
    15416,
    15417,
    0,
    0,
    15416,
    15417,
    15862,
    15863,
    15864,
    15350,
    15351,
    0,
    0,
    15350,
    15351,
    0,
    15833,
    15834,
    15835,
    15350,
    15351,
    0,
    0,
    0,
    0,
    0,
    0,
    0,
    0,
    0,
    0,
    0,
    0,
    0,
    2147523241,
    2147523240,
    2147523239,
    2147523238,
    2147523237,
    2147523236,
    2147523235,
    2147523234,
    2147523233,
    2147523232,
    226,
    0,
    0,
    0,
    0,
    0,
    0,
    0,
    0,
    0,
    0,
    0,
    0,
    0,
    0,
    0,
    0,
    0,
    0,
    0,
    0,
    0,
    0,
    0,
    290,
    0,
    0,
    0,
    0,
    0,
    0,
    0,
    0,
    0,
    0,
    0,
    0,
    0,
    0,
    0,
    0,
    0,
    0,
    0,
    0,
    0,
    0,
    0,
    0,
    0,
    0,
    0,
    0,
    0,
    0,
    0,
    0,
    0,
    0,
    0,
    0,
    0,
    977,
    0,
    0,
    0,
    0,
    15702,
    15703,
    15704,
    0,
    15422,
    15423,
    15702,
    15703,
    15704,
    0,
    15892,
    15893,
    15486,
    15487,
    15670,
    15671,
    15672,
    15422,
    15423,
    15924,
    15925,
    0,
    0,
    0,
    0,
    0,
    0,
    0,
    0,
    0,
    0,
    0,
    0,
    0,
    0,
    0,
    0,
    0,
    0,
    0,
    0,
    0,
    0,
    0,
    0,
    0,
    0,
    15894,
    15895,
    15896,
    0,
    14931,
    14932,
    14932,
    14933,
    260,
    260,
    15865,
    15866,
    15867,
    0,
    0,
    0,
    0,
    0,
    0,
    0,
    0,
    0,
    0,
    0,
    0,
    0,
    0,
    0,
    2147523273,
    2147523272,
    2147523271,
    2147523270,
    2147523269,
    2147523268,
    2147523267,
    2147523266,
    2147523265,
    2147523264,
    0,
    0,
    0,
    0,
    0,
    0,
    0,
    0,
    0,
    0,
    0,
    0,
    0,
    0,
    0,
    0,
    0,
    0,
    0,
    0,
    0,
    0,
    227,
    0,
    0,
    0,
    0,
    226,
    0,
    0,
    0,
    0,
    0,
    0,
    0,
    0,
    0,
    0,
    0,
    0,
    0,
    0,
    0,
    0,
    0,
    0,
    0,
    0,
    0,
    0,
    0,
    0,
    0,
    0,
    0,
    0,
    0,
    0,
    0,
    0,
    0,
    0,
    977,
    0,
    0,
    0,
    0,
    15734,
    15735,
    15736,
    0,
    0,
    0,
    15734,
    15735,
    15736,
    0,
    15924,
    15925,
    260,
    260,
    15702,
    15703,
    15704,
    260,
    0,
    15956,
    15957,
    0,
    0,
    0,
    0,
    0,
    0,
    0,
    0,
    0,
    0,
    0,
    0,
    0,
    0,
    0,
    0,
    0,
    0,
    0,
    0,
    0,
    0,
    0,
    0,
    0,
    0,
    15926,
    15927,
    15928,
    0,
    14963,
    14964,
    14964,
    14965,
    0,
    0,
    15897,
    15898,
    15899,
    15350,
    15351,
    0,
    0,
    0,
    0,
    0,
    0,
    0,
    0,
    0,
    0,
    0,
    0,
    0,
    2147523305,
    2147523304,
    2147523303,
    2147523302,
    2147523301,
    2147523300,
    2147523299,
    2147523298,
    2147523297,
    2147523296,
    0,
    0,
    0,
    0,
    0,
    0,
    0,
    0,
    0,
    0,
    0,
    0,
    0,
    0,
    0,
    0,
    197,
    0,
    0,
    0,
    0,
    0,
    0,
    0,
    0,
    0,
    0,
    196,
    0,
    0,
    0,
    0,
    0,
    0,
    0,
    0,
    0,
    0,
    0,
    0,
    0,
    0,
    0,
    0,
    0,
    0,
    0,
    0,
    0,
    0,
    0,
    0,
    0,
    0,
    0,
    0,
    0,
    0,
    0,
    0,
    0,
    0,
    977,
    0,
    0,
    0,
    0,
    15766,
    15767,
    15768,
    0,
    0,
    0,
    15766,
    15767,
    15768,
    0,
    15956,
    15957,
    0,
    0,
    15734,
    15735,
    15736,
    260,
    0,
    15988,
    15989,
    0,
    0,
    0,
    0,
    0,
    0,
    0,
    0,
    0,
    0,
    0,
    0,
    0,
    0,
    0,
    0,
    0,
    0,
    0,
    0,
    0,
    0,
    0,
    0,
    0,
    0,
    0,
    0,
    0,
    0,
    0,
    0,
    0,
    0,
    0,
    0,
    15929,
    15930,
    15931,
    0,
    0,
    0,
    0,
    0,
    0,
    0,
    0,
    0,
    0,
    0,
    0,
    0,
    0,
    0,
    2147523337,
    2147523336,
    2147523335,
    2147523334,
    2147523333,
    2147523332,
    2147523331,
    2147523330,
    2147523329,
    2147523328,
    0,
    0,
    0,
    0,
    227,
    196,
    0,
    0,
    0,
    0,
    226,
    0,
    0,
    0,
    0,
    0,
    0,
    0,
    0,
    0,
    0,
    0,
    0,
    0,
    0,
    0,
    0,
    0,
    0,
    0,
    0,
    0,
    197,
    0,
    0,
    0,
    0,
    0,
    0,
    0,
    0,
    0,
    0,
    0,
    0,
    0,
    0,
    0,
    0,
    0,
    0,
    0,
    0,
    0,
    0,
    0,
    0,
    0,
    0,
    0,
    0,
    0,
    977,
    0,
    0,
    0,
    0,
    0,
    0,
    0,
    0,
    0,
    0,
    0,
    0,
    0,
    0,
    15988,
    15989,
    0,
    0,
    15766,
    15767,
    15768,
    260,
    15860,
    15861,
    0,
    0,
    0,
    0,
    0,
    0,
    0,
    0,
    0,
    0,
    0,
    0,
    0,
    0,
    0,
    0,
    0,
    0,
    0,
    0,
    0,
    0,
    0,
    0,
    0,
    0,
    0,
    0,
    0,
    0,
    0,
    0,
    0,
    0,
    0,
    0,
    0,
    0,
    0,
    0,
    0,
    0,
    0,
    0,
    0,
    0,
    0,
    0,
    0,
    0,
    0,
    0,
    0,
    0,
    0,
    2147523369,
    2147523368,
    2147523367,
    2147523366,
    2147523365,
    2147523364,
    2147523363,
    2147523362,
    2147523361,
    2147523360,
    0,
    258,
    0,
    0,
    0,
    0,
    0,
    0,
    0,
    0,
    0,
    0,
    0,
    0,
    0,
    195,
    0,
    0,
    0,
    0,
    0,
    0,
    0,
    0,
    0,
    0,
    0,
    0,
    0,
    0,
    0,
    195,
    0,
    0,
    0,
    0,
    0,
    0,
    0,
    0,
    0,
    0,
    0,
    0,
    0,
    0,
    0,
    0,
    0,
    0,
    196,
    0,
    0,
    0,
    0,
    0,
    0,
    0,
    0,
    0,
    0,
    0,
    977,
    0,
    0,
    0,
    15670,
    15671,
    15672,
    0,
    0,
    0,
    15670,
    15671,
    15672,
    0,
    15860,
    15861,
    260,
    0,
    0,
    0,
    260,
    260,
    260,
    15892,
    15893,
    0,
    0,
    0,
    0,
    0,
    0,
    0,
    0,
    0,
    0,
    0,
    0,
    0,
    0,
    0,
    0,
    15798,
    15799,
    15800,
    0,
    0,
    0,
    0,
    0,
    0,
    0,
    0,
    0,
    0,
    0,
    0,
    0,
    0,
    0,
    0,
    0,
    0,
    0,
    0,
    0,
    0,
    0,
    0,
    0,
    0,
    0,
    0,
    0,
    0,
    0,
    0,
    0,
    0,
    0,
    0,
    2147523401,
    2147523400,
    2147523399,
    2147523398,
    2147523397,
    2147523396,
    2147523395,
    2147523394,
    2147523393,
    2147523392,
    2147523391,
    2147523390,
    0,
    0,
    0,
    0,
    0,
    0,
    0,
    0,
    0,
    0,
    0,
    0,
    0,
    197,
    196,
    0,
    0,
    0,
    0,
    0,
    0,
    0,
    0,
    0,
    0,
    0,
    0,
    0,
    0,
    0,
    0,
    0,
    0,
    0,
    0,
    0,
    227,
    0,
    227,
    0,
    0,
    0,
    0,
    0,
    0,
    0,
    0,
    0,
    0,
    0,
    0,
    0,
    0,
    0,
    0,
    0,
    0,
    0,
    0,
    0,
    977,
    0,
    0,
    0,
    15702,
    15703,
    15704,
    0,
    0,
    0,
    15702,
    15703,
    15704,
    0,
    15892,
    15893,
    0,
    0,
    15670,
    15671,
    15672,
    260,
    0,
    15924,
    15925,
    0,
    0,
    0,
    0,
    0,
    0,
    0,
    0,
    0,
    0,
    0,
    0,
    0,
    0,
    0,
    0,
    15830,
    15831,
    15832,
    0,
    0,
    0,
    0,
    0,
    0,
    0,
    0,
    0,
    0,
    0,
    0,
    0,
    0,
    0,
    0,
    0,
    0,
    0,
    0,
    0,
    0,
    0,
    0,
    0,
    0,
    0,
    0,
    0,
    0,
    0,
    0,
    0,
    0,
    0,
    0,
    2147523433,
    2147523432,
    2147523431,
    2147523430,
    2147523429,
    2147523428,
    2147523427,
    2147523426,
    2147523425,
    2147523424,
    2147523423,
    2147523422,
    0,
    0,
    0,
    0,
    0,
    0,
    0,
    0,
    0,
    0,
    0,
    0,
    0,
    0,
    0,
    0,
    0,
    0,
    0,
    0,
    0,
    0,
    0,
    0,
    0,
    0,
    0,
    0,
    0,
    0,
    0,
    197,
    0,
    197,
    0,
    0,
    0,
    0,
    0,
    290,
    0,
    0,
    0,
    0,
    0,
    0,
    0,
    0,
    0,
    0,
    0,
    0,
    0,
    0,
    0,
    0,
    0,
    0,
    0,
    0,
    977,
    0,
    0,
    0,
    15734,
    15735,
    15736,
    0,
    0,
    0,
    15734,
    15735,
    15736,
    0,
    15924,
    15925,
    260,
    260,
    15702,
    15703,
    15704,
    260,
    0,
    15956,
    15957,
    0,
    0,
    0,
    0,
    0,
    0,
    0,
    0,
    0,
    0,
    0,
    0,
    0,
    0,
    0,
    0,
    15862,
    15863,
    15864,
    15670,
    15671,
    15672,
    15351,
    0,
    0,
    0,
    0,
    0,
    0,
    0,
    0,
    0,
    0,
    0,
    0,
    0,
    0,
    0,
    0,
    0,
    0,
    0,
    0,
    0,
    0,
    0,
    0,
    0,
    0,
    0,
    0,
    0,
    0,
    0,
    0,
    2147523465,
    2147523464,
    2147523463,
    2147523462,
    2147523461,
    2147523460,
    2147523459,
    2147523458,
    2147523457,
    2147523456,
    2147523455,
    2147523454,
    0,
    0,
    0,
    0,
    0,
    290,
    0,
    0,
    0,
    0,
    0,
    0,
    227,
    0,
    0,
    0,
    0,
    0,
    0,
    0,
    0,
    0,
    0,
    0,
    0,
    0,
    0,
    0,
    0,
    0,
    0,
    0,
    0,
    0,
    0,
    0,
    0,
    0,
    0,
    0,
    0,
    0,
    0,
    0,
    0,
    0,
    0,
    0,
    0,
    0,
    0,
    0,
    0,
    0,
    0,
    0,
    0,
    0,
    0,
    0,
    977,
    0,
    0,
    0,
    15766,
    15767,
    15768,
    0,
    0,
    0,
    15766,
    15767,
    15768,
    0,
    15956,
    15957,
    0,
    0,
    15734,
    15735,
    15736,
    260,
    0,
    15988,
    15989,
    0,
    0,
    0,
    0,
    0,
    0,
    0,
    0,
    0,
    0,
    0,
    0,
    0,
    0,
    0,
    0,
    15894,
    15895,
    15896,
    15702,
    15703,
    15704,
    0,
    0,
    0,
    0,
    0,
    0,
    0,
    0,
    0,
    260,
    260,
    260,
    260,
    260,
    0,
    0,
    0,
    0,
    0,
    0,
    0,
    0,
    0,
    0,
    0,
    0,
    0,
    0,
    15446,
    15447,
    0,
    0,
    0,
    0,
    0,
    0,
    0,
    0,
    0,
    0,
    0,
    0,
    0,
    0,
    0,
    0,
    0,
    227,
    0,
    0,
    290,
    0,
    0,
    0,
    0,
    0,
    0,
    0,
    0,
    0,
    0,
    0,
    0,
    0,
    0,
    0,
    0,
    0,
    0,
    0,
    0,
    0,
    0,
    258,
    0,
    0,
    0,
    0,
    0,
    0,
    0,
    0,
    0,
    0,
    0,
    0,
    0,
    0,
    0,
    0,
    0,
    0,
    0,
    0,
    0,
    0,
    0,
    0,
    0,
    0,
    0,
    0,
    0,
    0,
    0,
    977,
    0,
    0,
    0,
    0,
    0,
    0,
    0,
    0,
    0,
    0,
    15860,
    15861,
    0,
    15988,
    15989,
    0,
    0,
    15766,
    15767,
    15768,
    260,
    0,
    0,
    15670,
    15671,
    15672,
    0,
    0,
    0,
    0,
    0,
    0,
    0,
    0,
    0,
    0,
    0,
    0,
    0,
    0,
    15926,
    15927,
    15928,
    15734,
    15735,
    15736,
    0,
    0,
    0,
    0,
    0,
    260,
    260,
    260,
    260,
    260,
    260,
    260,
    260,
    260,
    260,
    260,
    260,
    260,
    0,
    0,
    0,
    0,
    0,
    0,
    0,
    15798,
    15799,
    15800,
    15478,
    15479,
    0,
    0,
    0,
    0,
    0,
    0,
    0,
    0,
    0,
    0,
    0,
    0,
    0,
    0,
    0,
    0,
    0,
    0,
    0,
    0,
    0,
    0,
    0,
    0,
    0,
    0,
    197,
    0,
    0,
    0,
    0,
    258,
    0,
    0,
    0,
    0,
    0,
    0,
    0,
    0,
    0,
    0,
    0,
    0,
    0,
    0,
    0,
    0,
    0,
    0,
    259,
    258,
    0,
    0,
    0,
    227,
    0,
    0,
    0,
    0,
    0,
    0,
    0,
    0,
    0,
    0,
    0,
    0,
    0,
    0,
    0,
    0,
    0,
    0,
    0,
    977,
    0,
    0,
    0,
    0,
    0,
    15670,
    15671,
    15672,
    0,
    0,
    15892,
    15893,
    0,
    260,
    260,
    0,
    0,
    0,
    0,
    260,
    15860,
    15861,
    0,
    15702,
    15703,
    15704,
    0,
    0,
    0,
    0,
    0,
    0,
    0,
    0,
    0,
    0,
    0,
    0,
    0,
    0,
    15350,
    15351,
    0,
    15766,
    15767,
    15768,
    15802,
    15803,
    0,
    0,
    15798,
    15799,
    15800,
    15350,
    15351,
    260,
    15860,
    15861,
    260,
    260,
    260,
    260,
    260,
    0,
    0,
    15798,
    15799,
    15800,
    0,
    0,
    0,
    15830,
    15831,
    15832,
    15510,
    15511,
    0,
    0,
    0,
    0,
    0,
    0,
    0,
    0,
    0,
    0,
    0,
    0,
    0,
    0,
    0,
    0,
    0,
    0,
    0,
    0,
    196,
    0,
    0,
    226,
    0,
    0,
    0,
    0,
    0,
    0,
    0,
    0,
    0,
    0,
    0,
    0,
    0,
    0,
    0,
    0,
    0,
    0,
    0,
    0,
    0,
    0,
    0,
    0,
    0,
    259,
    0,
    0,
    0,
    0,
    0,
    259,
    0,
    0,
    0,
    0,
    195,
    0,
    0,
    290,
    0,
    0,
    0,
    0,
    0,
    0,
    0,
    0,
    0,
    0,
    0,
    977,
    0,
    0,
    0,
    0,
    0,
    15702,
    15703,
    15704,
    0,
    0,
    15924,
    15925,
    0,
    0,
    0,
    15670,
    15671,
    15672,
    0,
    0,
    15892,
    15893,
    0,
    15734,
    15735,
    15736,
    0,
    0,
    0,
    0,
    0,
    0,
    0,
    0,
    0,
    0,
    0,
    0,
    0,
    0,
    0,
    0,
    0,
    0,
    0,
    15833,
    15834,
    15835,
    0,
    0,
    15830,
    15831,
    15832,
    260,
    0,
    260,
    15892,
    15893,
    260,
    260,
    15350,
    15351,
    0,
    15860,
    15861,
    15830,
    15831,
    15832,
    0,
    0,
    0,
    15862,
    15863,
    15864,
    15542,
    15543,
    0,
    0,
    0,
    0,
    0,
    0,
    0,
    0,
    0,
    0,
    0,
    0,
    0,
    0,
    0,
    0,
    0,
    0,
    0,
    0,
    0,
    0,
    0,
    0,
    0,
    0,
    195,
    0,
    0,
    0,
    196,
    0,
    0,
    0,
    0,
    0,
    0,
    0,
    0,
    0,
    0,
    0,
    0,
    0,
    0,
    0,
    0,
    0,
    0,
    0,
    0,
    0,
    0,
    0,
    0,
    0,
    0,
    258,
    0,
    0,
    0,
    0,
    0,
    0,
    0,
    0,
    0,
    0,
    0,
    0,
    0,
    0,
    0,
    0,
    0,
    977,
    0,
    0,
    0,
    0,
    0,
    15734,
    15735,
    15736,
    0,
    0,
    15956,
    15957,
    0,
    0,
    0,
    15702,
    15703,
    15704,
    0,
    0,
    15924,
    15925,
    0,
    15766,
    15767,
    15768,
    0,
    0,
    0,
    0,
    0,
    0,
    0,
    0,
    0,
    0,
    0,
    0,
    0,
    0,
    0,
    15384,
    15385,
    15932,
    15933,
    15865,
    15866,
    15867,
    15422,
    15423,
    15862,
    15863,
    15864,
    15932,
    15933,
    0,
    15924,
    15925,
    260,
    15802,
    15803,
    0,
    0,
    15892,
    15893,
    15862,
    15863,
    15864,
    0,
    0,
    0,
    15894,
    15895,
    15896,
    0,
    0,
    0,
    0,
    0,
    0,
    0,
    0,
    0,
    0,
    0,
    0,
    0,
    0,
    0,
    0,
    0,
    0,
    0,
    0,
    0,
    197,
    0,
    0,
    0,
    0,
    0,
    0,
    196,
    0,
    0,
    0,
    0,
    0,
    0,
    0,
    0,
    0,
    0,
    0,
    0,
    0,
    0,
    259,
    0,
    0,
    0,
    0,
    0,
    0,
    0,
    0,
    0,
    258,
    226,
    0,
    0,
    0,
    197,
    0,
    0,
    0,
    0,
    197,
    226,
    0,
    0,
    0,
    0,
    0,
    0,
    0,
    0,
    0,
    0,
    0,
    0,
    977,
    0,
    0,
    0,
    0,
    0,
    15766,
    15767,
    15768,
    0,
    0,
    15988,
    15989,
    0,
    0,
    0,
    15734,
    15735,
    15736,
    0,
    0,
    15956,
    15957,
    0,
    0,
    0,
    0,
    0,
    0,
    0,
    0,
    0,
    0,
    0,
    0,
    0,
    0,
    0,
    0,
    0,
    0,
    0,
    15416,
    15417,
    15964,
    15965,
    15897,
    15898,
    15899,
    15932,
    15933,
    15894,
    15895,
    15896,
    15964,
    15965,
    0,
    15956,
    15957,
    15833,
    15834,
    15835,
    0,
    0,
    15924,
    15925,
    15894,
    15895,
    15896,
    0,
    0,
    0,
    15926,
    15927,
    15928,
    0,
    0,
    0,
    0,
    0,
    0,
    0,
    0,
    0,
    0,
    0,
    0,
    0,
    0,
    0,
    0,
    0,
    0,
    0,
    0,
    290,
    0,
    0,
    0,
    0,
    0,
    0,
    0,
    0,
    0,
    0,
    0,
    0,
    0,
    0,
    0,
    0,
    0,
    0,
    0,
    0,
    0,
    227,
    0,
    0,
    0,
    197,
    0,
    0,
    0,
    0,
    0,
    0,
    0,
    0,
    0,
    0,
    0,
    0,
    0,
    0,
    227,
    0,
    0,
    0,
    0,
    0,
    0,
    0,
    0,
    0,
    0,
    0,
    0,
    0,
    0,
    0,
    977,
    0,
    0,
    0,
    0,
    0,
    0,
    0,
    0,
    0,
    0,
    0,
    0,
    0,
    0,
    0,
    15766,
    15767,
    15768,
    0,
    0,
    15988,
    15989,
    0,
    0,
    0,
    0,
    0,
    0,
    0,
    0,
    0,
    0,
    0,
    0,
    0,
    0,
    0,
    0,
    0,
    0,
    0,
    0,
    0,
    15996,
    15997,
    15929,
    15930,
    15931,
    15964,
    15965,
    15926,
    15927,
    15928,
    15996,
    15997,
    0,
    15988,
    15989,
    15865,
    15866,
    15867,
    0,
    0,
    15956,
    15957,
    15926,
    15927,
    15928,
    0,
    0,
    0,
    0,
    0,
    0,
    0,
    0,
    0,
    0,
    0,
    0,
    0,
    0,
    0,
    0,
    0,
    0,
    0,
    0,
    0,
    0,
    0,
    0,
    0,
    0,
    0,
    0,
    0,
    0,
    0,
    0,
    0,
    0,
    0,
    0,
    0,
    0,
    0,
    0,
    0,
    0,
    0,
    0,
    0,
    0,
    0,
    0,
    0,
    0,
    0,
    0,
    0,
    0,
    0,
    0,
    0,
    0,
    0,
    0,
    0,
    0,
    0,
    0,
    0,
    0,
    195,
    0,
    0,
    0,
    0,
    227,
    0,
    0,
    0,
    0,
    0,
    0,
    0,
    0,
    0,
    0,
    0,
    977,
    0,
    0,
    0,
    0,
    0,
    0,
    0,
    0,
    0,
    0,
    0,
    0,
    0,
    0,
    0,
    0,
    0,
    0,
    0,
    0,
    0,
    0,
    0,
    0,
    0,
    0,
    0,
    0,
    0,
    0,
    0,
    0,
    0,
    0,
    0,
    0,
    0,
    0,
    0,
    0,
    0,
    0,
    0,
    0,
    0,
    0,
    0,
    0,
    15996,
    15997,
    0,
    0,
    0,
    0,
    0,
    0,
    0,
    0,
    15897,
    15898,
    15899,
    15932,
    15933,
    15988,
    15989,
    0,
    0,
    0,
    0,
    0,
    0,
    0,
    0,
    0,
    0,
    0,
    0,
    0,
    0,
    0,
    0,
    0,
    0,
    0,
    0,
    0,
    0,
    0,
    0,
    0,
    0,
    0,
    0,
    0,
    0,
    0,
    0,
    0,
    227,
    0,
    0,
    0,
    0,
    0,
    0,
    0,
    0,
    0,
    196,
    0,
    0,
    0,
    0,
    0,
    0,
    0,
    0,
    0,
    0,
    0,
    0,
    0,
    0,
    0,
    0,
    0,
    0,
    0,
    0,
    0,
    0,
    0,
    259,
    0,
    0,
    0,
    0,
    0,
    0,
    0,
    227,
    0,
    0,
    0,
    0,
    0,
    0,
    0,
    0,
    0,
    0,
    977,
    0,
    0,
    0,
    0,
    0,
    0,
    0,
    0,
    0,
    0,
    0,
    0,
    0,
    0,
    0,
    0,
    0,
    0,
    0,
    0,
    0,
    0,
    0,
    0,
    0,
    0,
    0,
    0,
    0,
    0,
    0,
    0,
    0,
    0,
    0,
    0,
    0,
    0,
    0,
    0,
    0,
    0,
    0,
    0,
    0,
    0,
    0,
    0,
    0,
    0,
    0,
    0,
    0,
    0,
    0,
    0,
    0,
    0,
    15929,
    15930,
    15931,
    15964,
    15965,
    0,
    0,
    0,
    0,
    0,
    0,
    0,
    0,
    0,
    0,
    0,
    0,
    0,
    0,
    0,
    0,
    0,
    0,
    0,
    0,
    0,
    0,
    0,
    0,
    0,
    0,
    0,
    0,
    0,
    0,
    0,
    0,
    0,
    197,
    0,
    0,
    0,
    0,
    0,
    226,
    0,
    0,
    0,
    0,
    0,
    0,
    0,
    0,
    258,
    226,
    0,
    0,
    0,
    0,
    0,
    0,
    0,
    0,
    0,
    0,
    0,
    0,
    0,
    0,
    0,
    0,
    195,
    0,
    0,
    0,
    0,
    259,
    0,
    0,
    0,
    0,
    0,
    0,
    0,
    0,
    0,
    0,
    0,
    0,
    0,
    0,
    0,
    0,
    977,
    0,
    0,
    0,
    0,
    0,
    0,
    0,
    0,
    0,
    0,
    0,
    0,
    0,
    0,
    0,
    0,
    0,
    0,
    0,
    0,
    0,
    0,
    0,
    0,
    0,
    0,
    0,
    0,
    0,
    0,
    0,
    0,
    0,
    0,
    0,
    0,
    0,
    0,
    0,
    0,
    0,
    0,
    0,
    0,
    0,
    0,
    0,
    0,
    0,
    0,
    0,
    0,
    0,
    0,
    0,
    0,
    0,
    0,
    0,
    0,
    0,
    15996,
    15997,
    0,
    0,
    0,
    0,
    0,
    0,
    0,
    0,
    0,
    0,
    0,
    0,
    0,
    0,
    0,
    0,
    0,
    0,
    0,
    0,
    0,
    0,
    0,
    0,
    0,
    0,
    0,
    0,
    0,
    0,
    0,
    0,
    0,
    197,
    0,
    0,
    0,
    0,
    0,
    0,
    0,
    0,
    0,
    0,
    0,
    0,
    0,
    0,
    0,
    0,
    0,
    0,
    259,
    258,
    0,
    290,
    0,
    0,
    0,
    0,
    0,
    0,
    0,
    0,
    0,
    0,
    0,
    0,
    0,
    0,
    0,
    0,
    195,
    0,
    0,
    227,
    0,
    0,
    0,
    0,
    0,
    0,
    0,
    0,
    0,
    0,
    0,
    0,
    1009,
    1010,
    1010,
    1010,
    1010,
    1010,
    1010,
    1010,
    1010,
    1010,
    1010,
    1010,
    1010,
    1010,
    1010,
    1010,
    1010,
    1010,
    1010,
    1010,
    1010,
    1010,
    1010,
    1010,
    1010,
    1010,
    1010,
    1010,
    1010,
    1010,
    1010,
    1010,
    0,
    0,
    0,
    1010,
    1010,
    1010,
    1010,
    1010,
    1010,
    1010,
    1010,
    1010,
    1010,
    1010,
    1010,
    1010,
    1010,
    1010,
    1010,
    1010,
    1010,
    1010,
    1010,
    1010,
    1010,
    1010,
    1010,
    1010,
    1010,
    1010,
    1010,
    1010,
    1010,
    1010,
    1010,
    1010,
    1010,
    1010,
    1010,
    1010,
    1010,
    0,
    0,
    0,
    1010,
    1010,
    1010,
    1010,
    1010,
    1010,
    1010,
    1010,
    1010,
    1010,
    1010,
    1010,
    1010,
    1010,
    1010,
    1010,
    1010,
    1010,
    1010,
    0,
    0,
    0,
    0,
    0,
    0,
    0,
    0,
    0,
    0,
    0,
    0,
    0,
    258,
    0,
    0,
    0,
    0,
    0,
    0,
    0,
    0,
    226,
    0,
    258,
    0,
    0,
    0,
    0,
    0,
    0,
    0,
    0,
    0,
    196,
    0,
    0,
    0,
    0,
    0,
    0,
    0,
    0,
    0,
    0,
    0,
    0,
    258,
    0,
    0,
    0,
    0,
    0,
    0,
    0,
    0,
    0,
    1041,
    1042,
    1042,
    1042,
    1042,
    1042,
    1042,
    1042,
    1042,
    1042,
    1042,
    1042,
    1042,
    1042,
    1042,
    1042,
    1042,
    1042,
    1042,
    1042,
    1042,
    1042,
    1042,
    1042,
    1042,
    1042,
    1042,
    1042,
    1042,
    1042,
    1042,
    1042,
    0,
    0,
    0,
    1042,
    1042,
    1042,
    1042,
    1042,
    1042,
    1042,
    1042,
    1042,
    1042,
    1042,
    1042,
    1042,
    1042,
    1042,
    1042,
    1042,
    1042,
    1042,
    1042,
    1042,
    1042,
    1042,
    1042,
    1042,
    1042,
    1042,
    1042,
    1042,
    1042,
    1042,
    1042,
    1042,
    1042,
    1042,
    1042,
    1042,
    1042,
    0,
    0,
    0,
    1042,
    1042,
    1042,
    1042,
    1042,
    1042,
    1042,
    1042,
    1042,
    1042,
    1042,
    1042,
    1042,
    1042,
    1042,
    1042,
    1042,
    1042,
    1042,
    0,
    0,
    0,
    0,
    0,
    0,
    0,
    0,
    0,
    197,
    0,
    0,
    0,
    0,
    0,
    0,
    0,
    0,
    197,
    0,
    0,
    0,
    0,
    0,
    0,
    0,
    0,
    0,
    0,
    0,
    0,
    0,
    0,
    0,
    0,
    0,
    227,
    0,
    0,
    0,
    0,
    0,
    196,
    0,
    0,
    0,
    0,
    0,
    0,
    0,
    0,
    0,
    0,
    0,
    0,
    0,
    0,
    0,
    0,
    0,
    0,
    0,
    0,
    0,
    0,
    0,
    0,
    0,
    0,
    0,
    0,
    0,
    0,
    0,
    0,
    0,
    0,
    0,
    0,
    0,
    0,
    0,
    0,
    0,
    0,
    0,
    0,
    0,
    0,
    0,
    0,
    0,
    0,
    0,
    0,
    0,
    0,
    0,
    0,
    0,
    0,
    0,
    0,
    0,
    0,
    0,
    0,
    0,
    0,
    0,
    0,
    0,
    0,
    0,
    0,
    0,
    0,
    0,
    0,
    0,
    0,
    0,
    0,
    0,
    0,
    0,
    0,
    0,
    0,
    0,
    0,
    0,
    0,
    0,
    0,
    0,
    0,
    0,
    0,
    0,
    0,
    0,
    0,
    0,
    0,
    0,
    0,
    0,
    0,
    0,
    0,
    0,
    0,
    0,
    0,
    0,
    0,
    0,
    0,
    0,
    0,
    0,
    0,
    0,
    0,
    0,
    0,
    0,
    0,
    0,
    0,
    0,
    0,
    0,
    0,
    0,
    0,
    0,
    0,
    0,
    0,
    0,
    0,
    0,
    0,
    0,
    226,
    0,
    0,
    0,
    0,
    0,
    0,
    0,
    197,
    0,
    0,
    0,
    0,
    0,
    0,
    0,
    0,
    0,
    0,
    0,
    0,
    0,
    0,
    0,
    0,
    0,
    0,
    0,
    0,
    0,
    0,
    0,
    0,
    0,
    0,
    0,
    0,
    0,
    0,
    0,
    0,
    0,
    0,
    0,
    0,
    0,
    0,
    0,
    0,
    0,
    0,
    0,
    0,
    0,
    0,
    0,
    0,
    0,
    0,
    0,
    0,
    0,
    0,
    0,
    0,
    0,
    0,
    0,
    0,
    0,
    0,
    0,
    0,
    0,
    0,
    0,
    0,
    0,
    0,
    0,
    0,
    0,
    0,
    0,
    0,
    0,
    0,
    0,
    0,
    0,
    0,
    0,
    0,
    0,
    0,
    0,
    0,
    0,
    0,
    0,
    0,
    0,
    0,
    0,
    0,
    0,
    0,
    0,
    0,
    0,
    0,
    0,
    0,
    0,
    0,
    0,
    0,
    0,
    0,
    0,
    0,
    0,
    0,
    0,
    0,
    0,
    0,
    0,
    0,
    0,
    0,
    0,
    0,
    0,
    0,
    0,
    0,
    0,
    259,
    0,
    0,
    0,
    0,
    0,
    0,
    0,
    0,
    0,
    290,
    0,
    259,
    196,
    0,
    0,
    0,
    0,
    0,
    0,
    0,
    0,
    0,
    0,
    0,
    0,
    0,
    0,
    0,
    0,
    0,
    0,
    0,
    0,
    0,
    0,
    0,
    0,
    0,
    0,
    0,
    0,
    0,
    0,
    0,
    0,
    0,
    0,
    0,
    0,
    0,
    0,
    0,
    0,
    0,
    0,
    0,
    0,
    0,
    0,
    0,
    0,
    0,
    0,
    0,
    0,
    0,
    0,
    0,
    0,
    0,
    0,
    0,
    0,
    0,
    0,
    0,
    0,
    0,
    0,
    0,
    0,
    0,
    0,
    0,
    0,
    0,
    0,
    0,
    0,
    0,
    0,
    0,
    0,
    0,
    0,
    0,
    0,
    0,
    0,
    0,
    0,
    0,
    0,
    0,
    0,
    0,
    0,
    0,
    0,
    0,
    0,
    0,
    0,
    0,
    0,
    0,
    0,
    0,
    0,
    0,
    0,
    0,
    0,
    0,
    0,
    0,
    0,
    0,
    0,
    0,
    0,
    0,
    0,
    0,
    0,
    0,
    0,
    0,
    0,
    0,
    0,
    0,
    0,
    0,
    290,
    0,
    0,
    0,
    0,
    0,
    0,
    0,
    0,
    0,
    0,
    0,
    258,
    0,
    0,
    0,
    0,
    0,
    0,
    0,
    0,
    290,
    0,
    258,
    0,
    258,
    0,
    0,
    0,
    0,
    0,
    196,
    0,
    0,
    0,
    226,
    0,
    0,
    0,
    0,
    0,
    0,
    0,
    0,
    0,
    0,
    0,
    0,
    0,
    0,
    0,
    0,
    0,
    0,
    0,
    0,
    0,
    0,
    0,
    0,
    0,
    0,
    0,
    0,
    0,
    0,
    0,
    0,
    0,
    0,
    0,
    0,
    0,
    0,
    0,
    0,
    0,
    0,
    0,
    0,
    0,
    0,
    0,
    0,
    0,
    0,
    0,
    0,
    0,
    0,
    0,
    0,
    0,
    0,
    0,
    0,
    0,
    0,
    0,
    0,
    0,
    0,
    0,
    0,
    0,
    0,
    0,
    0,
    0,
    0,
    0,
    0,
    0,
    0,
    0,
    0,
    0,
    0,
    0,
    0,
    0,
    0,
    0,
    0,
    0,
    0,
    0,
    0,
    0,
    0,
    0,
    0,
    0,
    0,
    0,
    0,
    0,
    0,
    0,
    0,
    0,
    0,
    0,
    0,
    0,
    0,
    0,
    226,
    0,
    0,
    0,
    0,
    0,
    0,
    0,
    0,
    0,
    0,
    0,
    0,
    0,
    0,
    0,
    0,
    259,
    0,
    0,
    0,
    0,
    0,
    0,
    0,
    195,
    0,
    0,
    0,
    0,
    0,
    0,
    0,
    0,
    0,
    0,
    0,
    0,
    0,
    0,
    0,
    0,
    0,
    0,
    0,
    0,
    0,
    0,
    0,
    0,
    0,
    0,
    0,
    0,
    0,
    0,
    0,
    0,
    0,
    0,
    0,
    0,
    0,
    0,
    0,
    0,
    0,
    0,
    0,
    0,
    0,
    0,
    0,
    0,
    0,
    0,
    0,
    0,
    0,
    0,
    0,
    0,
    0,
    0,
    0,
    0,
    0,
    0,
    0,
    0,
    0,
    0,
    0,
    0,
    0,
    0,
    0,
    0,
    0,
    0,
    0,
    0,
    0,
    0,
    0,
    0,
    0,
    0,
    0,
    0,
    0,
    0,
    0,
    0,
    0,
    0,
    0,
    0,
    0,
    0,
    0,
    0,
    0,
    0,
    0,
    0,
    0,
    0,
    0,
    0,
    0,
    0,
    0,
    0,
    0,
    0,
    0,
    0,
    0,
    0,
    0,
    0,
    0,
    0,
    0,
    0,
    0,
    0,
    0,
    0,
    0,
    226,
    0,
    0,
    0,
    196,
    0,
    197,
    0,
    0,
    290,
    0,
    0,
    0,
    0,
    0,
    0,
    0,
    0,
    0,
    290,
    0,
    0,
    0,
    0,
    0,
    0,
    0,
    0,
    0,
    0,
    0,
    0,
    0,
    0,
    0,
    0,
    0,
    0,
    0,
    0,
    290,
    0,
    0,
    0,
    0,
    0,
    0,
    0,
    0,
    0,
    0,
    0,
    0,
    0,
    0,
    0,
    0,
    0,
    0,
    0,
    0,
    0,
    0,
    0,
    0,
    0,
    0,
    0,
    0,
    0,
    0,
    0,
    0,
    0,
    0,
    0,
    0,
    0,
    0,
    0,
    0,
    0,
    0,
    0,
    0,
    0,
    0,
    0,
    0,
    0,
    0,
    0,
    0,
    0,
    0,
    0,
    0,
    0,
    0,
    0,
    0,
    0,
    0,
    0,
    0,
    0,
    0,
    0,
    0,
    0,
    0,
    0,
    0,
    0,
    0,
    0,
    0,
    0,
    0,
    0,
    0,
    0,
    0,
    0,
    0,
    0,
    0,
    0,
    0,
    0,
    0,
    0,
    0,
    0,
    0,
    0,
    0,
    0,
    0,
    0,
    0,
    0,
    0,
    0,
    0,
    0,
    0,
    0,
    0,
    0,
    0,
    0,
    0,
    0,
    0,
    0,
    0,
    0,
    0,
    0,
    0,
    0,
    0,
    0,
    0,
    0,
    0,
    0,
    0,
    0,
    0,
    0,
    0,
    0,
    0,
    0,
    0,
    0,
    0,
    0,
    0,
    0,
    0,
    0,
    0,
    0,
    0,
    0,
    0,
    0,
    0,
    0,
    0,
    227,
    0,
    0,
    0,
    0,
    0,
    0,
    0,
    0,
    0,
    0,
    0,
    0,
    0,
    0,
    0,
    0,
    0,
    0,
    0,
    0,
    0,
    0,
    0,
    0,
    0,
    0,
    0,
    0,
    0,
    0,
    0,
    0,
    0,
    0,
    0,
    0,
    0,
    0,
    0,
    0,
    0,
    0,
    0,
    0,
    0,
    0,
    0,
    0,
    0,
    0,
    0,
    0,
    0,
    0,
    0,
    0,
    0,
    0,
    0,
    0,
    0,
    0,
    0,
    0,
    0,
    0,
    0,
    0,
    0,
    0,
    0,
    0,
    0,
    0,
    0,
    0,
    0,
    0,
    0,
    0,
    0,
    0,
    0,
    0,
    0,
    0,
    0,
    0,
    0,
    0,
    0,
    0,
    0,
    0,
    0,
    0,
    0,
    0,
    0,
    0,
    0,
    0,
    0,
    226,
    0,
    0,
    0,
    0,
    0,
    0,
    0,
    0,
    0,
    0,
    0,
    0,
    0,
    0,
    0,
    0,
    0,
    0,
    0,
    0,
    0,
    0,
    0,
    0,
    0,
    0,
    0,
    0,
    0,
    0,
    195,
    0,
    0,
    0,
    0,
    0,
    0,
    0,
    290,
    0,
    290,
    0,
    0,
    0,
    0,
    0,
    0,
    0,
    0,
    0,
    0,
    0,
    0,
    0,
    0,
    0,
    0,
    0,
    0,
    0,
    0,
    0,
    0,
    0,
    0,
    0,
    0,
    0,
    0,
    0,
    0,
    0,
    0,
    0,
    0,
    0,
    0,
    0,
    0,
    0,
    0,
    0,
    0,
    0,
    0,
    0,
    0,
    0,
    0,
    0,
    0,
    0,
    0,
    0,
    0,
    0,
    0,
    0,
    0,
    0,
    0,
    0,
    0,
    0,
    0,
    0,
    0,
    0,
    0,
    0,
    0,
    0,
    0,
    0,
    0,
    0,
    0,
    0,
    0,
    0,
    0,
    0,
    0,
    0,
    0,
    0,
    0,
    0,
    0,
    0,
    0,
    0,
    0,
    0,
    0,
    0,
    0,
    0,
    0,
    0,
    0,
    0,
    0,
    0,
    0,
    0,
    0,
    0,
    0,
    0,
    0,
    0,
    0,
    0,
    0,
    0,
    0,
    0,
    0,
    0,
    0,
    290,
    0,
    0,
    227,
    0,
    0,
    290,
    0,
    0,
    226,
    0,
    0,
    0,
    0,
    0,
    226,
    259,
    0,
    0,
    195,
    0,
    196,
    0,
    0,
    227,
    0,
    0,
    0,
    0,
    0,
    0,
    0,
    0,
    0,
    0,
    0,
    0,
    0,
    0,
    0,
    0,
    0,
    0,
    0,
    0,
    0,
    0,
    0,
    0,
    0,
    0,
    0,
    0,
    0,
    0,
    0,
    0,
    0,
    0,
    0,
    0,
    0,
    0,
    0,
    0,
    0,
    0,
    0,
    0,
    0,
    0,
    0,
    0,
    0,
    0,
    0,
    0,
    0,
    0,
    0,
    0,
    0,
    0,
    0,
    0,
    0,
    0,
    0,
    0,
    0,
    0,
    0,
    0,
    0,
    0,
    0,
    0,
    0,
    0,
    0,
    0,
    0,
    0,
    0,
    0,
    0,
    0,
    0,
    0,
    0,
    0,
    0,
    0,
    0,
    0,
    0,
    0,
    0,
    0,
    0,
    0,
    0,
    0,
    0,
    0,
    0,
    0,
    0,
    0,
    0,
    0,
    0,
    0,
    0,
    0,
    0,
    0,
    0,
    0,
    0,
    0,
    0,
    0,
    0,
    0,
    0,
    0,
    0,
    0,
    0,
    0,
    0,
    0,
    0,
    0,
    0,
    0,
    0,
    0,
    0,
    0,
    0,
    197,
    0,
    0,
    0,
    0,
    0,
    0,
    0,
    0,
    0,
    0,
    0,
    290,
    0,
    0,
    0,
    0,
    0,
    0,
    0,
    0,
    0,
    0,
    0,
    0,
    0,
    0,
    0,
    259,
    0,
    0,
    0,
    0,
    0,
    0,
    0,
    0,
    0,
    0,
    0,
    0,
    0,
    0,
    226,
    0,
    0,
    0,
    0,
    0,
    0,
    0,
    0,
    0,
    0,
    0,
    0,
    0,
    0,
    0,
    0,
    0,
    0,
    0,
    0,
    0,
    0,
    0,
    0,
    0,
    0,
    0,
    0,
    0,
    0,
    0,
    0,
    0,
    0,
    0,
    0,
    0,
    0,
    0,
    0,
    0,
    0,
    0,
    0,
    0,
    0,
    0,
    0,
    0,
    0,
    0,
    0,
    0,
    0,
    0,
    0,
    0,
    0,
    0,
    0,
    0,
    0,
    0,
    0,
    0,
    0,
    0,
    0,
    0,
    0,
    0,
    0,
    0,
    0,
    0,
    0,
    0,
    0,
    0,
    0,
    0,
    0,
    0,
    0,
    0,
    0,
    0,
    0,
    0,
    0,
    195,
    0,
    195,
    0,
    0,
    0,
    0,
    226,
    0,
    0,
    0,
    0,
    0,
    0,
    0,
    196,
    0,
    0,
    0,
    196,
    0,
    0,
    0,
    0,
    0,
    0,
    0,
    195,
    0,
    0,
    0,
    0,
    0,
    0,
    0,
    0,
    0,
    0,
    0,
    259,
    0,
    0,
    0,
    0,
    259,
    0,
    0,
    0,
    0,
    258,
    0,
    196,
    0,
    197,
    0,
    0,
    0,
    0,
    0,
    0,
    0,
    0,
    0,
    0,
    0,
    0,
    0,
    0,
    0,
    0,
    0,
    0,
    0,
    0,
    0,
    0,
    0,
    0,
    0,
    0,
    0,
    0,
    0,
    0,
    0,
    0,
    0,
    0,
    0,
    0,
    0,
    0,
    0,
    0,
    0,
    0,
    0,
    0,
    0,
    0,
    0,
    0,
    0,
    0,
    0,
    0,
    0,
    0,
    0,
    0,
    0,
    0,
    0,
    0,
    0,
    0,
    0,
    0,
    0,
    0,
    0,
    0,
    0,
    0,
    0,
    0,
    0,
    0,
    0,
    0,
    0,
    0,
    0,
    0,
    0,
    0,
    0,
    0,
    0,
    0,
    0,
    0,
    0,
    0,
    0,
    196,
    0,
    258,
    0,
    0,
    0,
    0,
    0,
    0,
    0,
    0,
    0,
    0,
    0,
    0,
    0,
    0,
    0,
    0,
    0,
    0,
    0,
    0,
    0,
    0,
    0,
    195,
    0,
    0,
    0,
    0,
    0,
    0,
    0,
    0,
    0,
    0,
    0,
    0,
    0,
    0,
    0,
    0,
    0,
    0,
    0,
    0,
    0,
    0,
    0,
    0,
    0,
    0,
    0,
    0,
    0,
    0,
    0,
    0,
    0,
    0,
    0,
    0,
    0,
    0,
    0,
    0,
    0,
    259,
    0,
    0,
    0,
    0,
    0,
    0,
    290,
    227,
    0,
    0,
    0,
    0,
    258,
    0,
    0,
    0,
    0,
    0,
    0,
    0,
    0,
    0,
    0,
    0,
    0,
    0,
    0,
    0,
    0,
    0,
    0,
    0,
    0,
    0,
    0,
    0,
    0,
    0,
    0,
    0,
    0,
    0,
    0,
    0,
    0,
    0,
    0,
    0,
    0,
    0,
    0,
    0,
    0,
    0,
    0,
    0,
    0,
    0,
    0,
    0,
    0,
    0,
    0,
    0,
    0,
    0,
    0,
    0,
    0,
    0,
    0,
    0,
    0,
    0,
    0,
    0,
    0,
    0,
    0,
    0,
    0,
    0,
    0,
    0,
    0,
    0,
    0,
    0,
    0,
    197,
    0,
    0,
    196,
    0,
    0,
    0,
    0,
    0,
    0,
    0,
    0,
    0,
    0,
    0,
    197,
    0,
    0,
    0,
    0,
    0,
    0,
    0,
    0,
    0,
    0,
    0,
    0,
    0,
    0,
    0,
    0,
    0,
    0,
    226,
    0,
    0,
    0,
    0,
    0,
    195,
    0,
    0,
    226,
    0,
    0,
    0,
    0,
    0,
    0,
    0,
    0,
    0,
    0,
    0,
    0,
    0,
    0,
    0,
    0,
    0,
    290,
    0,
    0,
    0,
    0,
    0,
    0,
    0,
    0,
    0,
    0,
    0,
    0,
    0,
    197,
    0,
    0,
    227,
    0,
    0,
    0,
    0,
    0,
    0,
    0,
    0,
    0,
    0,
    0,
    0,
    0,
    0,
    258,
    0,
    0,
    0,
    0,
    197,
    0,
    196,
    0,
    0,
    0,
    0,
    0,
    0,
    197,
    0,
    0,
    0,
    0,
    0,
    0,
    0,
    226,
    0,
    0,
    0,
    0,
    0,
    226,
    226,
    0,
    0,
    0,
    0,
    0,
    227,
    0,
    0,
    0,
    0,
    0,
    0,
    0,
    0,
    0,
    0,
    0,
    0,
    195,
    0,
    0,
    0,
    0,
    0,
    0,
    290,
    259,
    0,
    0,
    0,
    0,
    0,
    290,
    0,
    0,
    195,
    0,
    0,
    0,
    0,
    0,
    0,
    0,
    0,
    0,
    0,
    0,
    0,
    0,
    0,
    0,
    0,
    0,
    0,
    0,
    0,
    0,
    0,
    0,
    0,
    0,
    0,
    0,
    0,
    0,
    0,
    0,
    0,
    0,
    0,
    0,
    0,
    227,
    0,
    0,
    0,
    0,
    0,
    0,
    0,
    0,
    0,
    0,
    0,
    0,
    0,
    226,
    0,
    290,
    0,
    0,
    0,
    0,
    0,
    0,
    0,
    0,
    0,
    0,
    196,
    0,
    0,
    0,
    0,
    0,
    0,
    0,
    0,
    0,
    195,
    0,
    0,
    0,
    258,
    0,
    226,
    0,
    0,
    0,
    0,
    0,
    0,
    0,
    0,
    0,
    0,
    0,
    226,
    0,
    0,
    0,
    0,
    0,
    0,
    0,
    0,
    0,
    0,
    0,
    0,
    0,
    0,
    0,
    0,
    0,
    0,
    227,
    0,
    227,
    0,
    0,
    0,
    197,
    0,
    0,
    0,
    0,
    197,
    0,
    0,
    0,
    0,
    0,
    0,
    258,
    0,
    0,
    0,
    0,
    0,
    0,
    197,
    0,
    0,
    0,
    0,
    0,
    0,
    0,
    195,
    0,
    0,
    0,
    0,
    0,
    0,
    0,
    0,
    0,
    0,
    0,
    258,
    0,
    0,
    0,
    0,
    0,
    0,
    0,
    0,
    0,
    0,
    0,
    0,
    0,
    0,
    0,
    0,
    0,
    0,
    0,
    0,
    0,
    0,
    0,
    0,
    0,
    197,
    0,
    0,
    195,
    0,
    197,
    0,
    0,
    0,
    0,
    0,
    0,
    0,
    0,
    0,
    0,
    0,
    0,
    0,
    0,
    259,
    0,
    0,
    0,
    0,
    0,
    0,
    0,
    0,
    0,
    0,
    0,
    0,
    0,
    0,
    0,
    259,
    0,
    0,
    0,
    0,
    0,
    0,
    0,
    290,
    0,
    0,
    0,
    0,
    195,
    0,
    0,
    0,
    0,
    0,
    0,
    0,
    0,
    0,
    0,
    0,
    0,
    0,
    0,
    0,
    0,
    0,
    0,
    0,
    0,
    0,
    0,
    227,
    0,
    0,
    0,
    0,
    0,
    0,
    0,
    0,
    0,
    0,
    0,
    226,
    0,
    0,
    196,
    0,
    227,
    0,
    0,
    0,
    0,
    0,
    0,
    195,
    0,
    0,
    0,
    0,
    0,
    0,
    0,
    0,
    0,
    0,
    0,
    0,
    0,
    0,
    0,
    0,
    0,
    0,
    0,
    290,
    0,
    0,
    0,
    0,
    0,
    0,
    0,
    0,
    0,
    0,
    0,
    0,
    0,
    0,
    0,
    0,
    0,
    0,
    226,
    195,
    0,
    0,
    0,
    197,
    195,
    0,
    0,
    0,
    0,
    0,
    0,
    0,
    0,
    0,
    0,
    0,
    0,
    0,
    0,
    0,
    0,
    0,
    0,
    0,
    0,
    0,
    0,
    0,
    0,
    0,
    0,
    0,
    290,
    0,
    0,
    0,
    0,
    0,
    0,
    0,
    0,
    258,
    0,
    0,
    0,
    0,
    0,
    0,
    0,
    0,
    226,
    0,
    0,
    0,
    0,
    0,
    0,
    0,
    197,
    197,
    0,
    0,
    0,
    0,
    0,
    0,
    0,
    0,
    0,
    258,
    0,
    0,
    0,
    0,
    0,
    0,
    0,
    0,
    0,
    197,
    258,
    0,
    0,
    0,
    0,
    0,
    0,
    290,
    0,
    0,
    227,
    0,
    0,
    0,
    0,
    0,
    0,
    0,
    0,
    0,
    0,
    0,
    0,
    0,
    0,
    0,
    0,
    259,
    0,
    0,
    0,
    0,
    0,
    0,
    226,
    0,
    0,
    196,
    0,
    0,
    0,
    0,
    0,
    0,
    0,
    0,
    0,
    0,
    0,
    0,
    196,
    0,
    0,
    0,
    0,
    0,
    0,
    0,
    0,
    0,
    0,
    0,
    0,
    0,
    0,
    0,
    0,
    0,
    0,
    0,
    0,
    0,
    0,
    0,
    0,
    0,
    0,
    0,
    0,
    0,
    0,
    0,
    0,
    0,
    0,
    0,
    0,
    0,
    0,
    0,
    0,
    0,
    0,
    0,
    0,
    196,
    0,
    0,
    0,
    0,
    0,
    0,
    0,
    0,
    0,
    0,
    0,
    0,
    0,
    0,
    0,
    0,
    0,
    0,
    0,
    0,
    0,
    0,
    0,
    290,
    195,
    0,
    0,
    0,
    0,
    0,
    0,
    0,
    0,
    0,
    0,
    0,
    0,
    227,
    0,
    0,
    0,
    0,
    0,
    0,
    0,
    0,
    0,
    0,
    0,
    0,
    0,
    197,
    0,
    290,
    0,
    0,
    0,
    0,
    0,
    0,
    0,
    0,
    0,
    0,
    0,
    0,
    0,
    0,
    0,
    0,
    0,
    0,
    0,
    0,
    0,
    0,
    0,
    0,
    0,
    0,
    0,
    0,
    0,
    0,
    0,
    0,
    0,
    0,
    0,
    0,
    0,
    0,
    0,
    0,
    0,
    0,
    0,
    0,
    0,
    0,
    0,
    0,
    0,
    0,
    0,
    0,
    0,
    0,
    0,
    0,
    0,
    227,
    0,
    0,
    0,
    0,
    0,
    0,
    0,
    196,
    0,
    0,
    0,
    0,
    0,
    0,
    0,
    0,
    0,
    195,
    0,
    0,
    0,
    0,
    0,
    0,
    0,
    0,
    0,
    0,
    0,
    197,
    0,
    0,
    0,
    0,
    0,
    0,
    195,
    0,
    0,
    0,
    0,
    0,
    0,
    226,
    0,
    195,
    0,
    0,
    0,
    0,
    0,
    0,
    0,
    290,
    0,
    0,
    0,
    0,
    0,
    197,
    258,
    0,
    0,
    0,
    0,
    0,
    0,
    0,
    0,
    0,
    0,
    0,
    0,
    0,
    195,
    0,
    0,
    0,
    196,
    0,
    0,
    0,
    0,
    0,
    0,
    0,
    0,
    0,
    0,
    0,
    0,
    0,
    0,
    0,
    0,
    0,
    0,
    0,
    0,
    0,
    0,
    0,
    0,
    0,
    0,
    0,
    195,
    0,
    0,
    0,
    0,
    0,
    0,
    0,
    197,
    0,
    0,
    0,
    0,
    0,
    0,
    197,
    0,
    0,
    0,
    0,
    196,
    0,
    290,
    290,
    0,
    0,
    0,
    0,
    226,
    0,
    0,
    227,
    0,
    0,
    0,
    0,
    0,
    0,
    0,
    0,
    0,
    0,
    0,
    226,
    0,
    0,
    0,
    0,
    0,
    0,
    195,
    0,
    0,
    0,
    259,
    0,
    0,
    0,
    0,
    0,
    0,
    0,
    0,
    0,
    0,
    0,
    0,
    0,
    0,
    0,
    0,
    0,
    0,
    0,
    0,
    0,
    0,
    0,
    0,
    0,
    0,
    0,
    0,
    0,
    0,
    0,
    0,
    0,
    0,
    0,
    0,
    0,
    0,
    0,
    0,
    0,
    0,
    0,
    0,
    0,
    0,
    0,
    0,
    0,
    0,
    0,
    0,
    0,
    0,
    0,
    0,
    0,
    0,
    0,
    0,
    290,
    0,
    0,
    196,
    0,
    0,
    0,
    259,
    0,
    0,
    0,
    290,
    0,
    0,
    0,
    0,
    0,
    0,
    0,
    0,
    0,
    259,
    195,
    0,
    0,
    0,
    0,
    0,
    0,
    0,
    226,
    0,
    0,
    0,
    0,
    0,
    0,
    0,
    0,
    0,
    0,
    0,
    0,
    197,
    0,
    0,
    0,
    0,
    290,
    0,
    0,
    0,
    0,
    0,
    227,
    0,
    0,
    0,
    0,
    0,
    0,
    226,
    0,
    0,
    0,
    0,
    290,
    290,
    0,
    0,
    0,
    0,
    0,
    0,
    0,
    0,
    226,
    0,
    0,
    0,
    0,
    0,
    0,
    0,
    0,
    0,
    0,
    0,
    0,
    0,
    0,
    0,
    0,
    258,
    0,
    0,
    0,
    0,
    0,
    0,
    0,
    0,
    259,
    0,
    0,
    0,
    0,
    0,
    0,
    0,
    0,
    0,
    0,
    0,
    0,
    226,
    0,
    0,
    0,
    0,
    0,
    0,
    0,
    0,
    0,
    0,
    0,
    0,
    0,
    0,
    0,
    0,
    0,
    0,
    0,
    0,
    258,
    0,
    290,
    0,
    0,
    0,
    0,
    0,
    0,
    0,
    0,
    0,
    0,
    0,
    0,
    0,
    0,
    0,
    0,
    0,
    0,
    0,
    226,
    259,
    0,
    0,
    0,
    258,
    0,
    196,
    0,
    0,
    0,
    0,
    290,
    0,
    0,
    197,
    0,
    0,
    0,
    0,
    0,
    0,
    0,
    0,
    0,
    0,
    0,
    0,
    0,
    0,
    0,
    0,
    0,
    195,
    0,
    0,
    0,
    0,
    0,
    0,
    0,
    0,
    0,
    0,
    0,
    0,
    0,
    0,
    0,
    0,
    0,
    0,
    0,
    0,
    0,
    195,
    196,
    0,
    0,
    0,
    0,
    0,
    0,
    0,
    0,
    0,
    226,
    0,
    226,
    0,
    0,
    0,
    0,
    0,
    0,
    0,
    0,
    0,
    0,
    0,
    0,
    0,
    0,
    0,
    0,
    0,
    0,
    0,
    0,
    0,
    0,
    0,
    0,
    258,
    0,
    0,
    0,
    0,
    0,
    0,
    0,
    0,
    0,
    0,
    0,
    0,
    0,
    0,
    290,
    0,
    0,
    0,
    0,
    0,
    197,
    0,
    0,
    0,
    0,
    0,
    0,
    0,
    0,
    0,
    0,
    0,
    0,
    0,
    0,
    0,
    0,
    0,
    0,
    0,
    0,
    0,
    0,
    0,
    0,
    195,
    0,
    0,
    0,
    0,
    227,
    0,
    0,
    0,
    0,
    0,
    0,
    0,
    0,
    0,
    0,
    0,
    0,
    0,
    0,
    0,
    0,
    0,
    0,
    0,
    0,
    0,
    0,
    0,
    0,
    227,
    0,
    0,
    0,
    0,
    0,
    0,
    0,
    0,
    0,
    0,
    0,
    0,
    0,
    0,
    0,
    0,
    0,
    0,
    258,
    0,
    0,
    0,
    0,
    195,
    259,
    0,
    0,
    0,
    0,
    0,
    258,
    0,
    0,
    0,
    0,
    0,
    0,
    0,
    0,
    0,
    0,
    227,
    0,
    0,
    0,
    0,
    0,
    0,
    0,
    0,
    197,
    258,
    0,
    0,
    0,
    0,
    0,
    0,
    0,
    0,
    0,
    0,
    0,
    0,
    0,
    0,
    0,
    0,
    0,
    0,
    0,
    0,
    0,
    0,
    0,
    0,
    0,
    0,
    0,
    0,
    0,
    0,
    0,
    0,
    0,
    0,
    0,
    0,
    0,
    0,
    0,
    0,
    0,
    0,
    196,
    0,
    0,
    0,
    0,
    0,
    0,
    0,
    0,
    0,
    0,
    0,
    0,
    0,
    0,
    0,
    0,
    0,
    0,
    0,
    0,
    290,
    0,
    0,
    0,
    197,
    0,
    0,
    0,
    0,
    0,
    0,
    0,
    0,
    0,
    0,
    0,
    0,
    0,
    0,
    0,
    0,
    0,
    0,
    0,
    258,
    0,
    0,
    0,
    0,
    0,
    0,
    0,
    0,
    0,
    196,
    0,
    0,
    0,
    0,
    0,
    0,
    290,
    227,
    0,
    0,
    0,
    0,
    0,
    0,
    0,
    0,
    290,
    0,
    0,
    0,
    0,
    0,
    0,
    0,
    195,
    0,
    0,
    0,
    0,
    0,
    0,
    0,
    0,
    0,
    0,
    0,
    0,
    290,
    0,
    0,
    0,
    0,
    0,
    0,
    0,
    0,
    0,
    290,
    0,
    0,
    0,
    0,
    0,
    0,
    0,
    0,
    0,
    259,
    0,
    0,
    0,
    0,
    0,
    0,
    0,
    0,
    195,
    0,
    0,
    0,
    0,
    0,
    0,
    0,
    259,
    0,
    0,
    0,
    0,
    0,
    0,
    0,
    0,
    0,
    0,
    0,
    0,
    0,
    0,
    0,
    0,
    197,
    0,
    0,
    0,
    0,
    0,
    0,
    0,
    0,
    0,
    0,
    0,
    226,
    0,
    0,
    0,
    0,
    0,
    0,
    0,
    0,
    0,
    0,
    0,
    0,
    0,
    0,
    0,
    0,
    0,
    0,
    0,
    0,
    0,
    0,
    196,
    0,
    0,
    0,
    0,
    0,
    0,
    0,
    0,
    0,
    0,
    0,
    0,
    0,
    0,
    0,
    0,
    0,
    0,
    0,
    0,
    197,
    259,
    0,
    0,
    0,
    0,
    0,
    0,
    0,
    0,
    0,
    0,
    0,
    0,
    0,
    0,
    0,
    0,
    0,
    0,
    0,
    0,
    0,
    0,
    0,
    0,
    196,
    0,
    0,
    0,
    0,
    0,
    0,
    0,
    0,
    0,
    258,
    226,
    0,
    0,
    196,
    0,
    0,
    0,
    0,
    197,
    0,
    0,
    0,
    0,
    0,
    0,
    0,
    0,
    0,
    0,
    259,
    0,
    0,
    197,
    0,
    0,
    227,
    0,
    226,
    0,
    258,
    0,
    0,
    0,
    226,
    0,
    0,
    0,
    0,
    0,
    0,
    227,
    0,
    0,
    0,
    0,
    0,
    0,
    0,
    196,
    227,
    0,
    290,
    0,
    0,
    196,
    0,
    0,
    0,
    0,
    0,
    0,
    0,
    0,
    0,
    0,
    0,
    0,
    0,
    0,
    0,
    0,
    0,
    0,
    0,
    0,
    0,
    0,
    0,
    0,
    195,
    0,
    0,
    0,
    227,
    0,
    0,
    290,
    0,
    0,
    196,
    0,
    0,
    0,
    259,
    0,
    0,
    0,
    0,
    0,
    197,
    0,
    0,
    0,
    0,
    0,
    226,
    195,
    0,
    0,
    0,
    0,
    0,
    0,
    195,
    0,
    0,
    0,
    0,
    0,
    195,
    0,
    0,
    0,
    258,
    0,
    0,
    0,
    0,
    0,
    0,
    0,
    0,
    0,
    0,
    0,
    0,
    0,
    195,
    0,
    0,
    290,
    0,
    0,
    0,
    0,
    0,
    0,
    0,
    0,
    0,
    0,
    0,
    0,
    0,
    0,
    0,
    0,
    0,
    0,
    0,
    0,
    0,
    197,
    0,
    0,
    0,
    0,
    0,
    0,
    0,
    0,
    0,
    0,
    0,
    0,
    0,
    0,
    0,
    0,
    0,
    0,
    0,
    0,
    0,
    0,
    0,
    0,
    0,
    226,
    0,
    0,
    0,
    0,
    0,
    0,
    0,
    0,
    0,
    0,
    0,
    0,
    0,
    0,
    0,
    0,
    0,
    259,
    0,
    0,
    0,
    0,
    0,
    0,
    197,
    0,
    0,
    0,
    0,
    0,
    0,
    0,
    0,
    196,
    0,
    0,
    0,
    227,
    0,
    0,
    0,
    0,
    0,
    0,
    0,
    0,
    0,
    0,
    0,
    0,
    0,
    259,
    0,
    0,
    0,
    0,
    0,
    0,
    0,
    0,
    196,
    0,
    0,
    0,
    258,
    0,
    0,
    0,
    0,
    0,
    259,
    0,
    0,
    0,
    0,
    0,
    226,
    0,
    0,
    226,
    0,
    0,
    0,
    226,
    0,
    0,
    0,
    0,
    0,
    0,
    0,
    0,
    0,
    196,
    0,
    0,
    0,
    227,
    0,
    0,
    0,
    290,
    0,
    259,
    0,
    0,
    0,
    0,
    0,
    0,
    0,
    0,
    0,
    0,
    0,
    197,
    0,
    0,
    290,
    226,
    227,
    0,
    0,
    0,
    0,
    0,
    0,
    0,
    0,
    0,
    0,
    0,
    0,
    0,
    0,
    226,
    0,
    0,
    0,
    0,
    0,
    259,
    195,
    0,
    0,
    0,
    0,
    0,
    0,
    0,
    0,
    0,
    0,
    0,
    0,
    0,
    0,
    0,
    0,
    0,
    0,
    195,
    0,
    0,
    0,
    0,
    259,
    0,
    0,
    0,
    0,
    258,
    0,
    0,
    0,
    0,
    0,
    197,
    0,
    0,
    0,
    197,
    0,
    0,
    259,
    226,
    0,
    290,
    0,
    0,
    0,
    0,
    0,
    0,
    0,
    0,
    0,
    0,
    0,
    0,
    0,
    0,
    0,
    0,
    0,
    0,
    0,
    0,
    0,
    0,
    0,
    0,
    0,
    0,
    0,
    0,
    0,
    0,
    0,
    0,
    0,
    0,
    0,
    0,
    0,
    0,
    0,
    0,
    0,
    0,
    0,
    0,
    0,
    0,
    0,
    0,
    0,
    0,
    258,
    0,
    0,
    0,
    0,
    0,
    0,
    0,
    0,
    0,
    258,
    0,
    0,
    0,
    0,
    0,
    0,
    0,
    0,
    0,
    0,
    0,
    290,
    0,
    0,
    0,
    0,
    0,
    0,
    0,
    0,
    0,
    0,
    0,
    0,
    0,
    0,
    0,
    0,
    0,
    0,
    0,
    0,
    195,
    0,
    0,
    0,
    0,
    0,
    0,
    0,
    0,
    0,
    0,
    0,
    0,
    0,
    0,
    0,
    0,
    258,
    0,
    258,
    0,
    0,
    0,
    0,
    0,
    0,
    0,
    0,
    0,
    0,
    0,
    227,
    195,
    0,
    0,
    0,
    0,
    0,
    0,
    0,
    0,
    0,
    0,
    0,
    226,
    0,
    0,
    0,
    0,
    0,
    0,
    258,
    0,
    0,
    0,
    0,
    0,
    0,
    0,
    0,
    0,
    0,
    0,
    0,
    0,
    0,
    0,
    197,
    0,
    0,
    0,
    0,
    0,
    0,
    0,
    0,
    0,
    0,
    0,
    290,
    259,
    0,
    0,
    0,
    0,
    0,
    0,
    0,
    0,
    0,
    0,
    0,
    0,
    0,
    0,
    0,
    195,
    0,
    196,
    0,
    0,
    0,
    0,
    0,
    0,
    0,
    0,
    227,
    0,
    0,
    0,
    0,
    0,
    0,
    0,
    197,
    0,
    0,
    0,
    227,
    0,
    227,
    0,
    0,
    0,
    0,
    0,
    0,
    0,
    0,
    0,
    0,
    0,
    196,
    226,
    196,
    0,
    0,
    196,
    0,
    0,
    0,
    0,
    0,
    0,
    0,
    0,
    0,
    0,
    0,
    0,
    0,
    0,
    0,
    0,
    0,
    0,
    0,
    227,
    0,
    0,
    0,
    0,
    226,
    258,
    0,
    0,
    0,
    0,
    0,
    0,
    0,
    0,
    0,
    0,
    0,
    0,
    0,
    0,
    0,
    290,
    0,
    0,
    0,
    0,
    0,
    0,
    0,
    0,
    0,
    0,
    0,
    0,
    0,
    0,
    0,
    0,
    0,
    227,
    0,
    259,
    0,
    0,
    0,
    0,
    0,
    0,
    0,
    0,
    0,
    0,
    0,
    0,
    0,
    0,
    0,
    0,
    0,
    0,
    0,
    0,
    0,
    0,
    259,
    0,
    0,
    0,
    0,
    0,
    0,
    0,
    0,
    0,
    0,
    0,
    0,
    0,
    0,
    0,
    0,
    0,
    0,
    0,
    0,
    0,
    0,
    0,
    0,
    0,
    0,
    0,
    258,
    0,
    0,
    195,
    259,
    0,
    226,
    0,
    0,
    0,
    0,
    0,
    0,
    0,
    258,
    0,
    0,
    259,
    0,
    0,
    0,
    0,
    0,
    0,
    0,
    0,
    195,
    0,
    0,
    0,
    0,
    0,
    0,
    0,
    259,
    0,
    259,
    0,
    0,
    0,
    0,
    0,
    258,
    0,
    0,
    0,
    0,
    0,
    0,
    0,
    0,
    0,
    0,
    0,
    0,
    258,
    0,
    0,
    0,
    0,
    0,
    0,
    0,
    0,
    0,
    0,
    0,
    0,
    0,
    0,
    0,
    0,
    0,
    0,
    0,
    0,
    0,
    0,
    0,
    0,
    0,
    0,
    0,
    0,
    0,
    0,
    0,
    0,
    0,
    0,
    0
   ]
  },
  {
   "id": 4,
   "name": "collision",
   "type": "objectgroup",
   "x": 0,
   "y": 0,
   "opacity": 1,
   "visible": true,
   "objects": [],
   "draworder": "topdown"
  }
 ],
 "compressionlevel": -1
}